P3
8 8
255
139 69 19 139 69 19 139 69 19 139 69 19 139 69 19 139 69 19 139 69 19 139 69 19
139 69 19 139 69 19 139 69 19 139 69 19 139 69 19 139 69 19 139 69 19 139 69 19
139 69 19 139 69 19 139 69 19 139 69 19 139 69 19 139 69 19 139 69 19 139 69 19
139 69 19 139 69 19 139 69 19 139 69 19 139 69 19 139 69 19 139 69 19 139 69 19
139 69 19 139 69 19 139 69 19 139 69 19 139 69 19 139 69 19 139 69 19 139 69 19
139 69 19 139 69 19 139 69 19 139 69 19 139 69 19 139 69 19 139 69 19 139 69 19
139 69 19 139 69 19 139 69 19 139 69 19 139 69 19 139 69 19 139 69 19 139 69 19
139 69 19 139 69 19 139 69 19 139 69 19 139 69 19 139 69 19 139 69 19 139 69 19
