P3
32 32
255
200 120 10 200 120 10 200 120 10 200 120 10 200 120 10 200 120 10 200 120 10 200 120 10
200 120 10 200 120 10 200 120 10 200 120 10 200 120 10 200 120 10 200 120 10 200 120 10
200 120 10 200 120 10 200 120 10 200 120 10 200 120 10 200 120 10 200 120 10 200 120 10
200 120 10 200 120 10 200 120 10 200 120 10 200 120 10 200 120 10 200 120 10 200 120 10
200 120 10 200 120 10 200 120 10 200 120 10 200 120 10 200 120 10 200 120 10 200 120 10
200 120 10 200 120 10 200 120 10 200 120 10 200 120 10 200 120 10 200 120 10 200 120 10
200 120 10 200 120 10 200 120 10 200 120 10 200 120 10 200 120 10 200 120 10 200 120 10
200 120 10 200 120 10 200 120 10 200 120 10 200 120 10 200 120 10 200 120 10 200 120 10
200 120 10 200 120 10 200 120 10 200 120 10 200 120 10 200 120 10 200 120 10 200 120 10
200 120 10 200 120 10 200 120 10 200 120 10 200 120 10 200 120 10 200 120 10 200 120 10
200 120 10 200 120 10 200 120 10 200 120 10 200 120 10 200 120 10 200 120 10 200 120 10
200 120 10 200 120 10 200 120 10 200 120 10 200 120 10 200 120 10 200 120 10 200 120 10
200 120 10 200 120 10 200 120 10 200 120 10 200 120 10 200 120 10 200 120 10 200 120 10
200 120 10 200 120 10 200 120 10 200 120 10 200 120 10 200 120 10 200 120 10 200 120 10
200 120 10 200 120 10 200 120 10 200 120 10 200 120 10 200 120 10 200 120 10 200 120 10
200 120 10 200 120 10 200 120 10 200 120 10 200 120 10 200 120 10 200 120 10 200 120 10
200 120 10 200 120 10 200 120 10 200 120 10 200 120 10 200 120 10 200 120 10 200 120 10
200 120 10 200 120 10 200 120 10 200 120 10 200 120 10 200 120 10 200 120 10 200 120 10
200 120 10 200 120 10 200 120 10 200 120 10 200 120 10 200 120 10 200 120 10 200 120 10
200 120 10 200 120 10 200 120 10 200 120 10 200 120 10 200 120 10 200 120 10 200 120 10
200 120 10 200 120 10 200 120 10 200 120 10 200 120 10 200 120 10 200 120 10 200 120 10
200 120 10 200 120 10 200 120 10 200 120 10 200 120 10 200 120 10 200 120 10 200 120 10
200 120 10 200 120 10 200 120 10 200 120 10 200 120 10 200 120 10 200 120 10 200 120 10
200 120 10 200 120 10 200 120 10 200 120 10 200 120 10 200 120 10 200 120 10 200 120 10
200 120 10 200 120 10 200 120 10 200 120 10 200 120 10 200 120 10 200 120 10 200 120 10
200 120 10 200 120 10 200 120 10 200 120 10 200 120 10 200 120 10 200 120 10 200 120 10
200 120 10 200 120 10 200 120 10 200 120 10 200 120 10 200 120 10 200 120 10 200 120 10
200 120 10 200 120 10 200 120 10 200 120 10 200 120 10 200 120 10 200 120 10 200 120 10
200 120 10 200 120 10 200 120 10 200 120 10 200 120 10 200 120 10 200 120 10 200 120 10
200 120 10 200 120 10 200 120 10 200 120 10 200 120 10 200 120 10 200 120 10 200 120 10
200 120 10 200 120 10 200 120 10 200 120 10 200 120 10 200 120 10 200 120 10 200 120 10
200 120 10 200 120 10 200 120 10 200 120 10 200 120 10 200 120 10 200 120 10 200 120 10
200 120 10 200 120 10 200 120 10 200 120 10 200 120 10 200 120 10 200 120 10 200 120 10
200 120 10 200 120 10 200 120 10 200 120 10 200 120 10 200 120 10 200 120 10 200 120 10
200 120 10 200 120 10 200 120 10 200 120 10 200 120 10 200 120 10 200 120 10 200 120 10
200 120 10 200 120 10 200 120 10 200 120 10 200 120 10 200 120 10 200 120 10 200 120 10
200 120 10 200 120 10 200 120 10 200 120 10 200 120 10 200 120 10 200 120 10 200 120 10
200 120 10 200 120 10 200 120 10 200 120 10 200 120 10 200 120 10 200 120 10 200 120 10
200 120 10 200 120 10 200 120 10 200 120 10 200 120 10 200 120 10 200 120 10 200 120 10
200 120 10 200 120 10 200 120 10 200 120 10 200 120 10 200 120 10 200 120 10 200 120 10
200 120 10 200 120 10 200 120 10 200 120 10 200 120 10 200 120 10 200 120 10 200 120 10
200 120 10 200 120 10 200 120 10 200 120 10 200 120 10 200 120 10 200 120 10 200 120 10
200 120 10 200 120 10 200 120 10 200 120 10 200 120 10 200 120 10 200 120 10 200 120 10
200 120 10 200 120 10 200 120 10 200 120 10 200 120 10 200 120 10 200 120 10 200 120 10
200 120 10 200 120 10 200 120 10 200 120 10 200 120 10 200 120 10 200 120 10 200 120 10
200 120 10 200 120 10 200 120 10 200 120 10 200 120 10 200 120 10 200 120 10 200 120 10
200 120 10 200 120 10 200 120 10 200 120 10 200 120 10 200 120 10 200 120 10 200 120 10
200 120 10 200 120 10 200 120 10 200 120 10 200 120 10 200 120 10 200 120 10 200 120 10
200 120 10 200 120 10 200 120 10 200 120 10 200 120 10 200 120 10 200 120 10 200 120 10
200 120 10 200 120 10 200 120 10 200 120 10 200 120 10 200 120 10 200 120 10 200 120 10
200 120 10 200 120 10 200 120 10 200 120 10 200 120 10 200 120 10 200 120 10 200 120 10
200 120 10 200 120 10 200 120 10 200 120 10 200 120 10 200 120 10 200 120 10 200 120 10
200 120 10 200 120 10 200 120 10 200 120 10 200 120 10 200 120 10 200 120 10 200 120 10
200 120 10 200 120 10 200 120 10 200 120 10 200 120 10 200 120 10 200 120 10 200 120 10
200 120 10 200 120 10 200 120 10 200 120 10 200 120 10 200 120 10 200 120 10 200 120 10
200 120 10 200 120 10 200 120 10 200 120 10 200 120 10 200 120 10 200 120 10 200 120 10
200 120 10 200 120 10 200 120 10 200 120 10 200 120 10 200 120 10 200 120 10 200 120 10
200 120 10 200 120 10 200 120 10 200 120 10 200 120 10 200 120 10 200 120 10 200 120 10
200 120 10 200 120 10 200 120 10 200 120 10 200 120 10 200 120 10 200 120 10 200 120 10
200 120 10 200 120 10 200 120 10 200 120 10 200 120 10 200 120 10 200 120 10 200 120 10
200 120 10 200 120 10 200 120 10 200 120 10 200 120 10 200 120 10 200 120 10 200 120 10
200 120 10 200 120 10 200 120 10 200 120 10 200 120 10 200 120 10 200 120 10 200 120 10
200 120 10 200 120 10 200 120 10 200 120 10 200 120 10 200 120 10 200 120 10 200 120 10
200 120 10 200 120 10 200 120 10 200 120 10 200 120 10 200 120 10 200 120 10 200 120 10
200 120 10 200 120 10 200 120 10 200 120 10 200 120 10 200 120 10 200 120 10 200 120 10
200 120 10 200 120 10 200 120 10 200 120 10 200 120 10 200 120 10 200 120 10 200 120 10
200 120 10 200 120 10 200 120 10 200 120 10 200 120 10 200 120 10 200 120 10 200 120 10
200 120 10 200 120 10 200 120 10 200 120 10 200 120 10 200 120 10 200 120 10 200 120 10
200 120 10 200 120 10 200 120 10 200 120 10 200 120 10 200 120 10 200 120 10 200 120 10
200 120 10 200 120 10 200 120 10 200 120 10 200 120 10 200 120 10 200 120 10 200 120 10
200 120 10 200 120 10 200 120 10 200 120 10 200 120 10 200 120 10 200 120 10 200 120 10
200 120 10 200 120 10 200 120 10 200 120 10 200 120 10 200 120 10 200 120 10 200 120 10
200 120 10 200 120 10 200 120 10 200 120 10 200 120 10 200 120 10 200 120 10 200 120 10
200 120 10 200 120 10 200 120 10 200 120 10 200 120 10 200 120 10 200 120 10 200 120 10
200 120 10 200 120 10 200 120 10 200 120 10 200 120 10 200 120 10 200 120 10 200 120 10
200 120 10 200 120 10 200 120 10 200 120 10 200 120 10 200 120 10 200 120 10 200 120 10
200 120 10 200 120 10 200 120 10 200 120 10 200 120 10 200 120 10 200 120 10 200 120 10
200 120 10 200 120 10 200 120 10 200 120 10 200 120 10 200 120 10 200 120 10 200 120 10
200 120 10 200 120 10 200 120 10 200 120 10 200 120 10 200 120 10 200 120 10 200 120 10
200 120 10 200 120 10 200 120 10 200 120 10 200 120 10 200 120 10 200 120 10 200 120 10
200 120 10 200 120 10 200 120 10 200 120 10 200 120 10 200 120 10 200 120 10 200 120 10
200 120 10 200 120 10 200 120 10 200 120 10 200 120 10 200 120 10 200 120 10 200 120 10
200 120 10 200 120 10 200 120 10 200 120 10 200 120 10 200 120 10 200 120 10 200 120 10
200 120 10 200 120 10 200 120 10 200 120 10 200 120 10 200 120 10 200 120 10 200 120 10
200 120 10 200 120 10 200 120 10 200 120 10 200 120 10 200 120 10 200 120 10 200 120 10
200 120 10 200 120 10 200 120 10 200 120 10 200 120 10 200 120 10 200 120 10 200 120 10
200 120 10 200 120 10 200 120 10 200 120 10 200 120 10 200 120 10 200 120 10 200 120 10
200 120 10 200 120 10 200 120 10 200 120 10 200 120 10 200 120 10 200 120 10 200 120 10
200 120 10 200 120 10 200 120 10 200 120 10 200 120 10 200 120 10 200 120 10 200 120 10
200 120 10 200 120 10 200 120 10 200 120 10 200 120 10 200 120 10 200 120 10 200 120 10
200 120 10 200 120 10 200 120 10 200 120 10 200 120 10 200 120 10 200 120 10 200 120 10
200 120 10 200 120 10 200 120 10 200 120 10 200 120 10 200 120 10 200 120 10 200 120 10
200 120 10 200 120 10 200 120 10 200 120 10 200 120 10 200 120 10 200 120 10 200 120 10
200 120 10 200 120 10 200 120 10 200 120 10 200 120 10 200 120 10 200 120 10 200 120 10
200 120 10 200 120 10 200 120 10 200 120 10 200 120 10 200 120 10 200 120 10 200 120 10
200 120 10 200 120 10 200 120 10 200 120 10 200 120 10 200 120 10 200 120 10 200 120 10
200 120 10 200 120 10 200 120 10 200 120 10 200 120 10 200 120 10 200 120 10 200 120 10
200 120 10 200 120 10 200 120 10 200 120 10 200 120 10 200 120 10 200 120 10 200 120 10
200 120 10 200 120 10 200 120 10 200 120 10 200 120 10 200 120 10 200 120 10 200 120 10
200 120 10 200 120 10 200 120 10 200 120 10 200 120 10 200 120 10 200 120 10 200 120 10
200 120 10 200 120 10 200 120 10 200 120 10 200 120 10 200 120 10 200 120 10 200 120 10
200 120 10 200 120 10 200 120 10 200 120 10 200 120 10 200 120 10 200 120 10 200 120 10
200 120 10 200 120 10 200 120 10 200 120 10 200 120 10 200 120 10 200 120 10 200 120 10
200 120 10 200 120 10 200 120 10 200 120 10 200 120 10 200 120 10 200 120 10 200 120 10
200 120 10 200 120 10 200 120 10 200 120 10 200 120 10 200 120 10 200 120 10 200 120 10
200 120 10 200 120 10 200 120 10 200 120 10 200 120 10 200 120 10 200 120 10 200 120 10
200 120 10 200 120 10 200 120 10 200 120 10 200 120 10 200 120 10 200 120 10 200 120 10
200 120 10 200 120 10 200 120 10 200 120 10 200 120 10 200 120 10 200 120 10 200 120 10
200 120 10 200 120 10 200 120 10 200 120 10 200 120 10 200 120 10 200 120 10 200 120 10
200 120 10 200 120 10 200 120 10 200 120 10 200 120 10 200 120 10 200 120 10 200 120 10
200 120 10 200 120 10 200 120 10 200 120 10 200 120 10 200 120 10 200 120 10 200 120 10
200 120 10 200 120 10 200 120 10 200 120 10 200 120 10 200 120 10 200 120 10 200 120 10
200 120 10 200 120 10 200 120 10 200 120 10 200 120 10 200 120 10 200 120 10 200 120 10
200 120 10 200 120 10 200 120 10 200 120 10 200 120 10 200 120 10 200 120 10 200 120 10
200 120 10 200 120 10 200 120 10 200 120 10 200 120 10 200 120 10 200 120 10 200 120 10
200 120 10 200 120 10 200 120 10 200 120 10 200 120 10 200 120 10 200 120 10 200 120 10
200 120 10 200 120 10 200 120 10 200 120 10 200 120 10 200 120 10 200 120 10 200 120 10
200 120 10 200 120 10 200 120 10 200 120 10 200 120 10 200 120 10 200 120 10 200 120 10
200 120 10 200 120 10 200 120 10 200 120 10 200 120 10 200 120 10 200 120 10 200 120 10
200 120 10 200 120 10 200 120 10 200 120 10 200 120 10 200 120 10 200 120 10 200 120 10
200 120 10 200 120 10 200 120 10 200 120 10 200 120 10 200 120 10 200 120 10 200 120 10
200 120 10 200 120 10 200 120 10 200 120 10 200 120 10 200 120 10 200 120 10 200 120 10
200 120 10 200 120 10 200 120 10 200 120 10 200 120 10 200 120 10 200 120 10 200 120 10
200 120 10 200 120 10 200 120 10 200 120 10 200 120 10 200 120 10 200 120 10 200 120 10
200 120 10 200 120 10 200 120 10 200 120 10 200 120 10 200 120 10 200 120 10 200 120 10
200 120 10 200 120 10 200 120 10 200 120 10 200 120 10 200 120 10 200 120 10 200 120 10
200 120 10 200 120 10 200 120 10 200 120 10 200 120 10 200 120 10 200 120 10 200 120 10
200 120 10 200 120 10 200 120 10 200 120 10 200 120 10 200 120 10 200 120 10 200 120 10
200 120 10 200 120 10 200 120 10 200 120 10 200 120 10 200 120 10 200 120 10 200 120 10
200 120 10 200 120 10 200 120 10 200 120 10 200 120 10 200 120 10 200 120 10 200 120 10
200 120 10 200 120 10 200 120 10 200 120 10 200 120 10 200 120 10 200 120 10 200 120 10
200 120 10 200 120 10 200 120 10 200 120 10 200 120 10 200 120 10 200 120 10 200 120 10
200 120 10 200 120 10 200 120 10 200 120 10 200 120 10 200 120 10 200 120 10 200 120 10
200 120 10 200 120 10 200 120 10 200 120 10 200 120 10 200 120 10 200 120 10 200 120 10
200 120 10 200 120 10 200 120 10 200 120 10 200 120 10 200 120 10 200 120 10 200 120 10
200 120 10 200 120 10 200 120 10 200 120 10 200 120 10 200 120 10 200 120 10 200 120 10
200 120 10 200 120 10 200 120 10 200 120 10 200 120 10 200 120 10 200 120 10 200 120 10
200 120 10 200 120 10 200 120 10 200 120 10 200 120 10 200 120 10 200 120 10 200 120 10
200 120 10 200 120 10 200 120 10 200 120 10 200 120 10 200 120 10 200 120 10 200 120 10
200 120 10 200 120 10 200 120 10 200 120 10 200 120 10 200 120 10 200 120 10 200 120 10
200 120 10 200 120 10 200 120 10 200 120 10 200 120 10 200 120 10 200 120 10 200 120 10
200 120 10 200 120 10 200 120 10 200 120 10 200 120 10 200 120 10 200 120 10 200 120 10
200 120 10 200 120 10 200 120 10 200 120 10 200 120 10 200 120 10 200 120 10 200 120 10
200 120 10 200 120 10 200 120 10 200 120 10 200 120 10 200 120 10 200 120 10 200 120 10
200 120 10 200 120 10 200 120 10 200 120 10 200 120 10 200 120 10 200 120 10 200 120 10
200 120 10 200 120 10 200 120 10 200 120 10 200 120 10 200 120 10 200 120 10 200 120 10
200 120 10 200 120 10 200 120 10 200 120 10 200 120 10 200 120 10 200 120 10 200 120 10
200 120 10 200 120 10 200 120 10 200 120 10 200 120 10 200 120 10 200 120 10 200 120 10
200 120 10 200 120 10 200 120 10 200 120 10 200 120 10 200 120 10 200 120 10 200 120 10
200 120 10 200 120 10 200 120 10 200 120 10 200 120 10 200 120 10 200 120 10 200 120 10
200 120 10 200 120 10 200 120 10 200 120 10 200 120 10 200 120 10 200 120 10 200 120 10
200 120 10 200 120 10 200 120 10 200 120 10 200 120 10 200 120 10 200 120 10 200 120 10
200 120 10 200 120 10 200 120 10 200 120 10 200 120 10 200 120 10 200 120 10 200 120 10
200 120 10 200 120 10 200 120 10 200 120 10 200 120 10 200 120 10 200 120 10 200 120 10
200 120 10 200 120 10 200 120 10 200 120 10 200 120 10 200 120 10 200 120 10 200 120 10
200 120 10 200 120 10 200 120 10 200 120 10 200 120 10 200 120 10 200 120 10 200 120 10
200 120 10 200 120 10 200 120 10 200 120 10 200 120 10 200 120 10 200 120 10 200 120 10
200 120 10 200 120 10 200 120 10 200 120 10 200 120 10 200 120 10 200 120 10 200 120 10
200 120 10 200 120 10 200 120 10 200 120 10 200 120 10 200 120 10 200 120 10 200 120 10
200 120 10 200 120 10 200 120 10 200 120 10 200 120 10 200 120 10 200 120 10 200 120 10
200 120 10 200 120 10 200 120 10 200 120 10 200 120 10 200 120 10 200 120 10 200 120 10
200 120 10 200 120 10 200 120 10 200 120 10 200 120 10 200 120 10 200 120 10 200 120 10
200 120 10 200 120 10 200 120 10 200 120 10 200 120 10 200 120 10 200 120 10 200 120 10
200 120 10 200 120 10 200 120 10 200 120 10 200 120 10 200 120 10 200 120 10 200 120 10
200 120 10 200 120 10 200 120 10 200 120 10 200 120 10 200 120 10 200 120 10 200 120 10
200 120 10 200 120 10 200 120 10 200 120 10 200 120 10 200 120 10 200 120 10 200 120 10
200 120 10 200 120 10 200 120 10 200 120 10 200 120 10 200 120 10 200 120 10 200 120 10
200 120 10 200 120 10 200 120 10 200 120 10 200 120 10 200 120 10 200 120 10 200 120 10
200 120 10 200 120 10 200 120 10 200 120 10 200 120 10 200 120 10 200 120 10 200 120 10
200 120 10 200 120 10 200 120 10 200 120 10 200 120 10 200 120 10 200 120 10 200 120 10
200 120 10 200 120 10 200 120 10 200 120 10 200 120 10 200 120 10 200 120 10 200 120 10
200 120 10 200 120 10 200 120 10 200 120 10 200 120 10 200 120 10 200 120 10 200 120 10
200 120 10 200 120 10 200 120 10 200 120 10 200 120 10 200 120 10 200 120 10 200 120 10
200 120 10 200 120 10 200 120 10 200 120 10 200 120 10 200 120 10 200 120 10 200 120 10
200 120 10 200 120 10 200 120 10 200 120 10 200 120 10 200 120 10 200 120 10 200 120 10
200 120 10 200 120 10 200 120 10 200 120 10 200 120 10 200 120 10 200 120 10 200 120 10
200 120 10 200 120 10 200 120 10 200 120 10 200 120 10 200 120 10 200 120 10 200 120 10
200 120 10 200 120 10 200 120 10 200 120 10 200 120 10 200 120 10 200 120 10 200 120 10
200 120 10 200 120 10 200 120 10 200 120 10 200 120 10 200 120 10 200 120 10 200 120 10
200 120 10 200 120 10 200 120 10 200 120 10 200 120 10 200 120 10 200 120 10 200 120 10
200 120 10 200 120 10 200 120 10 200 120 10 200 120 10 200 120 10 200 120 10 200 120 10
200 120 10 200 120 10 200 120 10 200 120 10 200 120 10 200 120 10 200 120 10 200 120 10
200 120 10 200 120 10 200 120 10 200 120 10 200 120 10 200 120 10 200 120 10 200 120 10
200 120 10 200 120 10 200 120 10 200 120 10 200 120 10 200 120 10 200 120 10 200 120 10
200 120 10 200 120 10 200 120 10 200 120 10 200 120 10 200 120 10 200 120 10 200 120 10
200 120 10 200 120 10 200 120 10 200 120 10 200 120 10 200 120 10 200 120 10 200 120 10
200 120 10 200 120 10 200 120 10 200 120 10 200 120 10 200 120 10 200 120 10 200 120 10
200 120 10 200 120 10 200 120 10 200 120 10 200 120 10 200 120 10 200 120 10 200 120 10
200 120 10 200 120 10 200 120 10 200 120 10 200 120 10 200 120 10 200 120 10 200 120 10
200 120 10 200 120 10 200 120 10 200 120 10 200 120 10 200 120 10 200 120 10 200 120 10
200 120 10 200 120 10 200 120 10 200 120 10 200 120 10 200 120 10 200 120 10 200 120 10
200 120 10 200 120 10 200 120 10 200 120 10 200 120 10 200 120 10 200 120 10 200 120 10
200 120 10 200 120 10 200 120 10 200 120 10 200 120 10 200 120 10 200 120 10 200 120 10
200 120 10 200 120 10 200 120 10 200 120 10 200 120 10 200 120 10 200 120 10 200 120 10
200 120 10 200 120 10 200 120 10 200 120 10 200 120 10 200 120 10 200 120 10 200 120 10
200 120 10 200 120 10 200 120 10 200 120 10 200 120 10 200 120 10 200 120 10 200 120 10
200 120 10 200 120 10 200 120 10 200 120 10 200 120 10 200 120 10 200 120 10 200 120 10
200 120 10 200 120 10 200 120 10 200 120 10 200 120 10 200 120 10 200 120 10 200 120 10
200 120 10 200 120 10 200 120 10 200 120 10 200 120 10 200 120 10 200 120 10 200 120 10
200 120 10 200 120 10 200 120 10 200 120 10 200 120 10 200 120 10 200 120 10 200 120 10
200 120 10 200 120 10 200 120 10 200 120 10 200 120 10 200 120 10 200 120 10 200 120 10
200 120 10 200 120 10 200 120 10 200 120 10 200 120 10 200 120 10 200 120 10 200 120 10
200 120 10 200 120 10 200 120 10 200 120 10 200 120 10 200 120 10 200 120 10 200 120 10
200 120 10 200 120 10 200 120 10 200 120 10 200 120 10 200 120 10 200 120 10 200 120 10
200 120 10 200 120 10 200 120 10 200 120 10 200 120 10 200 120 10 200 120 10 200 120 10
200 120 10 200 120 10 200 120 10 200 120 10 200 120 10 200 120 10 200 120 10 200 120 10
200 120 10 200 120 10 200 120 10 200 120 10 200 120 10 200 120 10 200 120 10 200 120 10
200 120 10 200 120 10 200 120 10 200 120 10 200 120 10 200 120 10 200 120 10 200 120 10
200 120 10 200 120 10 200 120 10 200 120 10 200 120 10 200 120 10 200 120 10 200 120 10
200 120 10 200 120 10 200 120 10 200 120 10 200 120 10 200 120 10 200 120 10 200 120 10
200 120 10 200 120 10 200 120 10 200 120 10 200 120 10 200 120 10 200 120 10 200 120 10
200 120 10 200 120 10 200 120 10 200 120 10 200 120 10 200 120 10 200 120 10 200 120 10
200 120 10 200 120 10 200 120 10 200 120 10 200 120 10 200 120 10 200 120 10 200 120 10
200 120 10 200 120 10 200 120 10 200 120 10 200 120 10 200 120 10 200 120 10 200 120 10
200 120 10 200 120 10 200 120 10 200 120 10 200 120 10 200 120 10 200 120 10 200 120 10
200 120 10 200 120 10 200 120 10 200 120 10 200 120 10 200 120 10 200 120 10 200 120 10
200 120 10 200 120 10 200 120 10 200 120 10 200 120 10 200 120 10 200 120 10 200 120 10
200 120 10 200 120 10 200 120 10 200 120 10 200 120 10 200 120 10 200 120 10 200 120 10
200 120 10 200 120 10 200 120 10 200 120 10 200 120 10 200 120 10 200 120 10 200 120 10
200 120 10 200 120 10 200 120 10 200 120 10 200 120 10 200 120 10 200 120 10 200 120 10
200 120 10 200 120 10 200 120 10 200 120 10 200 120 10 200 120 10 200 120 10 200 120 10
200 120 10 200 120 10 200 120 10 200 120 10 200 120 10 200 120 10 200 120 10 200 120 10
200 120 10 200 120 10 200 120 10 200 120 10 200 120 10 200 120 10 200 120 10 200 120 10
200 120 10 200 120 10 200 120 10 200 120 10 200 120 10 200 120 10 200 120 10 200 120 10
200 120 10 200 120 10 200 120 10 200 120 10 200 120 10 200 120 10 200 120 10 200 120 10
200 120 10 200 120 10 200 120 10 200 120 10 200 120 10 200 120 10 200 120 10 200 120 10
200 120 10 200 120 10 200 120 10 200 120 10 200 120 10 200 120 10 200 120 10 200 120 10
200 120 10 200 120 10 200 120 10 200 120 10 200 120 10 200 120 10 200 120 10 200 120 10
200 120 10 200 120 10 200 120 10 200 120 10 200 120 10 200 120 10 200 120 10 200 120 10
200 120 10 200 120 10 200 120 10 200 120 10 200 120 10 200 120 10 200 120 10 200 120 10
200 120 10 200 120 10 200 120 10 200 120 10 200 120 10 200 120 10 200 120 10 200 120 10
200 120 10 200 120 10 200 120 10 200 120 10 200 120 10 200 120 10 200 120 10 200 120 10
200 120 10 200 120 10 200 120 10 200 120 10 200 120 10 200 120 10 200 120 10 200 120 10
200 120 10 200 120 10 200 120 10 200 120 10 200 120 10 200 120 10 200 120 10 200 120 10
200 120 10 200 120 10 200 120 10 200 120 10 200 120 10 200 120 10 200 120 10 200 120 10
200 120 10 200 120 10 200 120 10 200 120 10 200 120 10 200 120 10 200 120 10 200 120 10
200 120 10 200 120 10 200 120 10 200 120 10 200 120 10 200 120 10 200 120 10 200 120 10
200 120 10 200 120 10 200 120 10 200 120 10 200 120 10 200 120 10 200 120 10 200 120 10
200 120 10 200 120 10 200 120 10 200 120 10 200 120 10 200 120 10 200 120 10 200 120 10
200 120 10 200 120 10 200 120 10 200 120 10 200 120 10 200 120 10 200 120 10 200 120 10
200 120 10 200 120 10 200 120 10 200 120 10 200 120 10 200 120 10 200 120 10 200 120 10
200 120 10 200 120 10 200 120 10 200 120 10 200 120 10 200 120 10 200 120 10 200 120 10
200 120 10 200 120 10 200 120 10 200 120 10 200 120 10 200 120 10 200 120 10 200 120 10
200 120 10 200 120 10 200 120 10 200 120 10 200 120 10 200 120 10 200 120 10 200 120 10
200 120 10 200 120 10 200 120 10 200 120 10 200 120 10 200 120 10 200 120 10 200 120 10
200 120 10 200 120 10 200 120 10 200 120 10 200 120 10 200 120 10 200 120 10 200 120 10
200 120 10 200 120 10 200 120 10 200 120 10 200 120 10 200 120 10 200 120 10 200 120 10
200 120 10 200 120 10 200 120 10 200 120 10 200 120 10 200 120 10 200 120 10 200 120 10
200 120 10 200 120 10 200 120 10 200 120 10 200 120 10 200 120 10 200 120 10 200 120 10
200 120 10 200 120 10 200 120 10 200 120 10 200 120 10 200 120 10 200 120 10 200 120 10
200 120 10 200 120 10 200 120 10 200 120 10 200 120 10 200 120 10 200 120 10 200 120 10
200 120 10 200 120 10 200 120 10 200 120 10 200 120 10 200 120 10 200 120 10 200 120 10
200 120 10 200 120 10 200 120 10 200 120 10 200 120 10 200 120 10 200 120 10 200 120 10
200 120 10 200 120 10 200 120 10 200 120 10 200 120 10 200 120 10 200 120 10 200 120 10
200 120 10 200 120 10 200 120 10 200 120 10 200 120 10 200 120 10 200 120 10 200 120 10
200 120 10 200 120 10 200 120 10 200 120 10 200 120 10 200 120 10 200 120 10 200 120 10
200 120 10 200 120 10 200 120 10 200 120 10 200 120 10 200 120 10 200 120 10 200 120 10
200 120 10 200 120 10 200 120 10 200 120 10 200 120 10 200 120 10 200 120 10 200 120 10
200 120 10 200 120 10 200 120 10 200 120 10 200 120 10 200 120 10 200 120 10 200 120 10
200 120 10 200 120 10 200 120 10 200 120 10 200 120 10 200 120 10 200 120 10 200 120 10
200 120 10 200 120 10 200 120 10 200 120 10 200 120 10 200 120 10 200 120 10 200 120 10
200 120 10 200 120 10 200 120 10 200 120 10 200 120 10 200 120 10 200 120 10 200 120 10
200 120 10 200 120 10 200 120 10 200 120 10 200 120 10 200 120 10 200 120 10 200 120 10
200 120 10 200 120 10 200 120 10 200 120 10 200 120 10 200 120 10 200 120 10 200 120 10
200 120 10 200 120 10 200 120 10 200 120 10 200 120 10 200 120 10 200 120 10 200 120 10
200 120 10 200 120 10 200 120 10 200 120 10 200 120 10 200 120 10 200 120 10 200 120 10
200 120 10 200 120 10 200 120 10 200 120 10 200 120 10 200 120 10 200 120 10 200 120 10
200 120 10 200 120 10 200 120 10 200 120 10 200 120 10 200 120 10 200 120 10 200 120 10
200 120 10 200 120 10 200 120 10 200 120 10 200 120 10 200 120 10 200 120 10 200 120 10
200 120 10 200 120 10 200 120 10 200 120 10 200 120 10 200 120 10 200 120 10 200 120 10
200 120 10 200 120 10 200 120 10 200 120 10 200 120 10 200 120 10 200 120 10 200 120 10
200 120 10 200 120 10 200 120 10 200 120 10 200 120 10 200 120 10 200 120 10 200 120 10
200 120 10 200 120 10 200 120 10 200 120 10 200 120 10 200 120 10 200 120 10 200 120 10
200 120 10 200 120 10 200 120 10 200 120 10 200 120 10 200 120 10 200 120 10 200 120 10
200 120 10 200 120 10 200 120 10 200 120 10 200 120 10 200 120 10 200 120 10 200 120 10
200 120 10 200 120 10 200 120 10 200 120 10 200 120 10 200 120 10 200 120 10 200 120 10
200 120 10 200 120 10 200 120 10 200 120 10 200 120 10 200 120 10 200 120 10 200 120 10
200 120 10 200 120 10 200 120 10 200 120 10 200 120 10 200 120 10 200 120 10 200 120 10
200 120 10 200 120 10 200 120 10 200 120 10 200 120 10 200 120 10 200 120 10 200 120 10
200 120 10 200 120 10 200 120 10 200 120 10 200 120 10 200 120 10 200 120 10 200 120 10
200 120 10 200 120 10 200 120 10 200 120 10 200 120 10 200 120 10 200 120 10 200 120 10
200 120 10 200 120 10 200 120 10 200 120 10 200 120 10 200 120 10 200 120 10 200 120 10
200 120 10 200 120 10 200 120 10 200 120 10 200 120 10 200 120 10 200 120 10 200 120 10
200 120 10 200 120 10 200 120 10 200 120 10 200 120 10 200 120 10 200 120 10 200 120 10
200 120 10 200 120 10 200 120 10 200 120 10 200 120 10 200 120 10 200 120 10 200 120 10
200 120 10 200 120 10 200 120 10 200 120 10 200 120 10 200 120 10 200 120 10 200 120 10
200 120 10 200 120 10 200 120 10 200 120 10 200 120 10 200 120 10 200 120 10 200 120 10
200 120 10 200 120 10 200 120 10 200 120 10 200 120 10 200 120 10 200 120 10 200 120 10
200 120 10 200 120 10 200 120 10 200 120 10 200 120 10 200 120 10 200 120 10 200 120 10
200 120 10 200 120 10 200 120 10 200 120 10 200 120 10 200 120 10 200 120 10 200 120 10
200 120 10 200 120 10 200 120 10 200 120 10 200 120 10 200 120 10 200 120 10 200 120 10
200 120 10 200 120 10 200 120 10 200 120 10 200 120 10 200 120 10 200 120 10 200 120 10
200 120 10 200 120 10 200 120 10 200 120 10 200 120 10 200 120 10 200 120 10 200 120 10
200 120 10 200 120 10 200 120 10 200 120 10 200 120 10 200 120 10 200 120 10 200 120 10
200 120 10 200 120 10 200 120 10 200 120 10 200 120 10 200 120 10 200 120 10 200 120 10
200 120 10 200 120 10 200 120 10 200 120 10 200 120 10 200 120 10 200 120 10 200 120 10
200 120 10 200 120 10 200 120 10 200 120 10 200 120 10 200 120 10 200 120 10 200 120 10
200 120 10 200 120 10 200 120 10 200 120 10 200 120 10 200 120 10 200 120 10 200 120 10
200 120 10 200 120 10 200 120 10 200 120 10 200 120 10 200 120 10 200 120 10 200 120 10
200 120 10 200 120 10 200 120 10 200 120 10 200 120 10 200 120 10 200 120 10 200 120 10
200 120 10 200 120 10 200 120 10 200 120 10 200 120 10 200 120 10 200 120 10 200 120 10
200 120 10 200 120 10 200 120 10 200 120 10 200 120 10 200 120 10 200 120 10 200 120 10
200 120 10 200 120 10 200 120 10 200 120 10 200 120 10 200 120 10 200 120 10 200 120 10
200 120 10 200 120 10 200 120 10 200 120 10 200 120 10 200 120 10 200 120 10 200 120 10
200 120 10 200 120 10 200 120 10 200 120 10 200 120 10 200 120 10 200 120 10 200 120 10
200 120 10 200 120 10 200 120 10 200 120 10 200 120 10 200 120 10 200 120 10 200 120 10
200 120 10 200 120 10 200 120 10 200 120 10 200 120 10 200 120 10 200 120 10 200 120 10
200 120 10 200 120 10 200 120 10 200 120 10 200 120 10 200 120 10 200 120 10 200 120 10
200 120 10 200 120 10 200 120 10 200 120 10 200 120 10 200 120 10 200 120 10 200 120 10
200 120 10 200 120 10 200 120 10 200 120 10 200 120 10 200 120 10 200 120 10 200 120 10
200 120 10 200 120 10 200 120 10 200 120 10 200 120 10 200 120 10 200 120 10 200 120 10
200 120 10 200 120 10 200 120 10 200 120 10 200 120 10 200 120 10 200 120 10 200 120 10
200 120 10 200 120 10 200 120 10 200 120 10 200 120 10 200 120 10 200 120 10 200 120 10
200 120 10 200 120 10 200 120 10 200 120 10 200 120 10 200 120 10 200 120 10 200 120 10
200 120 10 200 120 10 200 120 10 200 120 10 200 120 10 200 120 10 200 120 10 200 120 10
200 120 10 200 120 10 200 120 10 200 120 10 200 120 10 200 120 10 200 120 10 200 120 10
200 120 10 200 120 10 200 120 10 200 120 10 200 120 10 200 120 10 200 120 10 200 120 10
200 120 10 200 120 10 200 120 10 200 120 10 200 120 10 200 120 10 200 120 10 200 120 10
200 120 10 200 120 10 200 120 10 200 120 10 200 120 10 200 120 10 200 120 10 200 120 10
200 120 10 200 120 10 200 120 10 200 120 10 200 120 10 200 120 10 200 120 10 200 120 10
200 120 10 200 120 10 200 120 10 200 120 10 200 120 10 200 120 10 200 120 10 200 120 10
200 120 10 200 120 10 200 120 10 200 120 10 200 120 10 200 120 10 200 120 10 200 120 10
200 120 10 200 120 10 200 120 10 200 120 10 200 120 10 200 120 10 200 120 10 200 120 10
200 120 10 200 120 10 200 120 10 200 120 10 200 120 10 200 120 10 200 120 10 200 120 10
200 120 10 200 120 10 200 120 10 200 120 10 200 120 10 200 120 10 200 120 10 200 120 10
200 120 10 200 120 10 200 120 10 200 120 10 200 120 10 200 120 10 200 120 10 200 120 10
200 120 10 200 120 10 200 120 10 200 120 10 200 120 10 200 120 10 200 120 10 200 120 10
200 120 10 200 120 10 200 120 10 200 120 10 200 120 10 200 120 10 200 120 10 200 120 10
200 120 10 200 120 10 200 120 10 200 120 10 200 120 10 200 120 10 200 120 10 200 120 10
200 120 10 200 120 10 200 120 10 200 120 10 200 120 10 200 120 10 200 120 10 200 120 10
200 120 10 200 120 10 200 120 10 200 120 10 200 120 10 200 120 10 200 120 10 200 120 10
200 120 10 200 120 10 200 120 10 200 120 10 200 120 10 200 120 10 200 120 10 200 120 10
200 120 10 200 120 10 200 120 10 200 120 10 200 120 10 200 120 10 200 120 10 200 120 10
200 120 10 200 120 10 200 120 10 200 120 10 200 120 10 200 120 10 200 120 10 200 120 10
200 120 10 200 120 10 200 120 10 200 120 10 200 120 10 200 120 10 200 120 10 200 120 10
200 120 10 200 120 10 200 120 10 200 120 10 200 120 10 200 120 10 200 120 10 200 120 10
200 120 10 200 120 10 200 120 10 200 120 10 200 120 10 200 120 10 200 120 10 200 120 10
200 120 10 200 120 10 200 120 10 200 120 10 200 120 10 200 120 10 200 120 10 200 120 10
200 120 10 200 120 10 200 120 10 200 120 10 200 120 10 200 120 10 200 120 10 200 120 10
200 120 10 200 120 10 200 120 10 200 120 10 200 120 10 200 120 10 200 120 10 200 120 10
200 120 10 200 120 10 200 120 10 200 120 10 200 120 10 200 120 10 200 120 10 200 120 10
200 120 10 200 120 10 200 120 10 200 120 10 200 120 10 200 120 10 200 120 10 200 120 10
200 120 10 200 120 10 200 120 10 200 120 10 200 120 10 200 120 10 200 120 10 200 120 10
200 120 10 200 120 10 200 120 10 200 120 10 200 120 10 200 120 10 200 120 10 200 120 10
200 120 10 200 120 10 200 120 10 200 120 10 200 120 10 200 120 10 200 120 10 200 120 10
200 120 10 200 120 10 200 120 10 200 120 10 200 120 10 200 120 10 200 120 10 200 120 10
200 120 10 200 120 10 200 120 10 200 120 10 200 120 10 200 120 10 200 120 10 200 120 10
200 120 10 200 120 10 200 120 10 200 120 10 200 120 10 200 120 10 200 120 10 200 120 10
200 120 10 200 120 10 200 120 10 200 120 10 200 120 10 200 120 10 200 120 10 200 120 10
200 120 10 200 120 10 200 120 10 200 120 10 200 120 10 200 120 10 200 120 10 200 120 10
200 120 10 200 120 10 200 120 10 200 120 10 200 120 10 200 120 10 200 120 10 200 120 10
200 120 10 200 120 10 200 120 10 200 120 10 200 120 10 200 120 10 200 120 10 200 120 10
200 120 10 200 120 10 200 120 10 200 120 10 200 120 10 200 120 10 200 120 10 200 120 10
200 120 10 200 120 10 200 120 10 200 120 10 200 120 10 200 120 10 200 120 10 200 120 10
200 120 10 200 120 10 200 120 10 200 120 10 200 120 10 200 120 10 200 120 10 200 120 10
200 120 10 200 120 10 200 120 10 200 120 10 200 120 10 200 120 10 200 120 10 200 120 10
200 120 10 200 120 10 200 120 10 200 120 10 200 120 10 200 120 10 200 120 10 200 120 10
200 120 10 200 120 10 200 120 10 200 120 10 200 120 10 200 120 10 200 120 10 200 120 10
200 120 10 200 120 10 200 120 10 200 120 10 200 120 10 200 120 10 200 120 10 200 120 10
200 120 10 200 120 10 200 120 10 200 120 10 200 120 10 200 120 10 200 120 10 200 120 10
200 120 10 200 120 10 200 120 10 200 120 10 200 120 10 200 120 10 200 120 10 200 120 10
200 120 10 200 120 10 200 120 10 200 120 10 200 120 10 200 120 10 200 120 10 200 120 10
200 120 10 200 120 10 200 120 10 200 120 10 200 120 10 200 120 10 200 120 10 200 120 10
200 120 10 200 120 10 200 120 10 200 120 10 200 120 10 200 120 10 200 120 10 200 120 10
200 120 10 200 120 10 200 120 10 200 120 10 200 120 10 200 120 10 200 120 10 200 120 10
200 120 10 200 120 10 200 120 10 200 120 10 200 120 10 200 120 10 200 120 10 200 120 10
200 120 10 200 120 10 200 120 10 200 120 10 200 120 10 200 120 10 200 120 10 200 120 10
200 120 10 200 120 10 200 120 10 200 120 10 200 120 10 200 120 10 200 120 10 200 120 10
200 120 10 200 120 10 200 120 10 200 120 10 200 120 10 200 120 10 200 120 10 200 120 10
200 120 10 200 120 10 200 120 10 200 120 10 200 120 10 200 120 10 200 120 10 200 120 10
200 120 10 200 120 10 200 120 10 200 120 10 200 120 10 200 120 10 200 120 10 200 120 10
200 120 10 200 120 10 200 120 10 200 120 10 200 120 10 200 120 10 200 120 10 200 120 10
200 120 10 200 120 10 200 120 10 200 120 10 200 120 10 200 120 10 200 120 10 200 120 10
200 120 10 200 120 10 200 120 10 200 120 10 200 120 10 200 120 10 200 120 10 200 120 10
200 120 10 200 120 10 200 120 10 200 120 10 200 120 10 200 120 10 200 120 10 200 120 10
200 120 10 200 120 10 200 120 10 200 120 10 200 120 10 200 120 10 200 120 10 200 120 10
200 120 10 200 120 10 200 120 10 200 120 10 200 120 10 200 120 10 200 120 10 200 120 10
200 120 10 200 120 10 200 120 10 200 120 10 200 120 10 200 120 10 200 120 10 200 120 10
200 120 10 200 120 10 200 120 10 200 120 10 200 120 10 200 120 10 200 120 10 200 120 10
200 120 10 200 120 10 200 120 10 200 120 10 200 120 10 200 120 10 200 120 10 200 120 10
200 120 10 200 120 10 200 120 10 200 120 10 200 120 10 200 120 10 200 120 10 200 120 10
200 120 10 200 120 10 200 120 10 200 120 10 200 120 10 200 120 10 200 120 10 200 120 10
200 120 10 200 120 10 200 120 10 200 120 10 200 120 10 200 120 10 200 120 10 200 120 10
200 120 10 200 120 10 200 120 10 200 120 10 200 120 10 200 120 10 200 120 10 200 120 10
200 120 10 200 120 10 200 120 10 200 120 10 200 120 10 200 120 10 200 120 10 200 120 10
200 120 10 200 120 10 200 120 10 200 120 10 200 120 10 200 120 10 200 120 10 200 120 10
200 120 10 200 120 10 200 120 10 200 120 10 200 120 10 200 120 10 200 120 10 200 120 10
200 120 10 200 120 10 200 120 10 200 120 10 200 120 10 200 120 10 200 120 10 200 120 10
200 120 10 200 120 10 200 120 10 200 120 10 200 120 10 200 120 10 200 120 10 200 120 10
200 120 10 200 120 10 200 120 10 200 120 10 200 120 10 200 120 10 200 120 10 200 120 10
200 120 10 200 120 10 200 120 10 200 120 10 200 120 10 200 120 10 200 120 10 200 120 10
200 120 10 200 120 10 200 120 10 200 120 10 200 120 10 200 120 10 200 120 10 200 120 10
200 120 10 200 120 10 200 120 10 200 120 10 200 120 10 200 120 10 200 120 10 200 120 10
200 120 10 200 120 10 200 120 10 200 120 10 200 120 10 200 120 10 200 120 10 200 120 10
200 120 10 200 120 10 200 120 10 200 120 10 200 120 10 200 120 10 200 120 10 200 120 10
200 120 10 200 120 10 200 120 10 200 120 10 200 120 10 200 120 10 200 120 10 200 120 10
200 120 10 200 120 10 200 120 10 200 120 10 200 120 10 200 120 10 200 120 10 200 120 10
200 120 10 200 120 10 200 120 10 200 120 10 200 120 10 200 120 10 200 120 10 200 120 10
200 120 10 200 120 10 200 120 10 200 120 10 200 120 10 200 120 10 200 120 10 200 120 10
200 120 10 200 120 10 200 120 10 200 120 10 200 120 10 200 120 10 200 120 10 200 120 10
200 120 10 200 120 10 200 120 10 200 120 10 200 120 10 200 120 10 200 120 10 200 120 10
200 120 10 200 120 10 200 120 10 200 120 10 200 120 10 200 120 10 200 120 10 200 120 10
200 120 10 200 120 10 200 120 10 200 120 10 200 120 10 200 120 10 200 120 10 200 120 10
200 120 10 200 120 10 200 120 10 200 120 10 200 120 10 200 120 10 200 120 10 200 120 10
200 120 10 200 120 10 200 120 10 200 120 10 200 120 10 200 120 10 200 120 10 200 120 10
200 120 10 200 120 10 200 120 10 200 120 10 200 120 10 200 120 10 200 120 10 200 120 10
200 120 10 200 120 10 200 120 10 200 120 10 200 120 10 200 120 10 200 120 10 200 120 10
200 120 10 200 120 10 200 120 10 200 120 10 200 120 10 200 120 10 200 120 10 200 120 10
200 120 10 200 120 10 200 120 10 200 120 10 200 120 10 200 120 10 200 120 10 200 120 10
200 120 10 200 120 10 200 120 10 200 120 10 200 120 10 200 120 10 200 120 10 200 120 10
200 120 10 200 120 10 200 120 10 200 120 10 200 120 10 200 120 10 200 120 10 200 120 10
200 120 10 200 120 10 200 120 10 200 120 10 200 120 10 200 120 10 200 120 10 200 120 10
200 120 10 200 120 10 200 120 10 200 120 10 200 120 10 200 120 10 200 120 10 200 120 10
200 120 10 200 120 10 200 120 10 200 120 10 200 120 10 200 120 10 200 120 10 200 120 10
200 120 10 200 120 10 200 120 10 200 120 10 200 120 10 200 120 10 200 120 10 200 120 10
200 120 10 200 120 10 200 120 10 200 120 10 200 120 10 200 120 10 200 120 10 200 120 10
200 120 10 200 120 10 200 120 10 200 120 10 200 120 10 200 120 10 200 120 10 200 120 10
200 120 10 200 120 10 200 120 10 200 120 10 200 120 10 200 120 10 200 120 10 200 120 10
200 120 10 200 120 10 200 120 10 200 120 10 200 120 10 200 120 10 200 120 10 200 120 10
200 120 10 200 120 10 200 120 10 200 120 10 200 120 10 200 120 10 200 120 10 200 120 10
200 120 10 200 120 10 200 120 10 200 120 10 200 120 10 200 120 10 200 120 10 200 120 10
200 120 10 200 120 10 200 120 10 200 120 10 200 120 10 200 120 10 200 120 10 200 120 10
200 120 10 200 120 10 200 120 10 200 120 10 200 120 10 200 120 10 200 120 10 200 120 10
200 120 10 200 120 10 200 120 10 200 120 10 200 120 10 200 120 10 200 120 10 200 120 10
200 120 10 200 120 10 200 120 10 200 120 10 200 120 10 200 120 10 200 120 10 200 120 10
200 120 10 200 120 10 200 120 10 200 120 10 200 120 10 200 120 10 200 120 10 200 120 10
200 120 10 200 120 10 200 120 10 200 120 10 200 120 10 200 120 10 200 120 10 200 120 10
200 120 10 200 120 10 200 120 10 200 120 10 200 120 10 200 120 10 200 120 10 200 120 10
200 120 10 200 120 10 200 120 10 200 120 10 200 120 10 200 120 10 200 120 10 200 120 10
200 120 10 200 120 10 200 120 10 200 120 10 200 120 10 200 120 10 200 120 10 200 120 10
200 120 10 200 120 10 200 120 10 200 120 10 200 120 10 200 120 10 200 120 10 200 120 10
200 120 10 200 120 10 200 120 10 200 120 10 200 120 10 200 120 10 200 120 10 200 120 10
200 120 10 200 120 10 200 120 10 200 120 10 200 120 10 200 120 10 200 120 10 200 120 10
200 120 10 200 120 10 200 120 10 200 120 10 200 120 10 200 120 10 200 120 10 200 120 10
200 120 10 200 120 10 200 120 10 200 120 10 200 120 10 200 120 10 200 120 10 200 120 10
200 120 10 200 120 10 200 120 10 200 120 10 200 120 10 200 120 10 200 120 10 200 120 10
200 120 10 200 120 10 200 120 10 200 120 10 200 120 10 200 120 10 200 120 10 200 120 10
200 120 10 200 120 10 200 120 10 200 120 10 200 120 10 200 120 10 200 120 10 200 120 10
200 120 10 200 120 10 200 120 10 200 120 10 200 120 10 200 120 10 200 120 10 200 120 10
200 120 10 200 120 10 200 120 10 200 120 10 200 120 10 200 120 10 200 120 10 200 120 10
200 120 10 200 120 10 200 120 10 200 120 10 200 120 10 200 120 10 200 120 10 200 120 10
200 120 10 200 120 10 200 120 10 200 120 10 200 120 10 200 120 10 200 120 10 200 120 10
200 120 10 200 120 10 200 120 10 200 120 10 200 120 10 200 120 10 200 120 10 200 120 10
200 120 10 200 120 10 200 120 10 200 120 10 200 120 10 200 120 10 200 120 10 200 120 10
200 120 10 200 120 10 200 120 10 200 120 10 200 120 10 200 120 10 200 120 10 200 120 10
200 120 10 200 120 10 200 120 10 200 120 10 200 120 10 200 120 10 200 120 10 200 120 10
200 120 10 200 120 10 200 120 10 200 120 10 200 120 10 200 120 10 200 120 10 200 120 10
200 120 10 200 120 10 200 120 10 200 120 10 200 120 10 200 120 10 200 120 10 200 120 10
200 120 10 200 120 10 200 120 10 200 120 10 200 120 10 200 120 10 200 120 10 200 120 10
200 120 10 200 120 10 200 120 10 200 120 10 200 120 10 200 120 10 200 120 10 200 120 10
200 120 10 200 120 10 200 120 10 200 120 10 200 120 10 200 120 10 200 120 10 200 120 10
200 120 10 200 120 10 200 120 10 200 120 10 200 120 10 200 120 10 200 120 10 200 120 10
200 120 10 200 120 10 200 120 10 200 120 10 200 120 10 200 120 10 200 120 10 200 120 10
200 120 10 200 120 10 200 120 10 200 120 10 200 120 10 200 120 10 200 120 10 200 120 10
200 120 10 200 120 10 200 120 10 200 120 10 200 120 10 200 120 10 200 120 10 200 120 10
200 120 10 200 120 10 200 120 10 200 120 10 200 120 10 200 120 10 200 120 10 200 120 10
200 120 10 200 120 10 200 120 10 200 120 10 200 120 10 200 120 10 200 120 10 200 120 10
200 120 10 200 120 10 200 120 10 200 120 10 200 120 10 200 120 10 200 120 10 200 120 10
200 120 10 200 120 10 200 120 10 200 120 10 200 120 10 200 120 10 200 120 10 200 120 10
200 120 10 200 120 10 200 120 10 200 120 10 200 120 10 200 120 10 200 120 10 200 120 10
200 120 10 200 120 10 200 120 10 200 120 10 200 120 10 200 120 10 200 120 10 200 120 10
200 120 10 200 120 10 200 120 10 200 120 10 200 120 10 200 120 10 200 120 10 200 120 10
200 120 10 200 120 10 200 120 10 200 120 10 200 120 10 200 120 10 200 120 10 200 120 10
200 120 10 200 120 10 200 120 10 200 120 10 200 120 10 200 120 10 200 120 10 200 120 10
200 120 10 200 120 10 200 120 10 200 120 10 200 120 10 200 120 10 200 120 10 200 120 10
200 120 10 200 120 10 200 120 10 200 120 10 200 120 10 200 120 10 200 120 10 200 120 10
200 120 10 200 120 10 200 120 10 200 120 10 200 120 10 200 120 10 200 120 10 200 120 10
200 120 10 200 120 10 200 120 10 200 120 10 200 120 10 200 120 10 200 120 10 200 120 10
200 120 10 200 120 10 200 120 10 200 120 10 200 120 10 200 120 10 200 120 10 200 120 10
200 120 10 200 120 10 200 120 10 200 120 10 200 120 10 200 120 10 200 120 10 200 120 10
200 120 10 200 120 10 200 120 10 200 120 10 200 120 10 200 120 10 200 120 10 200 120 10
200 120 10 200 120 10 200 120 10 200 120 10 200 120 10 200 120 10 200 120 10 200 120 10
200 120 10 200 120 10 200 120 10 200 120 10 200 120 10 200 120 10 200 120 10 200 120 10
200 120 10 200 120 10 200 120 10 200 120 10 200 120 10 200 120 10 200 120 10 200 120 10
200 120 10 200 120 10 200 120 10 200 120 10 200 120 10 200 120 10 200 120 10 200 120 10
200 120 10 200 120 10 200 120 10 200 120 10 200 120 10 200 120 10 200 120 10 200 120 10
200 120 10 200 120 10 200 120 10 200 120 10 200 120 10 200 120 10 200 120 10 200 120 10
200 120 10 200 120 10 200 120 10 200 120 10 200 120 10 200 120 10 200 120 10 200 120 10
200 120 10 200 120 10 200 120 10 200 120 10 200 120 10 200 120 10 200 120 10 200 120 10
200 120 10 200 120 10 200 120 10 200 120 10 200 120 10 200 120 10 200 120 10 200 120 10
200 120 10 200 120 10 200 120 10 200 120 10 200 120 10 200 120 10 200 120 10 200 120 10
200 120 10 200 120 10 200 120 10 200 120 10 200 120 10 200 120 10 200 120 10 200 120 10
200 120 10 200 120 10 200 120 10 200 120 10 200 120 10 200 120 10 200 120 10 200 120 10
200 120 10 200 120 10 200 120 10 200 120 10 200 120 10 200 120 10 200 120 10 200 120 10
200 120 10 200 120 10 200 120 10 200 120 10 200 120 10 200 120 10 200 120 10 200 120 10
200 120 10 200 120 10 200 120 10 200 120 10 200 120 10 200 120 10 200 120 10 200 120 10
200 120 10 200 120 10 200 120 10 200 120 10 200 120 10 200 120 10 200 120 10 200 120 10
200 120 10 200 120 10 200 120 10 200 120 10 200 120 10 200 120 10 200 120 10 200 120 10
200 120 10 200 120 10 200 120 10 200 120 10 200 120 10 200 120 10 200 120 10 200 120 10
200 120 10 200 120 10 200 120 10 200 120 10 200 120 10 200 120 10 200 120 10 200 120 10
200 120 10 200 120 10 200 120 10 200 120 10 200 120 10 200 120 10 200 120 10 200 120 10
200 120 10 200 120 10 200 120 10 200 120 10 200 120 10 200 120 10 200 120 10 200 120 10
200 120 10 200 120 10 200 120 10 200 120 10 200 120 10 200 120 10 200 120 10 200 120 10
200 120 10 200 120 10 200 120 10 200 120 10 200 120 10 200 120 10 200 120 10 200 120 10
200 120 10 200 120 10 200 120 10 200 120 10 200 120 10 200 120 10 200 120 10 200 120 10
200 120 10 200 120 10 200 120 10 200 120 10 200 120 10 200 120 10 200 120 10 200 120 10
200 120 10 200 120 10 200 120 10 200 120 10 200 120 10 200 120 10 200 120 10 200 120 10
200 120 10 200 120 10 200 120 10 200 120 10 200 120 10 200 120 10 200 120 10 200 120 10
200 120 10 200 120 10 200 120 10 200 120 10 200 120 10 200 120 10 200 120 10 200 120 10
200 120 10 200 120 10 200 120 10 200 120 10 200 120 10 200 120 10 200 120 10 200 120 10
200 120 10 200 120 10 200 120 10 200 120 10 200 120 10 200 120 10 200 120 10 200 120 10
200 120 10 200 120 10 200 120 10 200 120 10 200 120 10 200 120 10 200 120 10 200 120 10
200 120 10 200 120 10 200 120 10 200 120 10 200 120 10 200 120 10 200 120 10 200 120 10
200 120 10 200 120 10 200 120 10 200 120 10 200 120 10 200 120 10 200 120 10 200 120 10
200 120 10 200 120 10 200 120 10 200 120 10 200 120 10 200 120 10 200 120 10 200 120 10
200 120 10 200 120 10 200 120 10 200 120 10 200 120 10 200 120 10 200 120 10 200 120 10
200 120 10 200 120 10 200 120 10 200 120 10 200 120 10 200 120 10 200 120 10 200 120 10
200 120 10 200 120 10 200 120 10 200 120 10 200 120 10 200 120 10 200 120 10 200 120 10
200 120 10 200 120 10 200 120 10 200 120 10 200 120 10 200 120 10 200 120 10 200 120 10
200 120 10 200 120 10 200 120 10 200 120 10 200 120 10 200 120 10 200 120 10 200 120 10
200 120 10 200 120 10 200 120 10 200 120 10 200 120 10 200 120 10 200 120 10 200 120 10
200 120 10 200 120 10 200 120 10 200 120 10 200 120 10 200 120 10 200 120 10 200 120 10
200 120 10 200 120 10 200 120 10 200 120 10 200 120 10 200 120 10 200 120 10 200 120 10
200 120 10 200 120 10 200 120 10 200 120 10 200 120 10 200 120 10 200 120 10 200 120 10
200 120 10 200 120 10 200 120 10 200 120 10 200 120 10 200 120 10 200 120 10 200 120 10
200 120 10 200 120 10 200 120 10 200 120 10 200 120 10 200 120 10 200 120 10 200 120 10
200 120 10 200 120 10 200 120 10 200 120 10 200 120 10 200 120 10 200 120 10 200 120 10
200 120 10 200 120 10 200 120 10 200 120 10 200 120 10 200 120 10 200 120 10 200 120 10
200 120 10 200 120 10 200 120 10 200 120 10 200 120 10 200 120 10 200 120 10 200 120 10
200 120 10 200 120 10 200 120 10 200 120 10 200 120 10 200 120 10 200 120 10 200 120 10
200 120 10 200 120 10 200 120 10 200 120 10 200 120 10 200 120 10 200 120 10 200 120 10
200 120 10 200 120 10 200 120 10 200 120 10 200 120 10 200 120 10 200 120 10 200 120 10
200 120 10 200 120 10 200 120 10 200 120 10 200 120 10 200 120 10 200 120 10 200 120 10
200 120 10 200 120 10 200 120 10 200 120 10 200 120 10 200 120 10 200 120 10 200 120 10
200 120 10 200 120 10 200 120 10 200 120 10 200 120 10 200 120 10 200 120 10 200 120 10
200 120 10 200 120 10 200 120 10 200 120 10 200 120 10 200 120 10 200 120 10 200 120 10
200 120 10 200 120 10 200 120 10 200 120 10 200 120 10 200 120 10 200 120 10 200 120 10
200 120 10 200 120 10 200 120 10 200 120 10 200 120 10 200 120 10 200 120 10 200 120 10
200 120 10 200 120 10 200 120 10 200 120 10 200 120 10 200 120 10 200 120 10 200 120 10
200 120 10 200 120 10 200 120 10 200 120 10 200 120 10 200 120 10 200 120 10 200 120 10
200 120 10 200 120 10 200 120 10 200 120 10 200 120 10 200 120 10 200 120 10 200 120 10
200 120 10 200 120 10 200 120 10 200 120 10 200 120 10 200 120 10 200 120 10 200 120 10
200 120 10 200 120 10 200 120 10 200 120 10 200 120 10 200 120 10 200 120 10 200 120 10
200 120 10 200 120 10 200 120 10 200 120 10 200 120 10 200 120 10 200 120 10 200 120 10
200 120 10 200 120 10 200 120 10 200 120 10 200 120 10 200 120 10 200 120 10 200 120 10
200 120 10 200 120 10 200 120 10 200 120 10 200 120 10 200 120 10 200 120 10 200 120 10
200 120 10 200 120 10 200 120 10 200 120 10 200 120 10 200 120 10 200 120 10 200 120 10
200 120 10 200 120 10 200 120 10 200 120 10 200 120 10 200 120 10 200 120 10 200 120 10
200 120 10 200 120 10 200 120 10 200 120 10 200 120 10 200 120 10 200 120 10 200 120 10
200 120 10 200 120 10 200 120 10 200 120 10 200 120 10 200 120 10 200 120 10 200 120 10
200 120 10 200 120 10 200 120 10 200 120 10 200 120 10 200 120 10 200 120 10 200 120 10
200 120 10 200 120 10 200 120 10 200 120 10 200 120 10 200 120 10 200 120 10 200 120 10
200 120 10 200 120 10 200 120 10 200 120 10 200 120 10 200 120 10 200 120 10 200 120 10
200 120 10 200 120 10 200 120 10 200 120 10 200 120 10 200 120 10 200 120 10 200 120 10
200 120 10 200 120 10 200 120 10 200 120 10 200 120 10 200 120 10 200 120 10 200 120 10
200 120 10 200 120 10 200 120 10 200 120 10 200 120 10 200 120 10 200 120 10 200 120 10
200 120 10 200 120 10 200 120 10 200 120 10 200 120 10 200 120 10 200 120 10 200 120 10
200 120 10 200 120 10 200 120 10 200 120 10 200 120 10 200 120 10 200 120 10 200 120 10
200 120 10 200 120 10 200 120 10 200 120 10 200 120 10 200 120 10 200 120 10 200 120 10
200 120 10 200 120 10 200 120 10 200 120 10 200 120 10 200 120 10 200 120 10 200 120 10
200 120 10 200 120 10 200 120 10 200 120 10 200 120 10 200 120 10 200 120 10 200 120 10
200 120 10 200 120 10 200 120 10 200 120 10 200 120 10 200 120 10 200 120 10 200 120 10
200 120 10 200 120 10 200 120 10 200 120 10 200 120 10 200 120 10 200 120 10 200 120 10
200 120 10 200 120 10 200 120 10 200 120 10 200 120 10 200 120 10 200 120 10 200 120 10
200 120 10 200 120 10 200 120 10 200 120 10 200 120 10 200 120 10 200 120 10 200 120 10
200 120 10 200 120 10 200 120 10 200 120 10 200 120 10 200 120 10 200 120 10 200 120 10
200 120 10 200 120 10 200 120 10 200 120 10 200 120 10 200 120 10 200 120 10 200 120 10
200 120 10 200 120 10 200 120 10 200 120 10 200 120 10 200 120 10 200 120 10 200 120 10
200 120 10 200 120 10 200 120 10 200 120 10 200 120 10 200 120 10 200 120 10 200 120 10
200 120 10 200 120 10 200 120 10 200 120 10 200 120 10 200 120 10 200 120 10 200 120 10
200 120 10 200 120 10 200 120 10 200 120 10 200 120 10 200 120 10 200 120 10 200 120 10
200 120 10 200 120 10 200 120 10 200 120 10 200 120 10 200 120 10 200 120 10 200 120 10
200 120 10 200 120 10 200 120 10 200 120 10 200 120 10 200 120 10 200 120 10 200 120 10
200 120 10 200 120 10 200 120 10 200 120 10 200 120 10 200 120 10 200 120 10 200 120 10
200 120 10 200 120 10 200 120 10 200 120 10 200 120 10 200 120 10 200 120 10 200 120 10
200 120 10 200 120 10 200 120 10 200 120 10 200 120 10 200 120 10 200 120 10 200 120 10
200 120 10 200 120 10 200 120 10 200 120 10 200 120 10 200 120 10 200 120 10 200 120 10
200 120 10 200 120 10 200 120 10 200 120 10 200 120 10 200 120 10 200 120 10 200 120 10
200 120 10 200 120 10 200 120 10 200 120 10 200 120 10 200 120 10 200 120 10 200 120 10
200 120 10 200 120 10 200 120 10 200 120 10 200 120 10 200 120 10 200 120 10 200 120 10
200 120 10 200 120 10 200 120 10 200 120 10 200 120 10 200 120 10 200 120 10 200 120 10
200 120 10 200 120 10 200 120 10 200 120 10 200 120 10 200 120 10 200 120 10 200 120 10
200 120 10 200 120 10 200 120 10 200 120 10 200 120 10 200 120 10 200 120 10 200 120 10
200 120 10 200 120 10 200 120 10 200 120 10 200 120 10 200 120 10 200 120 10 200 120 10
200 120 10 200 120 10 200 120 10 200 120 10 200 120 10 200 120 10 200 120 10 200 120 10
200 120 10 200 120 10 200 120 10 200 120 10 200 120 10 200 120 10 200 120 10 200 120 10
200 120 10 200 120 10 200 120 10 200 120 10 200 120 10 200 120 10 200 120 10 200 120 10
200 120 10 200 120 10 200 120 10 200 120 10 200 120 10 200 120 10 200 120 10 200 120 10
200 120 10 200 120 10 200 120 10 200 120 10 200 120 10 200 120 10 200 120 10 200 120 10
200 120 10 200 120 10 200 120 10 200 120 10 200 120 10 200 120 10 200 120 10 200 120 10
200 120 10 200 120 10 200 120 10 200 120 10 200 120 10 200 120 10 200 120 10 200 120 10
200 120 10 200 120 10 200 120 10 200 120 10 200 120 10 200 120 10 200 120 10 200 120 10
200 120 10 200 120 10 200 120 10 200 120 10 200 120 10 200 120 10 200 120 10 200 120 10
200 120 10 200 120 10 200 120 10 200 120 10 200 120 10 200 120 10 200 120 10 200 120 10
200 120 10 200 120 10 200 120 10 200 120 10 200 120 10 200 120 10 200 120 10 200 120 10
200 120 10 200 120 10 200 120 10 200 120 10 200 120 10 200 120 10 200 120 10 200 120 10
200 120 10 200 120 10 200 120 10 200 120 10 200 120 10 200 120 10 200 120 10 200 120 10
200 120 10 200 120 10 200 120 10 200 120 10 200 120 10 200 120 10 200 120 10 200 120 10
200 120 10 200 120 10 200 120 10 200 120 10 200 120 10 200 120 10 200 120 10 200 120 10
200 120 10 200 120 10 200 120 10 200 120 10 200 120 10 200 120 10 200 120 10 200 120 10
200 120 10 200 120 10 200 120 10 200 120 10 200 120 10 200 120 10 200 120 10 200 120 10
200 120 10 200 120 10 200 120 10 200 120 10 200 120 10 200 120 10 200 120 10 200 120 10
200 120 10 200 120 10 200 120 10 200 120 10 200 120 10 200 120 10 200 120 10 200 120 10
200 120 10 200 120 10 200 120 10 200 120 10 200 120 10 200 120 10 200 120 10 200 120 10
200 120 10 200 120 10 200 120 10 200 120 10 200 120 10 200 120 10 200 120 10 200 120 10
200 120 10 200 120 10 200 120 10 200 120 10 200 120 10 200 120 10 200 120 10 200 120 10
200 120 10 200 120 10 200 120 10 200 120 10 200 120 10 200 120 10 200 120 10 200 120 10
200 120 10 200 120 10 200 120 10 200 120 10 200 120 10 200 120 10 200 120 10 200 120 10
200 120 10 200 120 10 200 120 10 200 120 10 200 120 10 200 120 10 200 120 10 200 120 10
200 120 10 200 120 10 200 120 10 200 120 10 200 120 10 200 120 10 200 120 10 200 120 10
200 120 10 200 120 10 200 120 10 200 120 10 200 120 10 200 120 10 200 120 10 200 120 10
200 120 10 200 120 10 200 120 10 200 120 10 200 120 10 200 120 10 200 120 10 200 120 10
200 120 10 200 120 10 200 120 10 200 120 10 200 120 10 200 120 10 200 120 10 200 120 10
200 120 10 200 120 10 200 120 10 200 120 10 200 120 10 200 120 10 200 120 10 200 120 10
200 120 10 200 120 10 200 120 10 200 120 10 200 120 10 200 120 10 200 120 10 200 120 10
200 120 10 200 120 10 200 120 10 200 120 10 200 120 10 200 120 10 200 120 10 200 120 10
200 120 10 200 120 10 200 120 10 200 120 10 200 120 10 200 120 10 200 120 10 200 120 10
200 120 10 200 120 10 200 120 10 200 120 10 200 120 10 200 120 10 200 120 10 200 120 10
200 120 10 200 120 10 200 120 10 200 120 10 200 120 10 200 120 10 200 120 10 200 120 10
200 120 10 200 120 10 200 120 10 200 120 10 200 120 10 200 120 10 200 120 10 200 120 10
200 120 10 200 120 10 200 120 10 200 120 10 200 120 10 200 120 10 200 120 10 200 120 10
200 120 10 200 120 10 200 120 10 200 120 10 200 120 10 200 120 10 200 120 10 200 120 10
200 120 10 200 120 10 200 120 10 200 120 10 200 120 10 200 120 10 200 120 10 200 120 10
200 120 10 200 120 10 200 120 10 200 120 10 200 120 10 200 120 10 200 120 10 200 120 10
200 120 10 200 120 10 200 120 10 200 120 10 200 120 10 200 120 10 200 120 10 200 120 10
200 120 10 200 120 10 200 120 10 200 120 10 200 120 10 200 120 10 200 120 10 200 120 10
200 120 10 200 120 10 200 120 10 200 120 10 200 120 10 200 120 10 200 120 10 200 120 10
200 120 10 200 120 10 200 120 10 200 120 10 200 120 10 200 120 10 200 120 10 200 120 10
200 120 10 200 120 10 200 120 10 200 120 10 200 120 10 200 120 10 200 120 10 200 120 10
200 120 10 200 120 10 200 120 10 200 120 10 200 120 10 200 120 10 200 120 10 200 120 10
200 120 10 200 120 10 200 120 10 200 120 10 200 120 10 200 120 10 200 120 10 200 120 10
200 120 10 200 120 10 200 120 10 200 120 10 200 120 10 200 120 10 200 120 10 200 120 10
200 120 10 200 120 10 200 120 10 200 120 10 200 120 10 200 120 10 200 120 10 200 120 10
200 120 10 200 120 10 200 120 10 200 120 10 200 120 10 200 120 10 200 120 10 200 120 10
200 120 10 200 120 10 200 120 10 200 120 10 200 120 10 200 120 10 200 120 10 200 120 10
200 120 10 200 120 10 200 120 10 200 120 10 200 120 10 200 120 10 200 120 10 200 120 10
200 120 10 200 120 10 200 120 10 200 120 10 200 120 10 200 120 10 200 120 10 200 120 10
200 120 10 200 120 10 200 120 10 200 120 10 200 120 10 200 120 10 200 120 10 200 120 10
200 120 10 200 120 10 200 120 10 200 120 10 200 120 10 200 120 10 200 120 10 200 120 10
200 120 10 200 120 10 200 120 10 200 120 10 200 120 10 200 120 10 200 120 10 200 120 10
200 120 10 200 120 10 200 120 10 200 120 10 200 120 10 200 120 10 200 120 10 200 120 10
200 120 10 200 120 10 200 120 10 200 120 10 200 120 10 200 120 10 200 120 10 200 120 10
200 120 10 200 120 10 200 120 10 200 120 10 200 120 10 200 120 10 200 120 10 200 120 10
200 120 10 200 120 10 200 120 10 200 120 10 200 120 10 200 120 10 200 120 10 200 120 10
200 120 10 200 120 10 200 120 10 200 120 10 200 120 10 200 120 10 200 120 10 200 120 10
200 120 10 200 120 10 200 120 10 200 120 10 200 120 10 200 120 10 200 120 10 200 120 10
200 120 10 200 120 10 200 120 10 200 120 10 200 120 10 200 120 10 200 120 10 200 120 10
200 120 10 200 120 10 200 120 10 200 120 10 200 120 10 200 120 10 200 120 10 200 120 10
200 120 10 200 120 10 200 120 10 200 120 10 200 120 10 200 120 10 200 120 10 200 120 10
200 120 10 200 120 10 200 120 10 200 120 10 200 120 10 200 120 10 200 120 10 200 120 10
200 120 10 200 120 10 200 120 10 200 120 10 200 120 10 200 120 10 200 120 10 200 120 10
200 120 10 200 120 10 200 120 10 200 120 10 200 120 10 200 120 10 200 120 10 200 120 10
200 120 10 200 120 10 200 120 10 200 120 10 200 120 10 200 120 10 200 120 10 200 120 10
200 120 10 200 120 10 200 120 10 200 120 10 200 120 10 200 120 10 200 120 10 200 120 10
200 120 10 200 120 10 200 120 10 200 120 10 200 120 10 200 120 10 200 120 10 200 120 10
200 120 10 200 120 10 200 120 10 200 120 10 200 120 10 200 120 10 200 120 10 200 120 10
200 120 10 200 120 10 200 120 10 200 120 10 200 120 10 200 120 10 200 120 10 200 120 10
200 120 10 200 120 10 200 120 10 200 120 10 200 120 10 200 120 10 200 120 10 200 120 10
200 120 10 200 120 10 200 120 10 200 120 10 200 120 10 200 120 10 200 120 10 200 120 10
200 120 10 200 120 10 200 120 10 200 120 10 200 120 10 200 120 10 200 120 10 200 120 10
200 120 10 200 120 10 200 120 10 200 120 10 200 120 10 200 120 10 200 120 10 200 120 10
200 120 10 200 120 10 200 120 10 200 120 10 200 120 10 200 120 10 200 120 10 200 120 10
200 120 10 200 120 10 200 120 10 200 120 10 200 120 10 200 120 10 200 120 10 200 120 10
200 120 10 200 120 10 200 120 10 200 120 10 200 120 10 200 120 10 200 120 10 200 120 10
200 120 10 200 120 10 200 120 10 200 120 10 200 120 10 200 120 10 200 120 10 200 120 10
200 120 10 200 120 10 200 120 10 200 120 10 200 120 10 200 120 10 200 120 10 200 120 10
200 120 10 200 120 10 200 120 10 200 120 10 200 120 10 200 120 10 200 120 10 200 120 10
200 120 10 200 120 10 200 120 10 200 120 10 200 120 10 200 120 10 200 120 10 200 120 10
200 120 10 200 120 10 200 120 10 200 120 10 200 120 10 200 120 10 200 120 10 200 120 10
200 120 10 200 120 10 200 120 10 200 120 10 200 120 10 200 120 10 200 120 10 200 120 10
200 120 10 200 120 10 200 120 10 200 120 10 200 120 10 200 120 10 200 120 10 200 120 10
200 120 10 200 120 10 200 120 10 200 120 10 200 120 10 200 120 10 200 120 10 200 120 10
200 120 10 200 120 10 200 120 10 200 120 10 200 120 10 200 120 10 200 120 10 200 120 10
200 120 10 200 120 10 200 120 10 200 120 10 200 120 10 200 120 10 200 120 10 200 120 10
200 120 10 200 120 10 200 120 10 200 120 10 200 120 10 200 120 10 200 120 10 200 120 10
200 120 10 200 120 10 200 120 10 200 120 10 200 120 10 200 120 10 200 120 10 200 120 10
200 120 10 200 120 10 200 120 10 200 120 10 200 120 10 200 120 10 200 120 10 200 120 10
200 120 10 200 120 10 200 120 10 200 120 10 200 120 10 200 120 10 200 120 10 200 120 10
200 120 10 200 120 10 200 120 10 200 120 10 200 120 10 200 120 10 200 120 10 200 120 10
200 120 10 200 120 10 200 120 10 200 120 10 200 120 10 200 120 10 200 120 10 200 120 10
200 120 10 200 120 10 200 120 10 200 120 10 200 120 10 200 120 10 200 120 10 200 120 10
200 120 10 200 120 10 200 120 10 200 120 10 200 120 10 200 120 10 200 120 10 200 120 10
200 120 10 200 120 10 200 120 10 200 120 10 200 120 10 200 120 10 200 120 10 200 120 10
200 120 10 200 120 10 200 120 10 200 120 10 200 120 10 200 120 10 200 120 10 200 120 10
200 120 10 200 120 10 200 120 10 200 120 10 200 120 10 200 120 10 200 120 10 200 120 10
200 120 10 200 120 10 200 120 10 200 120 10 200 120 10 200 120 10 200 120 10 200 120 10
200 120 10 200 120 10 200 120 10 200 120 10 200 120 10 200 120 10 200 120 10 200 120 10
200 120 10 200 120 10 200 120 10 200 120 10 200 120 10 200 120 10 200 120 10 200 120 10
200 120 10 200 120 10 200 120 10 200 120 10 200 120 10 200 120 10 200 120 10 200 120 10
200 120 10 200 120 10 200 120 10 200 120 10 200 120 10 200 120 10 200 120 10 200 120 10
200 120 10 200 120 10 200 120 10 200 120 10 200 120 10 200 120 10 200 120 10 200 120 10
200 120 10 200 120 10 200 120 10 200 120 10 200 120 10 200 120 10 200 120 10 200 120 10
200 120 10 200 120 10 200 120 10 200 120 10 200 120 10 200 120 10 200 120 10 200 120 10
200 120 10 200 120 10 200 120 10 200 120 10 200 120 10 200 120 10 200 120 10 200 120 10
200 120 10 200 120 10 200 120 10 200 120 10 200 120 10 200 120 10 200 120 10 200 120 10
200 120 10 200 120 10 200 120 10 200 120 10 200 120 10 200 120 10 200 120 10 200 120 10
200 120 10 200 120 10 200 120 10 200 120 10 200 120 10 200 120 10 200 120 10 200 120 10
200 120 10 200 120 10 200 120 10 200 120 10 200 120 10 200 120 10 200 120 10 200 120 10
200 120 10 200 120 10 200 120 10 200 120 10 200 120 10 200 120 10 200 120 10 200 120 10
200 120 10 200 120 10 200 120 10 200 120 10 200 120 10 200 120 10 200 120 10 200 120 10
200 120 10 200 120 10 200 120 10 200 120 10 200 120 10 200 120 10 200 120 10 200 120 10
200 120 10 200 120 10 200 120 10 200 120 10 200 120 10 200 120 10 200 120 10 200 120 10
200 120 10 200 120 10 200 120 10 200 120 10 200 120 10 200 120 10 200 120 10 200 120 10
200 120 10 200 120 10 200 120 10 200 120 10 200 120 10 200 120 10 200 120 10 200 120 10
200 120 10 200 120 10 200 120 10 200 120 10 200 120 10 200 120 10 200 120 10 200 120 10
200 120 10 200 120 10 200 120 10 200 120 10 200 120 10 200 120 10 200 120 10 200 120 10
200 120 10 200 120 10 200 120 10 200 120 10 200 120 10 200 120 10 200 120 10 200 120 10
200 120 10 200 120 10 200 120 10 200 120 10 200 120 10 200 120 10 200 120 10 200 120 10
200 120 10 200 120 10 200 120 10 200 120 10 200 120 10 200 120 10 200 120 10 200 120 10
200 120 10 200 120 10 200 120 10 200 120 10 200 120 10 200 120 10 200 120 10 200 120 10
200 120 10 200 120 10 200 120 10 200 120 10 200 120 10 200 120 10 200 120 10 200 120 10
200 120 10 200 120 10 200 120 10 200 120 10 200 120 10 200 120 10 200 120 10 200 120 10
200 120 10 200 120 10 200 120 10 200 120 10 200 120 10 200 120 10 200 120 10 200 120 10
200 120 10 200 120 10 200 120 10 200 120 10 200 120 10 200 120 10 200 120 10 200 120 10
200 120 10 200 120 10 200 120 10 200 120 10 200 120 10 200 120 10 200 120 10 200 120 10
200 120 10 200 120 10 200 120 10 200 120 10 200 120 10 200 120 10 200 120 10 200 120 10
200 120 10 200 120 10 200 120 10 200 120 10 200 120 10 200 120 10 200 120 10 200 120 10
200 120 10 200 120 10 200 120 10 200 120 10 200 120 10 200 120 10 200 120 10 200 120 10
200 120 10 200 120 10 200 120 10 200 120 10 200 120 10 200 120 10 200 120 10 200 120 10
200 120 10 200 120 10 200 120 10 200 120 10 200 120 10 200 120 10 200 120 10 200 120 10
200 120 10 200 120 10 200 120 10 200 120 10 200 120 10 200 120 10 200 120 10 200 120 10
200 120 10 200 120 10 200 120 10 200 120 10 200 120 10 200 120 10 200 120 10 200 120 10
200 120 10 200 120 10 200 120 10 200 120 10 200 120 10 200 120 10 200 120 10 200 120 10
200 120 10 200 120 10 200 120 10 200 120 10 200 120 10 200 120 10 200 120 10 200 120 10
200 120 10 200 120 10 200 120 10 200 120 10 200 120 10 200 120 10 200 120 10 200 120 10
200 120 10 200 120 10 200 120 10 200 120 10 200 120 10 200 120 10 200 120 10 200 120 10
200 120 10 200 120 10 200 120 10 200 120 10 200 120 10 200 120 10 200 120 10 200 120 10
200 120 10 200 120 10 200 120 10 200 120 10 200 120 10 200 120 10 200 120 10 200 120 10
200 120 10 200 120 10 200 120 10 200 120 10 200 120 10 200 120 10 200 120 10 200 120 10
200 120 10 200 120 10 200 120 10 200 120 10 200 120 10 200 120 10 200 120 10 200 120 10
200 120 10 200 120 10 200 120 10 200 120 10 200 120 10 200 120 10 200 120 10 200 120 10
200 120 10 200 120 10 200 120 10 200 120 10 200 120 10 200 120 10 200 120 10 200 120 10
200 120 10 200 120 10 200 120 10 200 120 10 200 120 10 200 120 10 200 120 10 200 120 10
200 120 10 200 120 10 200 120 10 200 120 10 200 120 10 200 120 10 200 120 10 200 120 10
200 120 10 200 120 10 200 120 10 200 120 10 200 120 10 200 120 10 200 120 10 200 120 10
200 120 10 200 120 10 200 120 10 200 120 10 200 120 10 200 120 10 200 120 10 200 120 10
200 120 10 200 120 10 200 120 10 200 120 10 200 120 10 200 120 10 200 120 10 200 120 10
200 120 10 200 120 10 200 120 10 200 120 10 200 120 10 200 120 10 200 120 10 200 120 10
200 120 10 200 120 10 200 120 10 200 120 10 200 120 10 200 120 10 200 120 10 200 120 10
200 120 10 200 120 10 200 120 10 200 120 10 200 120 10 200 120 10 200 120 10 200 120 10
200 120 10 200 120 10 200 120 10 200 120 10 200 120 10 200 120 10 200 120 10 200 120 10
200 120 10 200 120 10 200 120 10 200 120 10 200 120 10 200 120 10 200 120 10 200 120 10
200 120 10 200 120 10 200 120 10 200 120 10 200 120 10 200 120 10 200 120 10 200 120 10
200 120 10 200 120 10 200 120 10 200 120 10 200 120 10 200 120 10 200 120 10 200 120 10
200 120 10 200 120 10 200 120 10 200 120 10 200 120 10 200 120 10 200 120 10 200 120 10
200 120 10 200 120 10 200 120 10 200 120 10 200 120 10 200 120 10 200 120 10 200 120 10
200 120 10 200 120 10 200 120 10 200 120 10 200 120 10 200 120 10 200 120 10 200 120 10
200 120 10 200 120 10 200 120 10 200 120 10 200 120 10 200 120 10 200 120 10 200 120 10
200 120 10 200 120 10 200 120 10 200 120 10 200 120 10 200 120 10 200 120 10 200 120 10
200 120 10 200 120 10 200 120 10 200 120 10 200 120 10 200 120 10 200 120 10 200 120 10
200 120 10 200 120 10 200 120 10 200 120 10 200 120 10 200 120 10 200 120 10 200 120 10
200 120 10 2
