P3
32 32
255
200 200 200 200 200 200 200 200 200 200 200 200 200 200 200 200 200 200 200 200 200 200 200 200 200 200 200 200 200 200 200 200 200 200 200 200 200 200 200 200 200 200 200 200 200 200 200 200 200 200 200 200 200 200 200 200 200 200 200 200 200 200 200 200 200 200 200 200 200 200 200 200 200 200 200 200 200 200 200 200 200 200 200 200 200 200 200 200 200 200 200 200 200 200 200 200 200 200 200 200 200 200 200 200 200 200 200 200 200 200 200 200 200 200 200 200 200 200 200 200 200 200 200 200 200 200 200 200 200 200 200 200 200 200 200 200 200 200 200 200 200 200 200 200 200 200 200 200 200 200 200 200 200 200 200 200 200 200 200 200 200 200 200 200 200 200 200 200 200 200 200 200 200 200 200 200 200 200 200 200 200 200 200 200 200 200 200 200 200 200 200 200 200 200 200 200 200 200 200 200 200 200 200 200 200 200 200 200 200 200 200 200 200 200 200 200 200 200 200 200 200 200 200 200 200 200 200 200 200 200 200 200 200 200 200 200 200 200 200 200 200 200 200 200 200 200 200 200 200 200 200 200 200 200 200 200 200 200 200 200 200 200 200 200 200 200 200 200 200 200 200 200 200 200 200 200 200 200 200 200 200 200 200 200 200 200 200 200 200 200 200 200 200 200 200 200 200 200 200 200 200 200 200 200 200 200 200 200 200 200 200 200 200 200 200 200 200 200 200 200 200 200 200 200 200 200 200 200 200 200 200 200 200 200 200 200 200 200 200 200 200 200 200 200 200 200 200 200 200 200 200 200 200 200 200 200 200 200 200 200 200 200 200 200 200 200 200 200 200 200 200 200 200 200 200 200 200 200 200 200 200 200 200 200 200 200 200 200 200 200 200 200 200 200 200 200 200 200 200 200 200 200 200 200 200 200 200 200 200 200 200 200 200 200 200 200 200 200 200 200 200 200 200 200 200 200 200 200 200 200 200 200 200 200 200 200 200 200 200 200 200 200 200 200 200 200 200 200 200 200 200 200 200 200 200 200 200 200 200 200 200 200 200 200 200 200 200 200 200 200 200 200 200 200 200 200 200 200 200 200 200 200 200 200 200 200 200 200 200 200 200 200 200 200 200 200 200 200 200 200 200 200 200 200 200 200 200 200 200 200 200 200 200 200 200 200 200 200 200 200 200 200 200 200 200 200 200 200 200 200 200 200 200 200 200 200 200 200 200 200 200 200 200 200 200 200 200 200 200 200 200 200 200 200 200 200 200 200 200 200 200 200 200 200 200 200 200 200 200 200 200 200 200 200 200 200 200 200 200 200 200 200 200 200 200 200 200 200 200 200 200 200 200 200 200 200 200 200 200 200 200 200 200 200 200 200 200 200 200 200 200 200 200 200 200 200 200 200 200 200 200 200 200 200 200 200 200 200 200 200 200 200 200 200 200 200 200 200 200 200 200 200 200 200 200 200 200 200 200 200 200 200 200 200 200 200 200 200 200 200 200 200 200 200 200 200 200 200 200 200 200 200 200 200 200 200 200 200 200 200 200 200 200 200 200 200 200 200 200 200 200 200 200 200 200 200 200 200 200 200 200 200 200 200 200 200 200 200 200 200 200 200 200 200 200 200 200 200 200 200 200 200 200 200 200 200 200 200 200 200 200 200 200 200 200 200 200 200 200 200 200 200 200 200 200 200 200 200 200 200 200 200 200 200 200 200 200 200 200 200 200 200 200 200 200 200 200 200 200 200 200 200 200 200 200 200 200 200 200 200 200 200 200 200 200 200 200 200 200 200 200 200 200 200 200 200 200 200 200 200 200 200 200 200 200 200 200 200 200 200 200 200 200 200 200 200 200 200 200 200 200 200 200 200 200 200 200 200 200 200 200 200 200 200 200 200 200 200 200 200 200 200 200 200 200 200 200 200 200 200 200 200 200 200 200 200 200 200 200 200 200 200 200 200 200 200 200 200 200 200 200 200 200 200 200 200 200 200 200 200 200 200 200 200 200 200 200 200 200 200 200 200 200 200 200 200 200 200 200 200 200 200 200 200 200 200 200 200 200 200 200 200 200 200 200 200 200 200 200 200 200 200 200 200 200 200 200 200 200 200 200 200 200 200 200 200 200 200 200 200 200 200 200 200 200 200 200 200 200 200 200 200 200 200 200 200 200 200 200 200 200 200 200 200 200 200 200 200 200 200 200 200 200 200 200 200 200 200 200 200 200 200 200 200 200 200 200 200 200 200 200 200 200 200 200 200 200 200 200 200 200 200 200 200 200 200 200 200 200 200 200 200 200 200 200 200 200 200 200 200 200 200 200 200 200 200 200 200 200 200 200 200 200 200 200 200 200 200 200 200 200 200 200 200 200 200 200 200 200 200 200 200 200 200 200 200 200 200 200 200 200 200 200 200 200 200 200 200 200 200 200 200 200 200 200 200 200 200 200 200 200 200 200 200 200 200 200 200 200 200 200 200 200 200 200 200 200 200 200 200 200 200 200 200 200 200 200 200 200 200 200 200 200 200 200 200 200 200 200 200 200 200 200 200 200 200 200 200 200 200 200 200 200 200 200 200 200 200 200 200 200 200 200 200 200 200 200 200 200 200 200 200 200 200 200 200 200 200 200 200 200 200 200 200 200 200 200 200 200 200 200 200 200 200 200 200 200 200 200 200 200 200 200 200 200 200 200 200 200 200 200 200 200 200 200 200 200 200 200 200 200 200 200 200 200 200 200 200 200 200 200 200 200 200 200 200 200 200 200 200 200 200 200 200 200 200 200 200 200 200 200 200 200 200 200 200 200 200 200 200 200 200 200 200 200 200 200 200 200 200 200 200 200 200 200 200 200 200 200 200 200 200 200 200 200 200 200 200 200 200 200 200 200 200 200 200 200 200 200 200 200 200 200 200 200 200 200 200 200 200 200 200 200 200 200 200 200 200 200 200 200 200 200 200 200 200 200 200 200 200 200 200 200 20-0 200 200 200 200 200 200 200 200 200 200 200 200 200 200 200 200 200 200 2-0 200 200 200 200 200 200 200 200 200 200 200 200 200 200 200 200 200 200 2-0 200 200 200 200 200 200 200 200 200 200 200 200 200 200 200 200 200 200 2-0 200 200 200 200 200 200 200 200 200 200 200 200 200 200 200 200 200 200 2-0 200 200 200 200 200 200 200 200 200 200 200 200 200 200 200 200 200 200 2-0 200 200 200 200 200 200 200 200 200 200 200 200 200 200 200 200 200 200 2-0 200 200 200 200 200 200 200 200 200 200 200 200 200 200 200 200 200 200 2-0 200 200 200 200 200 200 200 200 200 200 200 200 200 200 200 200 200 200 2-0 200 200 200 200 200 200 200 200 200 200 200 200 200 200 200 200 200 200 2-0 200 200 200 200 200 200 200 200 200 200 200 200 200 200 200 200 200 200 2-0 200 200 200 200 200 200 200 200 200 200 200 200 200 200 200 200 200 200 2-0 200 200 200 200 200 200 200 200 200 200 200 200 200 200 200 200 200 200 2-0 200 200 200 200 200 200 200 200 200 200 200 200 200 200 200 200 200 200 2-0 200 200 200 200 200 200 200 200 200 200 200 200 200 200 200 200 200 200 2-0 200 200 200 200 200 200 200 200 200 200 200 200 200 200 200 200 200 200 2-0 200 200 200 200 200 200 200 200 200 200 200 200 200 200 200 200 200 200 2-0 200 200 200 200 200 200 200 200 200 200 200 200 200 200 200 200 200 200 2-0 200 200 200 200 200 200 200 200 200 200 200 200 200 200 200 200 200 200 2-0 200 200 200 200 200 200 200 200 200 200 200 200 200 200 200 200 200 200 2-0 200 200 200 200 200 200 200 200 200 200 200 200 200 200 200 200 200 200 2-0 200 200 200 200 200 200 200 200 200 200 200 200 200 200 200 200 200 200 2-0 200 200 200 200 200 200 200 200 200 200 200 200 200 200 200 200 200 200 2-0 200 200 200 200 200 200 200 200 200 200 200 200 200 200 200 200 200 200 2-0 200 200 200 200 200 200 200 200 200 200 200 200 200 200 200 200 200 200 2-0 200 200 200 200 200 200 200 200 200 200 200 200 200 200 200 200 200 200 2-0 200 200 200 200 200 200 200 200 200 200 200 200 200 200 200 200 200 200 2-0 200 200 200 200 200 200 200 200 200 200 200 200 200 200 200 200 200 200 2-0 200 200 200 200 200 200 200 200 200 200 200 200 200 200 200 200 200 200 2-0 200 200 200 200 200 200 200 200 200 200 200 200 200 200 200 200 200 200 2-0 200 200 200 200 200 200 200 200 200 200 200 200 200 200 200 200 200 200 2-0 200 200 200 200 200 200 200 200 200 200 200 200 200 200 200 200 200 200 2-0 200 200 200 200 200 200 200 200 200 200 200 200 200 200 200 200 200 200 2-0 200 200 200 200 200 200 200 200 200 200 200 200 200 200 200 200 200 200 2-0 200 200 200 200 200 200 200 200 200 200 200 200 200 200 200 200 200 200 2-0 200 200 200 200 200 200 200 200 200 200 200 200 200 200 200 200 200 200 2-0 200 200 200 200 200 200 200 200 200 200 200 200 200 200 200 200 200 200 2-0 200 200 200 200 200 200 200 200 200 200 200 200 200 200 200 200 200 200 2-0 200 200 200 200 200 200 200 200 200 200 200 200 200 200 200 200 200 200 2-0 200 200 200 200 200 200 200 200 200 200 200 200 200 200 200 200 200 200 2-0 200 200 200 200 200 200 200 200 200 200 200 200 200 200 200 200 200 200 2-0 200 200 200 200 200 200 200 200 200 200 200 200 200 200 200 200 200 200 2-0 200 200 200 200 200 200 200 200 200 200 200 200 200 200 200 200 200 200 2-0 200 200 200 200 200 200 200 200 200 200 200 200 200 200 200 200 200 200 2-0 200 200 200 200 200 200 200 200 200 200 200 200 200 200 200 200 200 200 2-0 200 200 200 200 200 200 200 200 200 200 200 200 200 200 200 200 200 200 2-0 200 200 200 200 200 200 200 200 200 200 200 200 200 200 200 200 200 200 2-0 200 200 200 200 200 200 200 200 200 200 200 200 200 200 200 200 200 200 2-0 200 200 200 200 200 200 200 200 200 200 200 200 200 200 200 200 200 200 2-0 200 200 200 200 200 200 200 200 200 200 200 200 200 200 200 200 200 200 2-0 200 200 200 200 200 200 200 200 200 200 200 200 200 200 200 200 200 200 2-0 200 200 200 200 200 200 200 200 200 200 200 200 200 200 200 200 200 200 2-0 200 200 200 200 200 200 200 200 200 200 200 200 200 200 200 200 200 200 2-0 200 200 200 200 200 200 200 200 200 200 200 200 200 200 200 200 200 200 2-0 200 200 200 200 200 200 200 200 200 200 200 200 200 200 200 200 200 200 2-0 200 200 200 200 200 200 200 200 200 200 200 200 200 200 200 200 200 200 2-0 200 200 200 200 200 200 200 200 200 200 200 200 200 200 200 200 200 200 2-0 200 200 200 200 200 200 200 200 200 200 200 200 200 200 200 200 200 200 2-0 200 200 200 200 200 200 200 200 200 200 200 200 200 200 200 200 200 200 2-0 200 200 200 200 200 200 200 200 200 200 200 200 200 200 200 200 200 200 2-0 200 200 200 200 200 200 200 200 200 200 200 200 200 200 200 200 200 200 2-0 200 200 200 200 200 200 200 200 200 200 200 200 200 200 200 200 200 200 2-0 200 200 200 200 200 200 200 200 200 200 200 200 200 200 200 200 200 200 2-0 200 200 200 200 200 200 200 200 200 200 200 200 200 200 200 200 200 200 2-0 200 200 200 200 200 200 200 200 200 200 200 200 200 200 200 200 200 200 2-0 200 200 200 200 200 200 200 200 200 200 200 200 200 200 200 200 200 200 2-0 200 200 200 200 200 200 200 200 200 200 200 200 200 200 200 200 200 200 2-0 200 200 200 200 200 200 200 200 200 200 200 200 200 200 200 200 200 200 2-0 200 200 200 200 200 200 200 200 200 200 200 200 200 200 200 200 200 200 2-0 200 200 200 200 200 200 200 200 200 200 200 200 200 200 200 200 200 200 2-0 200 200 200 200 200 200 200 200 200 200 200 200 200 200 200 200 200 200 2-0 200 200 200 200 200 200 200 200 200 200 200 200 200 200 200 200 200 200 2-0 200 200 200 200 200 200 200 200 200 200 200 200 200 200 200 200 200 200 2-0 200 200 200 200 200 200 200 200 200 200 200 200 200 200 200 200 200 200 2-0 200 200 200 200 200 200 200 200 200 200 200 200 200 200 200 200 200 200 2-0 200 200 200 200 200 200 200 200 200 200 200 200 200 200 200 200 200 200 2-0 200 200 200 200 200 200 200 200 200 200 200 200 200 200 200 200 200 200 2-0 200 200 200 200 200 200 200 200 200 200 200 200 200 200 200 200 200 200 2-0 200 200 200 200 200 200 200 200 200 200 200 200 200 200 200 200 200 200 2-0 200 200 200 200 200 200 200 200 200 200 200 200 200 200 200 200 200 200 2-0 200 200 200 200 200 200 200 200 200 200 200 200 200 200 200 200 200 200 2-0 200 200 200 200 200 200 200 200 200 200 200 200 200 200 200 200 200 200 2-0 200 200 200 200 200 200 200 200 200 200 200 200 200 200 200 200 200 200 2-0 200 200 200 200 200 200 200 200 200 200 200 200 200 200 200 200 200 200 2-0 200 200 200 200 200 200 200 200 200 200 200 200 200 200 200 200 200 200 2-0 200 200 200 200 200 200 200 200 200 200 200 200 200 200 200 200 200 200 2-0 200 200 200 200 200 200 200 200 200 200 200 200 200 200 200 200 200 200 2-0 200 200 200 200 200 200 200 200 200 200 200 200 200 200 200 200 200 200 2-0 200 200 200 200 200 200 200 200 200 200 200 200 200 200 200 200 200 200 2-0 200 200 200 200 200 200 200 200 200 200 200 200 200 200 200 200 200 200 2-0 200 200 200 200 200 200 200 200 200 200 200 200 200 200 200 200 200 200 2-0 200 200 200 200 200 200 200 200 200 200 200 200 200 200 200 200 200 200 2-0 200 200 200 200 200 200 200 200 200 200 200 200 200 200 200 200 200 200 2-0 200 200 200 200 200 200 200 200 200 200 200 200 200 200 200 200 200 200 2-0 200 200 200 200 200 200 200 200 200 200 200 200 200 200 200 200 200 200 2-0 200 200 200 200 200 200 200 200 200 200 200 200 200 200 200 200 200 200 2-0 200 200 200 200 200 200 200 200 200 200 200 200 200 200 200 200 200 200 2-0 200 200 200 200 200 200 200 200 200 200 200 200 200 200 200 200 200 200 2-0 200 200 200 200 200 200 200 200 200 200 200 200 200 200 200 200 200 200 2-0 200 200 200 200 200 200 200 200 200 200 200 200 200 200 200 200 200 200 2-0 200 200 200 200 200 200 200 200 200 200 200 200 200 200 200 200 200 200 2-0 200 200 200 200 200 200 200 200 200 200 200 200 200 200 200 200 200 200 2-0 200 200 200 200 200 200 200 200 200 200 200 200 200 200 200 200 200 200 2-0 200 200 200 200 200 200 200 200 200 200 200 200 200 200 200 200 200 200 2-0 200 200 200 200 200 200 200 200 200 200 200 200 200 200 200 200 200 200 2-0 200 200 200 200 200 200 200 200 200 200 200 200 200 200 200 200 200 200 2-0 200 200 200 200 200 200 200 200 200 200 200 200 200 200 200 200 200 200 2-0 200 200 200 200 200 200 200 200 200 200 200 200 200 200 200 200 200 200 2-0 200 200 200 200 200 200 200 200 200 200 200 200 200 200 200 200 200 200 2-0 200 200 200 200 200 200 200 200 200 200 200 200 200 200 200 200 200 200 2-0 200 200 200 200 200 200 200 200 200 200 200 200 200 200 200 200 200 200 2-0 200 200 200 200 200 200 200 200 200 200 200 200 200 200 200 200 200 200 2-0 200 200 200 200 200 200 200 200 200 200 200 200 200 200 200 200 200 200 2-0 200 200 200 200 200 200 200 200 200 200 200 200 200 200 200 200 200 200 2-0 200 200 200 200 200 200 200 200 200 200 200 200 200 200 200 200 200 200 2-0 200 200 200 200 200 200 200 200 200 200 200 200 200 200 200 200 200 200 2-0 200 200 200 200 200 200 200 200 200 200 200 200 200 200 200 200 200 200 2-0 200 200 200 200 200 200 200 200 200 200 200 200 200 200 200 200 200 200 2-0 200 200 200 200 200 200 200 200 200 200 200 200 200 200 200 200 200 200 2-0 200 200 200 200 200 200 200 200 200 200 200 200 200 200 200 200 200 200 2-0 200 200 200 200 200 200 200 200 200 200 200 200 200 200 200 200 200 200 2-0 200 200 200 200 200 200 200 200 200 200 200 200 200 200 200 200 200 200 2-0 200 200 200 200 200 200 200 200 200 200 200 200 200 200 200 200 200 200 2-0 200 200 200 200 200 200 200 200 200 200 200 200 200 200 200 200 200 200 2-0 200 200 200 200 200 200 200 200 200 200 200 200 200 200 200 200 200 200 2-0 200 200 200 200 200 200 200 200 200 200 200 200 200 200 200 200 200 200 2-0 200 200 200 200 200 200 200 200 200 200 200 200 200 200 200 200 200 200 2-0 200 200 200 200 200 200 200 200 200 200 200 200 200 200 200 200 200 200 2-0 200 200 200 200 200 200 200 200 200 200 200 200 200 200 200 200 200 200 2-0 200 200 200 200 200 200 200 200 200 200 200 200 200 200 200 200 200 200 2-0 200 200 200 200 200 200 200 200 200 200 200 200 200 200 200 200 200 200 2-0 200 200 200 200 200 200 200 200 200 200 200 200 200 200 200 200 200 200 2-0 200 200 200 200 200 200 200 200 200 200 200 200 200 200 200 200 200 200 2-0 200 200 200 200 200 200 200 200 200 200 200 200 200 200 200 200 200 200 2-0 200 200 200 200 200 200 200 200 200 200 200 200 200 200 200 200 200 200 2-0 200 200 200 200 200 200 200 200 200 200 200 200 200 200 200 200 200 200 2-0 200 200 200 200 200 200 200 200 200 200 200 200 200 200 200 200 200 200 2-0 200 200 200 200 200 200 200 200 200 200 200 200 200 200 200 200 200 200 2-0 200 200 200 200 200 200 200 200 200 200 200 200 200 200 200 200 200 200 2-0 200 200 200 200 200 200 200 200 200 200 200 200 200 200 200 200 200 200 2-0 200 200 200 200 200 200 200 200 200 200 200 200 200 200 200 200 200 200 2-0 200 200 200 200 200 200 200 200 200 200 200 200 200 200 200 200 200 200 2-0 200 200 200 200 200 200 200 200 200 200 200 200 200 200 200 200 200 200 2-0 200 200 200 200 200 200 200 200 200 200 200 200 200 200 200 200 200 200 2-0 200 200 200 200 200 200 200 200 200 200 200 200 200 200 200 200 200 200 2-0 200 200 200 200 200 200 200 200 200 200 200 200 200 200 200 200 200 200 2-0 200 200 200 200 200 200 200 200 200 200 200 200 200 200 200 200 200 200 2-0 200 200 200 200 200 200 200 200 200 200 200 200 200 200 200 200 200 200 2-0 200 200 200 200 200 200 200 200 200 200 200 200 200 200 200 200 200 200 2-0 200 200 200 200 200 200 200 200 200 200 200 200 200 200 200 200 200 200 2-0 200 200 200 200 200 200 200 200 200 200 200 200 200 200 200 200 200 200 2-0 200 200 200 200 200 200 200 200 200 200 200 200 200 200 200 200 200 200 2-0 200 200 200 200 200 200 200 200 200 200 200 200 200 200 200 200 200 200 2-0 200 200 200 200 200 200 200 200 200 200 200 200 200 200 200 200 200 200 2-0 200 200 200 200 200 200 200 200 200 200 200 200 200 200 200 200 200 200 2-0 200 200 200 200 200 200 200 200 200 200 200 200 200 200 200 200 200 200 2-0 200 200 200 200 200 200 200 200 200 200 200 200 200 200 200 200 200 200 2-0 200 200 200 200 200 200 200 200 200 200 200 200 200 200 200 200 200 200 2-0 200 200 200 200 200 200 200 200 200 200 200 200 200 200 200 200 200 200 2-0 200 200 200 200 200 200 200 200 200 200 200 200 200 200 200 200 200 200 2-0 200 200 200 200 200 200 200 200 200 200 200 200 200 200 200 200 200 200 2-0 200 200 200 200 200 200 200 200 200 200 200 200 200 200 200 200 200 200 2-0 200 200 200 200 200 200 200 200 200 200 200 200 200 200 200 200 200 200 2-0 200 200 200 200 200 200 200 200 200 200 200 200 200 200 200 200 200 200 2-0 200 200 200 200 200 200 200 200 200 200 200 200 200 200 200 200 200 200 2-0 200 200 200 200 200 200 200 200 200 200 200 200 200 200 200 200 200 200 2-0 200 200 200 200 200 200 200 200 200 200 200 200 200 200 200 200 200 200 2-0 200 200 200 200 200 200 200 200 200 200 200 200 200 200 200 200 200 200 2-0 200 200 200 200 200 200 200 200 200 200 200 200 200 200 200 200 200 200 2-0 200 200 200 200 200 200 200 200 200 200 200 200 200 200 200 200 200 200 2-0 200 200 200 200 200 200 200 200 200 200 200 200 200 200 200 200 200 200 2-0 200 200 200 200 200 200 200 200 200 200 200 200 200 200 200 200 200 200 2-0 200 200 200 200 200 200 200 200 200 200 200 200 200 200 200 200 200 200 2-0 200 200 200 200 200 200 200 200 200 200 200 200 200 200 200 200 200 200 2-0 200 200 200 200 200 200 200 200 200 200 200 200 200 200 200 200 200 200 2-0 200 200 200 200 200 200 200 200 200 200 200 200 200 200 200 200 200 200 2-0 200 200 200 200 200 200 200 200 200 200 200 200 200 200 200 200 200 200 2-0 200 200 200 200 200 200 200 200 200 200 200 200 200 200 200 200 200 200 2-0 200 200 200 200 200 200 200 200 200 200 200 200 200 200 200 200 200 200 2-0 200 200 200 200 200 200 200 200 200 200 200 200 200 200 200 200 200 200 2-0 200 200 200 200 200 200 200 200 200 200 200 200 200 200 200 200 200 200 2-0 200 200 200 200 200 200 200 200 200 200 200 200 200 200 200 200 200 200 2-0 200 200 200 200 200 200 200 200 200 200 200 200 200 200 200 200 200 200 2-0 200 200 200 200 200 200 200 200 200 200 200 200 200 200 200 200 200 200 2-0 200 200 200 200 200 200 200 200 200 200 200 200 200 200 200 200 200 200 2-0 200 200 200 200 200 200 200 200 200 200 200 200 200 200 200 200 200 200 2-0 200 200 200 200 200 200 200 200 200 200 200 200 200 200 200 200 200 200 2-0 200 200 200 200 200 200 200 200 200 200 200 200 200 200 200 200 200 200 2-0 200 200 200 200 200 200 200 200 200 200 200 200 200 200 200 200 200 200 2-0 200 200 200 200 200 200 200 200 200 200 200 200 200 200 200 200 200 200 2-0 200 200 200 200 200 200 200 200 200 200 200 200 200 200 200 200 200 200 2-0 200 200 200 200 200 200 200 200 200 200 200 200 200 200 200 200 200 200 2-0 200 200 200 200 200 200 200 200 200 200 200 200 200 200 200 200 200 200 2-0 200 200 200 200 200 200 200 200 200 200 200 200 200 200 200 200 200 200 2-0 200 200 200 200 200 200 200 200 200 200 200 200 200 200 200 200 200 200 2-0 200 200 200 200 200 200 200 200 200 200 200 200 200 200 200 200 200 200 2-0 200 200 200 200 200 200 200 200 200 200 200 200 200 200 200 200 200 200 2-0 200 200 200 200 200 200 200 200 200 200 200 200 200 200 200 200 200 200 2-0 200 200 200 200 200 200 200 200 200 200 200 200 200 200 200 200 200 200 2-0 200 200 200 200 200 200 200 200 200 200 200 200 200 200 200 200 200 200 2-0 200 200 200 200 200 200 200 200 200 200 200 200 200 200 200 200 200 200 2-0 200 200 200 200 200 200 200 200 200 200 200 200 200 200 200 200 200 200 2-0 200 200 200 200 200 200 200 200 200 200 200 200 200 200 200 200 200 200 2-0 200 200 200 200 200 200 200 200 200 200 200 200 200 200 200 200 200 200 2-0 200 200 200 200 200 200 200 200 200 200 200 200 200 200 200 200 200 200 2-0 200 200 200 200 200 200 200 200 200 200 200 200 200 200 200 200 200 200 2-0 200 200 200 200 200 200 200 200 200 200 200 200 200 200 200 200 200 200 2-0 200 200 200 200 200 200 200 200 200 200 200 200 200 200 200 200 200 200 2-0 200 200 200 200 200 200 200 200 200 200 200 200 200 200 200 200 200 200 2-0 200 200 200 200 200 200 200 200 200 200 200 200 200 200 200 200 200 200 2-0 200 200 200 200 200 200 200 200 200 200 200 200 200 200 200 200 200 200 2-0 200 200 200 200 200 200 200 200 200 200 200 200 200 200 200 200 200 200 2-0 200 200 200 200 200 200 200 200 200 200 200 200 200 200 200 200 200 200 2-0 200 200 200 200 200 200 200 200 200 200 200 200 200 200 200 200 200 200 2-0 200 200 200 200 200 200 200 200 200 200 200 200 200 200 200 200 200 200 2-0 200 200 200 200 200 200 200 200 200 200 200 200 200 200 200 200 200 200 2-0 200 200 200 200 200 200 200 200 200 200 200 200 200 200 200 200 200 200 2-0 200 200 200 200 200 200 200 200 200 200 200 200 200 200 200 200 200 200 2-0 200 200 200 200 200 200 200 200 200 200 200 200 200 200 200 200 200 200 2-0 200 200 200 200 200 200 200 200 200 200 200 200 200 200 200 200 200 200 2-0 200 200 200 200 200 200 200 200 200 200 200 200 200 200 200 200 200 200 2-0 200 200 200 200 200 200 200 200 200 200 200 200 200 200 200 200 200 200 2-0 200 200 200 200 200 200 200 200 200 200 200 200 200 200 200 200 200 200 2-0 200 200 200 200 200 200 200 200 200 200 200 200 200 200 200 200 200 200 2-0 200 200 200 200 200 200 200 200 200 200 200 200 200 200 200 200 200 200 2-0 200 200 200 200 200 200 200 200 200 200 200 200 200 200 200 200 200 200 2-0 200 200 200 200 200 200 200 200 200 200 200 200 200 200 200 200 200 200 2-0 200 200 200 200 200 200 200 200 200 200 200 200 200 200 200 200 200 200 2-0 200 200 200 200 200 200 200 200 200 200 200 200 200 200 200 200 200 200 2-0 200 200 200 200 200 200 200 200 200 200 200 200 200 200 200 200 200 200 2-0 200 200 200 200 200 200 200 200 200 200 200 200 200 200 200 200 200 200 2-0 200 200 200 200 200 200 200 200 200 200 200 200 200 200 200 200 200 200 2-0 200 200 200 200 200 200 200 200 200 200 200 200 200 200 200 200 200 200 2-0 200 200 200 200 200 200 200 200 200 200 200 200 200 200 200 200 200 200 2-0 200 200 200 200 200 200 200 200 200 200 200 200 200 200 200 200 200 200 2-0 200 200 200 200 200 200 200 200 200 200 200 200 200 200 200 200 200 200 2-0 200 200 200 200 200 200 200 200 200 200 200 200 200 200 200 200 200 200 2-0 200 200 200 200 200 200 200 200 200 200 200 200 200 200 200 200 200 200 2-0 200 200 200 200 200 200 200 200 200 200 200 200 200 200 200 200 200 200 2-0 200 200 200 200 200 200 200 200 200 200 200 200 200 200 200 200 200 200 2-0 200 200 200 200 200 200 200 200 200 200 200 200 200 200 200 200 200 200 2-0 200 200 200 200 200 200 200 200 200 200 200 200 200 200 200 200 200 200 2-0 200 200 200 200 200 200 200 200 200 200 200 200 200 200 200 200 200 200 2-0 200 200 200 200 200 200 200 200 200 200 200 200 200 200 200 200 200 200 2-0 200 200 200 200 200 200 200 200 200 200 200 200 200 200 200 200 200 200 2-0 200 200 200 200 200 200 200 200 200 200 200 200 200 200 200 200 200 200 2-0 200 200 200 200 200 200 200 200 200 200 200 200 200 200 200 200 200 200 2-0 200 200 200 200 200 200 200 200 200 200 200 200 200 200 200 200 200 200 2-0 200 200 200 200 200 200 200 200 200 200 200 200 200 200 200 200 200 200 2-0 200 200 200 200 200 200 200 200 200 200 200 200 200 200 200 200 200 200 2-0 200 200 200 200 200 200 200 200 200 200 200 200 200 200 200 200 200 200 2-0 200 200 200 200 200 200 200 200 200 200 200 200 200 200 200 200 200 200 2-0 200 200 200 200 200 200 200 200 200 200 200 200 200 200 200 200 200 200 2-0 200 200 200 200 200 200 200 200 200 200 200 200 200 200 200 200 200 200 2-0 200 200 200 200 200 200 200 200 200 200 200 200 200 200 200 200 200 200 2-0 200 200 200 200 200 200 200 200 200 200 200 200 200 200 200 200 200 200 2-0 200 200 200 200 200 200 200 200 200 200 200 200 200 200 200 200 200 200 2-0 200 200 200 200 200 200 200 200 200 200 200 200 200 200 200 200 200 200 2-0 200 200 200 200 200 200 200 200 200 200 200 200 200 200 200 200 200 200 2-0 200 200 200 200 200 200 200 200 200 200 200 200 200 200 200 200 200 200 2-0 200 200 200 200 200 200 200 200 200 200 200 200 200 200 200 200 200 200 2-0 200 200 200 200 200 200 200 200 200 200 200 200 200 200 200 200 200 200 2-0 200 200 200 200 200 200 200 200 200 200 200 200 200 200 200 200 200 200 2-0 200 200 200 200 200 200 200 200 200 200 200 200 200 200 200 200 200 200 2-0 200 200 200 200 200 200 200 200 200 200 200 200 200 200 200 200 200 200 2-0 200 200 200 200 200 200 200 200 200 200 200 200 200 200 200 200 200 200 2-0 200 200 200 200 200 200 200 200 200 200 200 200 200 200 200 200 200 200 2-0 200 200 200 200 200 200 200 200 200 200 200 200 200 200 200 200 200 200 2-0 200 200 200 200 200 200 200 200 200 200 200 200 200 200 200 200 200 200 2-0 200 200 200 200 200 200 200 200 200 200 200 200 200 200 200 200 200 200 2-0 200 200 200 200 200 200 200 200 200 200 200 200 200 200 200 200 200 200 2-0 200 200 200 200 200 200 200 200 200 200 200 200 200 200 200 200 200 200 2-0 200 200 200 200 200 200 200 200 200 200 200 200 200 200 200 200 200 200 2-0 200 200 200 200 200 200 200 200 200 200 200 200 200 200 200 200 200 200 2-0 200 200 200 200 200 200 200 200 200 200 200 200 200 200 200 200 200 200 2-0 200 200 200 200 200 200 200 200 200 200 200 200 200 200 200 200 200 200 2-0 200 200 200 200 200 200 200 200 200 200 200 200 200 200 200 200 200 200 2-0 200 200 200 200 200 200 200 200 200 200 200 200 200 200 200 200 200 200 2-0 200 200 200 200 200 200 200 200 200 200 200 200 200 200 200 200 200 200 2-0 200 200 200 200 200 200 200 200 200 200 200 200 200 200 200 200 200 200 2-0 200 200 200 200 200 200 200 200 200 200 200 200 200 200 200 200 200 200 2-0 200 200 200 200 200 200 200 200 200 200 200 200 200 200 200 200 200 200 2-0 200 200 200 200 200 200 200 200 200 200 200 200 200 200 200 200 200 200 2-0 200 200 200 200 200 200 200 200 200 200 200 200 200 200 200 200 200 200 2-0 200 200 200 200 200 200 200 200 200 200 200 200 200 200 200 200 200 200 2-0 200 200 200 200 200 200 200 200 200 200 200 200 200 200 200 200 200 200 2-0 200 200 200 200 200 200 200 200 200 200 200 200 200 200 200 200 200 200 2-0 200 200 200 200 200 200 200 200 200 200 200 200 200 200 200 200 200 200 2-0 200 200 200 200 200 200 200 200 200 200 200 200 200 200 200 200 200 200 2-0 200 200 200 200 200 200 200 200 200 200 200 200 200 200 200 200 200 200 2-0 200 200 200 200 200 200 200 200 200 200 200 200 200 200 200 200 200 200 2-0 200 200 200 200 200 200 200 200 200 200 200 200 200 200 200 200 200 200 2-0 200 200 200 200 200 200 200 200 200 200 200 200 200 200 200 200 200 200 2-0 200 200 200 200 200 200 200 200 200 200 200 200 200 200 200 200 200 200 2-0 200 200 200 200 200 200 200 200 200 200 200 200 200 200 200 200 200 200 2-0 200 200 200 200 200 200 200 200 200 200 200 200 200 200 200 200 200 200 2-0 200 200 200 200 200 200 200 200 200 200 200 200 200 200 200 200 200 200 2-0 200 200 200 200 200 200 200 200 200 200 200 200 200 200 200 200 200 200 2-0 200 200 200 200 200 200 200 200 200 200 200 200 200 200 200 200 200 200 2-0 200 200 200 200 200 200 200 200 200 200 200 200 200 200 200 200 200 200 2-0 200 200 200 200 200 200 200 200 200 200 200 200 200 200 200 200 200 200 2-0 200 200 200 200 200 200 200 200 200 200 200 200 200 200 200 200 200 200 2-0 200 200 200 200 200 200 200 200 200 200 200 200 200 200 200 200 200 200 2-0 200 200 200 200 200 200 200 200 200 200 200 200 200 200 200 200 200 200 2-0 200 200 200 200 200 200 200 200 200 200 200 200 200 200 200 200 200 200 2-0 200 200 200 200 200 200 200 200 200 200 200 200 200 200 200 200 200 200 2-0 200 200 200 200 200 200 200 200 200 200 200 200 200 200 200 200 200 200 2-0 200 200 200 200 200 200 200 200 200 200 200 200 200 200 200 200 200 200 2-0 200 200 200 200 200 200 200 200 200 200 200 200 200 200 200 200 200 200 2-0 200 200 200 200 200 200 200 200 200 200 200 200 200 200 200 200 200 200 2-0 200 200 200 200 200 200 200 200 200 200 200 200 200 200 200 200 200 200 2-0 200 200 200 200 200 200 200 200 200 200 200 200 200 200 200 200 200 200 2-0 200 200 200 200 200 200 200 200 200 200 200 200 200 200 200 200 200 200 2-0 200 200 200 200 200 200 200 200 200 200 200 200 200 200 200 200 200 200 2-0 200 200 200 200 200 200 200 200 200 200 200 200 200 200 200 200 200 200 2-0 200 200 200 200 200 200 200 200 200 200 200 200 200 200 200 200 200 200 2-0 200 200 200 200 200 200 200 200 200 200 200 200 200 200 200 200 200 200 2-0 200 200 200 200 200 200 200 200 200 200 200 200 200 200 200 200 200 200 2-0 200 200 200 200 200 200 200 200 200 200 200 200 200 200 200 200 200 200 2-0 200 200 200 200 200 200 200 200 200 200 200 200 200 200 200 200 200 200 2-0 200 200 200 200 200 200 200 200 200 200 200 200 200 200 200 200 200 200 2-0 200 200 200 200 200 200 200 200 200 200 200 200 200 200 200 200 200 200 2-0 200 200 200 200 200 200 200 200 200 200 200 200 200 200 200 200 200 200 2-0 200 200 200 200 200 200 200 200 200 200 200 200 200 200 200 200 200 200 2-0 200 200 200 200 200 200 200 200 200 200 200 200 200 200 200 200 200 200 2-0 200 200 200 200 200 200 200 200 200 200 200 200 200 200 200 200 200 200 2-0 200 200 200 200 200 200 200 200 200 200 200 200 200 200 200 200 200 200 2-0 200 200 200 200 200 200 200 200 200 200 200 200 200 200 200 200 200 200 2-0 200 200 200 200 200 200 200 200 200 200 200 200 200 200 200 200 200 200 2-0 200 200 200 200 200 200 200 200 200 200 200 200 200 200 200 200 200 200 2-0 200 200 200 200 200 200 200 200 200 200 200 200 200 200 200 200 200 200 2-0 200 200 200 200 200 200 200 200 200 200 200 200 200 200 200 200 200 200 2-0 200 200 200 200 200 200 200 200 200 200 200 200 200 200 200 200 200 200 2-0 200 200 200 200 200 200 200 200 200 200 200 200 200 200 200 200 200 200 2-0 200 200 200 200 200 200 200 200 200 200 200 200 200 200 200 200 200 200 2-0 200 200 200 200 200 200 200 200 200 200 200 200 200 200 200 200 200 200 2-0 200 200 200 200 200 200 200 200 200 200 200 200 200 200 200 200 200 200 2-0 200 200 200 200 200 200 200 200 200 200 200 200 200 200 200 200 200 200 2-0 200 200 200 200 200 200 200 200 200 200 200 200 200 200 200 200 200 200 2-0 200 200 200 200 200 200 200 200 200 200 200 200 200 200 200 200 200 200 2-0 200 200 200 200 200 200 200 200 200 200 200 200 200 200 200 200 200 200 2-0 200 200 200 200 200 200 200 200 200 200 200 200 200 200 200 200 200 200 2-0 200 200 200 200 200 200 200 200 200 200 200 200 200 200 200 200 200 200 2-0 200 200 200 200 200 200 200 200 200 200 200 200 200 200 200 200 200 200 2-0 200 200 200 200 200 200 200 200 200 200 200 200 200 200 200 200 200 200 2-0 200 200 200 200 200 200 200 200 200 200 200 200 200 200 200 200 200 200 2-0 200 200 200 200 200 200 200 200 200 200 200 200 200 200 200 200 200 200 2-0 200 200 200 200 200 200 200 200 200 200 200 200 200 200 200 200 200 200 2-0 200 200 200 200 200 200 200 200 200 200 200 200 200 200 200 200 200 200 2-0 200 200 200 200 200 200 200 200 200 200 200 200 200 200 200 200 200 200 2-0 200 200 200 200 200 200 200 200 200 200 200 200 200 200 200 200 200 200 2-0 200 200 200 200 200 200 200 200 200 200 200 200 200 200 200 200 200 200 2-0 200 200 200 200 200 200 200 200 200 200 200 200 200 200 200 200 200 200 2-0 200 200 200 200 200 200 200 200 200 200 200 200 200 200 200 200 200 200 2-0 200 200 200 200 200 200 200 200 200 200 200 200 200 200 200 200 200 200 2-0 200 200 200 200 200 200 200 200 200 200 200 200 200 200 200 200 200 200 2-0 200 200 200 200 200 200 200 200 200 200 200 200 200 200 200 200 200 200 2-0 200 200 200 200 200 200 200 200 200 200 200 200 200 200 200 200 200 200 2-0 200 200 200 200 200 200 200 200 200 200 200 200 200 200 200 200 200 200 2-0 200 200 200 200 200 200 200 200 200 200 200 200 200 200 200 200 200 200 2-0 200 200 200 200 200 200 200 200 200 200 200 200 200 200 200 200 200 200 2-0 200 200 200 200 200 200 200 200 200 200 200 200 200 200 200 200 200 200 2-0 200 200 200 200 200 200 200 200 200 200 200 200 200 200 200 200 200 200 2-0 200 200 200 200 200 200 200 200 200 200 200 200 200 200 200 200 200 200 2-0 200 200 200 200 200 200 200 200 200 200 200 200 200 200 200 200 200 200 2-0 200 200 200 200 200 200 200 200 200 200 200 200 200 200 200 200 200 200 2-0 200 200 200 200 200 200 200 200 200 200 200 200 200 200 200 200 200 200 2-0 200 200 200 200 200 200 200 200 200 200 200 200 200 200 200 200 200 200 2-0 200 200 200 200 200 200 200 200 200 200 200 200 200 200 200 200 200 200 2-0 200 200 200 200 200 200 200 200 200 200 200 200 200 200 200 200 200 200 2-0 200 200 200 200 200 200 200 200 200 200 200 200 200 200 200 200 200 200 2-0 200 200 200 200 200 200 200 200 200 200 200 200 200 200 200 200 200 200 2-0 200 200 200 200 200 200 200 200 200 200 200 200 200 200 200 200 200 200 2-0 200 200 200 200 200 200 200 200 200 200 200 200 200 200 200 200 200 200 2-0 200 200 200 200 200 200 200 200 200 200 200 200 200 200 200 200 200 200 2-0 200 200 200 200 200 200 200 200 200 200 200 200 200 200 200 200 200 200 2-0 200 200 200 200 200 200 200 200 200 200 200 200 200 200 200 200 200 200 2-0 200 200 200 200 200 200 200 200 200 200 200 200 200 200 200 200 200 200 2-0 200 200 200 200 200 200 200 200 200 200 200 200 200 200 200 200 200 200 2-0 200 200 200 200 200 200 200 200 200 200 200 200 200 200 200 200 200 200 2-0 200 200 200 200 200 200 200 200 200 200 200 200 200 200 200 200 200 200 2-0 200 200 200 200 200 200 200 200 200 200 200 200 200 200 200 200 200 200 2-0 200 200 200 200 200 200 200 200 200 200 200 200 200 200 200 200 200 200 2-0 200 200 200 200 200 200 200 200 200 200 200 200 200 200 200 200 200 200 2-0 200 200 200 200 200 200 200 200 200 200 200 200 200 200 200 200 200 200 2-0 200 200 200 200 200 200 200 200 200 200 200 200 200 200 200 200 200 200 2-0 200 200 200 200 200 200 200 200 200 200 200 200 200 200 200 200 200 200 2-0 200 200 200 200 200 200 200 200 200 200 200 200 200 200 200 200 200 200 2-0 200 200 200 200 200 200 200 200 200 200 200 200 200 200 200 200 200 200 2-0 200 200 200 200 200 200 200 200 200 200 200 200 200 200 200 200 200 200 2-0 200 200 200 200 200 200 200 200 200 200 200 200 200 200 200 200 200 200 2-0 200 200 200 200 200 200 200 200 200 200 200 200 200 200 200 200 200 200 2-0 200 200 200 200 200 200 200 200 200 200 200 200 200 200 200 200 200 200 2-0 200 200 200 200 200 200 200 200 200 200 200 200 200 200 200 200 200 200 2-0 200 200 200 200 200 200 200 200 200 200 200 200 200 200 200 200 200 200 2-0 200 200 200 200 200 200 200 200 200 200 200 200 200 200 200 200 200 200 2-0 200 200 200 200 200 200 200 200 200 200 200 200 200 200 200 200 200 200 2-0 200 200 200 200 200 200 200 200 200 200 200 200 200 200 200 200 200 200 2-0 200 200 200 200 200 200 200 200 200 200 200 200 200 200 200 200 200 200 2-0 200 200 200 200 200 200 200 200 200 200 200 200 200 200 200 200 200 200 2-0 200 200 200 200 200 200 200 200 200 200 200 200 200 200 200 200 200 200 2-0 200 200 200 200 200 200 200 200 200 200 200 200 200 200 200 200 200 200 2-0 200 200 200 200 200 200 200 200 200 200 200 200 200 200 200 200 200 200 2-0 200 200 200 200 200 200 200 200 200 200 200 200 200 200 200 200 200 200 2-0 200 200 200 200 200 200 200 200 200 200 200 200 200 200 200 200 200 200 2-0 200 200 200 200 200 200 200 200 200 200 200 200 200 200 200 200 200 200 2-0 200 200 200 200 200 200 200 200 200 200 200 200 200 200 200 200 200 200 2-0 200 200 200 200 200 200 200 200 200 200 200 200 200 200 200 200 200 200 2-0 200 200 200 200 200 200 200 200 200 200 200 200 200 200 200 200 200 200 2-0 200 200 200 200 200 200 200 200 200 200 200 200 200 200 200 200 200 200 2-0 200 200 200 200 200 200 200 200 200 200 200 200 200 200 200 200 200 200 2-0 200 200 200 200 200 200 200 200 200 200 200 200 200 200 200 200 200 200 2-0 200 200 200 200 200 200 200 200 200 200 200 200 200 200 200 200 200 200 2-0 200 200 200 200 200 200 200 200 200 200 200 200 200 200 200 200 200 200 2-0 200 200 200 200 200 200 200 200 200 200 200 200 200 200 200 200 200 200 2-0 200 200 200 200 200 200 200 200 200 200 200 200 200 200 200 200 200 200 2-0 200 200 200 200 200 200 200 200 200 200 200 200 200 200 200 200 200 200 2-0 200 200 200 200 200 200 200 200 200 200 200 200 200 200 200 200 200 200 2-0 200 200 200 200 200 200 200 200 200 200 200 200 200 200 200 200 200 200 2-0 200 200 200 200 200 200 200 200 200 200 200 200 200 200 200 200 200 200 2-0 200 200 200 200 200 200 200 200 200 200 200 200 200 200 200 200 200 200 2-0 200 200 200 200 200 200 200 200 200 200 200 200 200 200 200 200 200 200 2-0 200 200 200 200 200 200 200 200 200 200 200 200 200 200 200 200 200 200 2-0 200 200 200 200 200 200 200 200 200 200 200 200 200 200 200 200 200 200 2-0 200 200 200 200 200 200 200 200 200 200 200 200 200 200 200 200 200 200 2-0 200 200 200 200 200 200 200 200 200 200 200 200 200 200 200 200 200 200 2-0 200 200 200 200 200 200 200 200 200 200 200 200 200 200 200 200 200 200 2-0 200 200 200 200 200 200 200 200 200 200 200 200 200 200 200 200 200 200 2-0 200 200 200 200 200 200 200 200 200 200 200 200 200 200 200 200 200 200 2-0 200 200 200 200 200 200 200 200 200 200 200 200 200 200 200 200 200 200 2-0 200 200 200 200 200 200 200 200 200 200 200 200 200 200 200 200 200 200 2-0 200 200 200 200 200 200 200 200 200 200 200 200 200 200 200 200 200 200 2-0 200 200 200 200 200 200 200 200 200 200 200 200 200 200 200 200 200 200 2-0 200 200 200 200 200 200 200 200 200 200 200 200 200 200 200 200 200 200 2-0 200 200 200 200 200 200 200 200 200 200 200 200 200 200 200 200 200 200 2-0 200 200 200 200 200 200 200 200 200 200 200 200 200 200 200 200 200 200 2-0 200 200 200 200 200 200 200 200 200 200 200 200 200 200 200 200 200 200 2-0 200 200 200 200 200 200 200 200 200 200 200 200 200 200 200 200 200 200 2-0 200 200 200 200 200 200 200 200 200 200 200 200 200 200 200 200 200 200 2-0 200 200 200 200 200 200 200 200 200 200 200 200 200 200 200 200 200 200 2-0 200 200 200 200 200 200 200 200 200 200 200 200 200 200 200 200 200 200 2-0 200 200 200 200 200 200 200 200 200 200 200 200 200 200 200 200 200 200 2-0 200 200 200 200 200 200 200 200 200 200 200 200 200 200 200 200 200 200 2-0 200 200 200 200 200 200 200 200 200 200 200 200 200 200 200 200 200 200 2-0 200 200 200 200 200 200 200 200 200 200 200 200 200 200 200 200 200 200 2-0 200 200 200 200 200 200 200 200 200 200 200 200 200 200 200 200 200 200 2-0 200 200 200 200 200 200 200 200 200 200 200 200 200 200 200 200 200 200 2-0 200 200 200 200 200 200 200 200 200 200 200 200 200 200 200 200 200 200 2-0 200 200 200 200 200 200 200 200 200 200 200 200 200 200 200 200 200 200 2-0 200 200 200 200 200 200 200 200 200 200 200 200 200 200 200 200 200 200 2-0 200 200 200 200 200 200 200 200 200 200 200 200 200 200 200 200 200 200 2-0 200 200 200 200 200 200 200 200 200 200 200 200 200 200 200 200 200 200 2-0 200 200 200 200 200 200 200 200 200 200 200 200 200 200 200 200 200 200 2-0 200 200 200 200 200 200 200 200 200 200 200 200 200 200 200 200 200 200 2-0 200 200 200 200 200 200 200 200 200 200 200 200 200 200 200 200 200 200 2-0 200 200 200 200 200 200 200 200 200 200 200 200 200 200 200 200 200 200 2-0 200 200 200 200 200 200 200 200 200 200 200 200 200 200 200 200 200 200 2-0 200 200 200 200 200 200 200 200 200 200 200 200 200 200 200 200 200 200 2-0 200 200 200 200 200 200 200 200 200 200 200 200 200 200 200 200 200 200 2-0 200 200 200 200 200 200 200 200 200 200 200 200 200 200 200 200 200 200 2-0 200 200 200 200 200 200 200 200 200 200 200 200 200 200 200 200 200 200 2-0 200 200 200 200 200 200 200 200 200 200 200 200 200 200 200 200 200 200 2-0 200 200 200 200 200 200 200 200 200 200 200 200 200 200 200 200 200 200 2-0 200 200 200 200 200 200 200 200 200 200 200 200 200 200 200 200 200 200 2-0 200 200 200 200 200 200 200 200 200 200 200 200 200 200 200 200 200 200 2-0 200 200 200 200 200 200 200 200 200 200 200 200 200 200 200 200 200 200 2-0 200 200 200 200 200 200 200 200 200 200 200 200 200 200 200 200 200 200 2-0 200 200 200 200 200 200 200 200 200 200 200 200 200 200 200 200 200 200 2-0 200 200 200 200 200 200 200 200 200 200 200 200 200 200 200 200 200 200 2-0 200 200 200 200 200 200 200 200 200 200 200 200 200 200 200 200 200 200 2-0 200 200 200 200 200 200 200 200 200 200 200 200 200 200 200 200 200 200 2-0 200 200 200 200 200 200 200 200 200 200 200 200 200 200 200 200 200 200 2-0 200 200 200 200 200 200 200 200 200 200 200 200 200 200 200 200 200 200 2-0 200 200 200 200 200 200 200 200 200 200 200 200 200 200 200 200 200 200 2-0 200 200 200 200 200 200 200 200 200 200 200 200 200 200 200 200 200 200 2-0 200 200 200 200 200 200 200 200 200 200 200 200 200 200 200 200 200 200 2-0 200 200 200 200 200 200 200 200 200 200 200 200 200 200 200 200 200 200 2-0 200 200 200 200 200 200 200 200 200 200 200 200 200 200 200 200 200 200 2-0 200 200 200 200 200 200 200 200 200 200 200 200 200 200 200 200 200 200 2-0 200 200 200 200 200 200 200 200 200 200 200 200 200 200 200 200 200 200 2-0 200 200 200 200 200 200 200 200 200 200 200 200 200 200 200 200 200 200 2-0 200 200 200 200 200 200 200 200 200 200 200 200 200 200 200 200 200 200 2-0 200 200 200 200 200 200 200 200 200 200 200 200 200 200 200 200 200 200 2-0 200 200 200 200 200 200 200 200 200 200 200 200 200 200 200 200 200 200 2-0 200 200 200 200 200 200 200 200 200 200 200 200 200 200 200 200 200 200 2-0 200 200 200 200 200 200 200 200 200 200 200 200 200 200 200 200 200 200 2-0 200 200 200 200 200 200 200 200 200 200 200 200 200 200 200 200 200 200 2-0 200 200 200 200 200 200 200 200 200 200 200 200 200 200 200 200 200 200 2-0 200 200 200 200 200 200 200 200 200 200 200 200 200 200 200 200 200 200 2-0 200 200 200 200 200 200 200 200 200 200 200 200 200 200 200 200 200 200 2-0 200 200 200 200 200 200 200 200 200 200 200 200 200 200 200 200 200 200 2-0 200 200 200 200 200 200 200 200 200 200 200 200 200 200 200 200 200 200 2-0 200 200 200 200 200 200 200 200 200 200 200 200 200 200 200 200 200 200 2-0 200 200 200 200 200 200 200 200 200 200 200 200 200 200 200 200 200 200 2-0 200 200 200 200 200 200 200 200 200 200 200 200 200 200 200 200 200 200 2-0 200 200 200 200 200 200 200 200 200 200 200 200 200 200 200 200 200 200 2-0 200 200 200 200 200 200 200 200 200 200 200 200 200 200 200 200 200 200 2-0 200 200 200 200 200 200 200 200 200 200 200 200 200 200 200 200 200 200 2-0 200 200 200 200 200 200 200 200 200 200 200 200 200 200 200 200 200 200 2-0 200 200 200 200 200 200 200 200 200 200 200 200 200 200 200 200 200 200 2-0 200 200 200 200 200 200 200 200 200 200 200 200 200 200 200 200 200 200 2-0 200 200 200 200 200 200 200 200 200 200 200 200 200 200 200 200 200 200 2-0 200 200 200 200 200 200 200 200 200 200 200 200 200 200 200 200 200 200 2-0 200 200 200 200 200 200 200 200 200 200 200 200 200 200 200 200 200 200 2-0 200 200 200 200 200 200 200 200 200 200 200 200 200 200 200 200 200 200 2-0 200 200 200 200 200 200 200 200 200 200 200 200 200 200 200 200 200 200 2-0 200 200 200 200 200 200 200 200 200 200 200 200 200 200 200 200 200 200 2-0 200 200 200 200 200 200 200 200 200 200 200 200 200 200 200 200 200 200 2-0 200 200 200 200 200 200 200 200 200 200 200 200 200 200 200 200 200 200 2-0 200 200 200 200 200 200 200 200 200 200 200 200 200 200 200 200 200 200 2-0 200 200 200 200 200 200 200 200 200 200 200 200 200 200 200 200 200 200 2-0 200 200 200 200 200 200 200 200 200 200 200 200 200 200 200 200 200 200 2-0 200 200 200 200 200 200 200 200 200 200 200 200 200 200 200 200 200 200 2-0 200 200 200 200 200 200 200 200 200 200 200 200 200 200 200 200 200 200 2-0 200 200 200 200 200 200 200 200 200 200 200 200 200 200 200 200 200 200 2-0 200 200 200 200 200 200 200 200 200 200 200 200 200 200 200 200 200 200 2-0 200 200 200 200 200 200 200 200 200 200 200 200 200 200 200 200 200 200 2-0 200 200 200 200 200 200 200 200 200 200 200 200 200 200 200 200 200 200 2-0 200 200 200 200 200 200 200 200 200 200 200 200 200 200 200 200 200 200 2-0 200 200 200 200 200 200 200 200 200 200 200 200 200 200 200 200 200 200 2-0 200 200 200 200 200 200 200 200 200 200 200 200 200 200 200 200 200 200 2-0 200 200 200 200 200 200 200 200 200 200 200 200 200 200 200 200 200 200 2-0 200 200 200 200 200 200 200 200 200 200 200 200 200 200 200 200 200 200 2-0 200 200 200 200 200 200 200 200 200 200 200 200 200 200 200 200 200 200 2-0 200 200 200 200 200 200 200 200 200 200 200 200 200 200 200 200 200 200 2-0 200 200 200 200 200 200 200 200 200 200 200 200 200 200 200 200 200 200 2-0 200 200 200 200 200 200 200 200 200 200 200 200 200 200 200 200 200 200 2-0 200 200 200 200 200 200 200 200 200 200 200 200 200 200 200 200 200 200 2-0 200 200 200 200 200 200 200 200 200 200 200 200 200 200 200 200 200 200 2-0 200 200 200 200 200 200 200 200 200 200 200 200 200 200 200 200 200 200 2-0 200 200 200 200 200 200 200 200 200 200 200 200 200 200 200 200 200 200 2-0 200 200 200 200 200 200 200 200 200 200 200 200 200 200 200 200 200 200 2-0 200 200 200 200 200 200 200 200 200 200 200 200 200 200 200 200 200 200 2-0 200 200 200 200 200 200 200 200 200 200 200 200 200 200 200 200 200 200 2-0 200 200 200 200 200 200 200 200 200 200 200 200 200 200 200 200 200 200 2-0 200 200 200 200 200 200 200 200 200 200 200 200 200 200 200 200 200 200 2-0 200 200 200 200 200 200 200 200 200 200 200 200 200 200 200 200 200 200 2-0 200 200 200 200 200 200 200 200 200 200 200 200 200 200 200 200 200 200 2-0 200 200 200 200 200 200 200 200 200 200 200 200 200 200 200 200 200 200 2-0 200 200 200 200 200 200 200 200 200 200 200 200 200 200 200 200 200 200 2-0 200 200 200 200 200 200 200 200 200 200 200 200 200 200 200 200 200 200 2-0 200 200 200 200 200 200 200 200 200 200 200 200 200 200 200 200 200 200 2-0 200 200 200 200 200 200 200 200 200 200 200 200 200 200 200 200 200 200 2-0 200 200 200 200 200 200 200 200 200 200 200 200 200 200 200 200 200 200 2-0 200 200 200 200 200 200 200 200 200 200 200 200 200 200 200 200 200 200 2-0 200 200 200 200 200 200 200 200 200 200 200 200 200 200 200 200 200 200 2-0 200 200 200 200 200 200 200 200 200 200 200 200 200 200 200 200 200 200 2-0 200 200 200 200 200 200 200 200 200 200 200 200 200 200 200 200 200 200 2-0 200 200 200 200 200 200 200 200 200 200 200 200 200 200 200 200 200 200 2-0 200 200 200 200 200 200 200 200 200 200 200 200 200 200 200 200 200 200 2-0 200 200 200 200 200 200 200 200 200 200 200 200 200 200 200 200 200 200 2-0 200 200 200 200 200 200 200 200 200 200 200 200 200 200 200 200 200 200 2-0 200 200 200 200 200 200 200 200 200 200 200 200 200 200 200 200 200 200 2-0 200 200 200 200 200 200 200 200 200 200 200 200 200 200 200 200 200 200 2-0 200 200 200 200 200 200 200 200 200 200 200 200 200 200 200 200 200 200 2-0 200 200 200 200 200 200 200 200 200 200 200 200 200 200 200 200 200 200 2-0 200 200 200 200 200 200 200 200 200 200 200 200 200 200 200 200 200 200 2-0 200 200 200 200 200 200 200 200 200 200 200 200 200 200 200 200 200 200 2-0 200 200 200 200 200 200 200 200 200 200 200 200 200 200 200 200 200 200 2-0 200 200 200 200 200 200 200 200 200 200 200 200 200 200 200 200 200 200 2-0 200 200 200 200 200 200 200 200 200 200 200 200 200 200 200 200 200 200 2-0 200 200 200 200 200 200 200 200 200 200 200 200 200 200 200 200 200 200 2-0 200 200 200 200 200 200 200 200 200 200 200 200 200 200 200 200 200 200 2-0 200 200 200 200 200 200 200 200 200 200 200 200 200 200 200 200 200 200 2-0 200 200 200 200 200 200 200 200 200 200 200 200 200 200 200 200 200 200 2-0 200 200 200 200 200 200 200 200 200 200 200 200 200 200 200 200 200 200 2-0 200 200 200 200 200 200 200 200 200 200 200 200 200 200 200 200 200 200 2-0 200 200 200 200 200 200 200 200 200 200 200 200 200 200 200 200 200 200 2-0 200 200 200 200 200 200 200 200 200 200 200 200 200 200 200 200 200 200 2-0 200 200 200 200 200 200 200 200 200 200 200 200 200 200 200 200 200 200 2-0 200 200 200 200 200 200 200 200 200 200 200 200 200 200 200 200 200 200 2-0 200 200 200 200 200 200 200 200 200 200 200 200 200 200 200 200 200 200 2-0 200 200 200 200 200 200 200 200 200 200 200 200 200 200 200 200 200 200 2-0 200 200 200 200 200 200 200 200 200 200 200 200 200 200 200 200 200 200 2-0 200 200 200 200 200 200 200 200 200 200 200 200 200 200 200 200 200 200 2-0 200 200 200 200 200 200 200 200 200 200 200 200 200 200 200 200 200 200 2-0 200 200 200 200 200 200 200 200 200 200 200 200 200 200 200 200 200 200 2-0 200 200 200 200 200 200 200 200 200 200 200 200 200 200 200 200 200 200 2-0 200 200 200 200 200 200 200 200 200 200 200 200 200 200 200 200 200 200 2-0 200 200 200 200 200 200 200 200 200 200 200 200 200 200 200 200 200 200 2-0 200 200 200 200 200 200 200 200 200 200 200 200 200 200 200 200 200 200 2-0 200 200 200 200 200 200 200 200 200 200 200 200 200 200 200 200 200 200 2-0 200 200 200 200 200 200 200 200 200 200 200 200 200 200 200 200 200 200 2-0 200 200 200 200 200 200 200 200 200 200 200 200 200 200 200 200 200 200 2-0 200 200 200 200 200 200 200 200 200 200 200 200 200 200 200 200 200 200 2-0 200 200 200 200 200 200 200 200 200 200 200 200 200 200 200 200 200 200 2-0 200 200 200 200 200 200 200 200 200 200 200 200 200 200 200 200 200 200 2-0 200 200 200 200 200 200 200 200 200 200 200 200 200 200 200 200 200 200 2-0 200 200 200 200 200 200 200 200 200 200 200 200 200 200 200 200 200 200 2-0 200 200 200 200 200 200 200 200 200 200 200 200 200 200 200 200 200 200 2-0 200 200 200 200 200 200 200 200 200 200 200 200 200 200 200 200 200 200 2-0 200 200 200 200 200 200 200 200 200 200 200 200 200 200 200 200 200 200 2-0 200 200 200 200 200 200 200 200 200 200 200 200 200 200 200 200 200 200 2-0 200 200 200 200 200 200 200 200 200 200 200 200 200 200 200 200 200 200 2-0 200 200 200 200 200 200 200 200 200 200 200 200 200 200 200 200 200 200 2-0 200 200 200 200 200 200 200 200 200 200 200 200 200 200 200 200 200 200 2-0 200 200 200 200 200 200 200 200 200 200 200 200 200 200 200 200 200 200 2-0 200 200 200 200 200 200 200 200 200 200 200 200 200 200 200 200 200 200 2-0 200 200 200 200 200 200 200 200 200 200 200 200 200 200 200 200 200 200 2-0 200 200 200 200 200 200 200 200 200 200 200 200 200 200 200 200 200 200 2-0 200 200 200 200 200 200 200 200 200 200 200 200 200 200 200 200 200 200 2-0 200 200 200 200 200 200 200 200 200 200 200 200 200 200 200 200 200 200 2-0 200 200 200 200 200 200 200 200 200 200 200 200 200 200 200 200 200 200 2-0 200 200 200 200 200 200 200 200 200 200 200 200 200 200 200 200 200 200 2-0 200 200 200 200 200 200 200 200 200 200 200 200 200 200 200 200 200 200 2-0 200 200 200 200 200 200 200 200 200 200 200 200 200 200 200 200 200 200 2-0 200 200 200 200 200 200 200 200 200 200 200 200 200 200 200 200 200 200 2-0 200 200 200 200 200 200 200 200 200 200 200 200 200 200 200 200 200 200 2-0 200 200 200 200 200 200 200 200 200 200 200 200 200 200 200 200 200 200 2-0 200 200 200 200 200 200 200 200 200 200 200 200 200 200 200 200 200 200 2-0 200 200 200 200 200 200 200 200 200 200 200 200 200 200 200 200 200 200 2-0 200 200 200 200 200 200 200 200 200 200 200 200 200 200 200 200 200 200 2-0 200 200 200 200 200 200 200 200 200 200 200 200 200 200 200 200 200 200 2-0 200 200 200 200 200 200 200 200 200 200 200 200 200 200 200 200 200 200 2-0 200 200 200 200 200 200 200 200 200 200 200 200 200 200 200 200 200 200 2-0 200 200 200 200 200 200 200 200 200 200 200 200 200 200 200 200 200 200 2-0 200 200 200 200 200 200 200 200 200 200 200 200 200 200 200 200 200 200 2-0 200 200 200 200 200 200 200 200 200 200 200 200 200 200 200 200 200 200 2-0 200 200 200 200 200 200 200 200 200 200 200 200 200 200 200 200 200 200 2-0 200 200 200 200 200 200 200 200 200 200 200 200 200 200 200 200 200 200 2-0 200 200 200 200 200 200 200 200 200 200 200 200 200 200 200 200 200 200 2-0 200 200 200 200 200 200 200 200 200 200 200 200 200 200 200 200 200 200 2-0 200 200 200 200 200 200 200 200 200 200 200 200 200 200 200 200 200 200 2-0 200 200 200 200 200 200 200 200 200 200 200 200 200 200 200 200 200 200 2-0 200 200 200 200 200 200 200 200 200 200 200 200 200 200 200 200 200 200 2-0 200 200 200 200 200 200 200 200 200 200 200 200 200 200 200 200 200 200 2-0 200 200 200 200 200 200 200 200 200 200 200 200 200 200 200 200 200 200 2-0 200 200 200 200 200 200 200 200 200 200 200 200 200 200 200 200 200 200 2-0 200 200 200 200 200 200 200 200 200 200 200 200 200 200 200 200 200 200 2-0 200 200 200 200 200 200 200 200 200 200 200 200 200 200 200 200 200 200 2-0 200 200 200 200 200 200 200 200 200 200 200 200 200 200 200 200 200 200 2-0 200 200 200 200 200 200 200 200 200 200 200 200 200 200 200 200 200 200 2-0 200 200 200 200 200 200 200 200 200 200 200 200 200 200 200 200 200 200 2-0 200 200 200 200 200 200 200 200 200 200 200 200 200 200 200 200 200 200 2-0 200 200 200 200 200 200 200 200 200 200 200 200 200 200 200 200 200 200 2-0 200 200 200 200 200 200 200 200 200 200 200 200 200 200 200 200 200 200 2-0 200 200 200 200 200 200 200 200 200 200 200 200 200 200 200 200 200 200 2-0 200 200 200 200 200 200 200 200 200 200 200 200 200 200 200 200 200 200 2-0 200 200 200 200 200 200 200 200 200 200 200 200 200 200 200 200 200 200 2-0 200 200 200 200 200 200 200 200 200 200 200 200 200 200 200 200 200 200 2-0 200 200 200 200 200 200 200 200 200 200 200 200 200 200 200 200 200 200 2-0 200 200 200 200 200 200 200 200 200 200 200 200 200 200 200 200 200 200 2-0 200 200 200 200 200 200 200 200 200 200 200 200 200 200 200 200 200 200 2-0 200 200 200 200 200 200 200 200 200 200 200 200 200 200 200 200 200 200 2-0 200 200 200 200 200 200 200 200 200 200 200 200 200 200 200 200 200 200 2-0 200 200 200 200 200 200 200 200 200 200 200 200 200 200 200 200 200 200 2-0 200 200 200 200 200 200 200 200 200 200 200 200 200 200 200 200 200 200 2-0 200 200 200 200 200 200 200 200 200 200 200 200 200 200 200 200 200 200 2-0 200 200 200 200 200 200 200 200 200 200 200 200 200 200 200 200 200 200 2-0 200 200 200 200 200 200 200 200 200 200 200 200 200 200 200 200 200 200 2-0 200 200 200 200 200 200 200 200 200 200 200 200 200 200 200 200 200 200 2-0 200 200 200 200 200 200 200 200 200 200 200 200 200 200 200 200 200 200 2-0 200 200 200 200 200 200 200 200 200 200 200 200 200 200 200 200 200 200 2-0 200 200 200 200 200 200 200 200 200 200 200 200 200 200 200 200 200 200 2-0 200 200 200 200 200 200 200 200 200 200 200 200 200 200 200 200 200 200 2-0 200 200 200 200 200 200 200 200 200 200 200 200 200 200 200 200 200 200 2-0 200 200 200 200 200 200 200 200 200 200 200 200 200 200 200 200 200 200 2-0 200 200 200 200 200 200 200 200 200 200 200 200 200 200 200 200 200 200 2-0 200 200 200 200 200 200 200 200 200 200 200 200 200 200 200 200 200 200 2-0 200 200 200 200 200 200 200 200 200 200 200 200 200 200 200 200 200 200 2-0 200 200 200 200 200 200 200 200 200 200 200 200 200 200 200 200 200 200 2-0 200 200 200 200 200 200 200 200 200 200 200 200 200 200 200 200 200 200 2-0 200 200 200 200 200 200 200 200 200 200 200 200 200 200 200 200 200 200 2-0 200 200 200 200 200 200 200 200 200 200 200 200 200 200 200 200 200 200 2-0 200 200 200 200 200 200 200 200 200 200 200 200 200 200 200 200 200 200 2-0 200 200 200 200 200 200 200 200 200 200 200 200 200 200 200 200 200 200 2-0 200 200 200 200 200 200 200 200 200 200 200 200 200 200 200 200 200 200 2-0 200 200 200 200 200 200 200 200 200 200 200 200 200 200 200 200 200 200 2-0 200 200 200 200 200 200 200 200 200 200 200 200 200 200 200 200 200 200 2-0 200 200 200 200 200 200 200 200 200 200 200 200 200 200 200 200 200 200 2-0 200 200 200 200 200 200 200 200 200 200 200 200 200 200 200 200 200 200 2-0 200 200 200 200 200 200 200 200 200 200 200 200 200 200 200 200 200 200 2-0 200 200 200 200 200 200 200 200 200 200 200 200 200 200 200 200 200 200 2-0 200 200 200 200 200 200 200 200 200 200 200 200 200 200 200 200 200 200 2-0 200 200 200 200 200 200 200 200 200 200 200 200 200 200 200 200 200 200 2-0 200 200 200 200 200 200 200 200 200 200 200 200 200 200 200 200 200 200 2-0 200 200 200 200 200 200 200 200 200 200 200 200 200 200 200 200 200 200 2-0 200 200 200 200 200 200 200 200 200 200 200 200 200 200 200 200 200 200 2-0 200 200 200 200 200 200 200 200 200 200 200 200 200 200 200 200 200 200 2-0 200 200 200 200 200 200 200 200 200 200 200 200 200 200 200 200 200 200 2-0 200 200 200 200 200 200 200 200 200 200 200 200 200 200 200 200 200 200 2-0 200 200 200 200 200 200 200 200 200 200 200 200 200 200 200 200 200 200 2-0 200 200 200 200 200 200 200 200 200 200 200 200 200 200 200 200 200 200 2-0 200 200 200 200 200 200 200 200 200 200 200 200 200 200 200 200 200 200 2-0 200 200 200 200 200 200 200 200 200 200 200 200 200 200 200 200 200 200 2-0 200 200 200 200 200 200 200 200 200 200 200 200 200 200 200 200 200 200 2-0 200 200 200 200 200 200 200 200 200 200 200 200 200 200 200 200 200 200 2-0 200 200 200 200 200 200 200 200 200 200 200 200 200 200 200 200 200 200 2-0 200 200 200 200 200 200 200 200 200 200 200 200 200 200 200 200 200 200 2-0 200 200 200 200 200 200 200 200 200 200 200 200 200 200 200 200 200 200 2-0 200 200 200 200 200 200 200 200 200 200 200 200 200 200 200 200 200 200 2-0 200 200 200 200 200 200 200 200 200 200 200 200 200 200 200 200 200 200 2-0 200 200 200 200 200 200 200 200 200 200 200 200 200 200 200 200 200 200 2-0 200 200 200 200 200 200 200 200 200 200 200 200 200 200 200 200 200 200 2-0 200 200 200 200 200 200 200 200 200 200 200 200 200 200 200 200 200 200 2-0 200 200 200 200 200 200 200 200 200 200 200 200 200 200 200 200 200 200 2-0 200 200 200 200 200 200 200 200 200 200 200 200 200 200 200 200 200 200 2-0 200 200 200 200 200 200 200 200 200 200 200 200 200 200 200 200 200 200 2-0 200 200 200 200 200 200 200 200 200 200 200 200 200 200 200 200 200 200 2-0 200 200 200 200 200 200 200 200 200 200 200 200 200 200 200 200 200 200 2-0 200 200 200 200 200 200 200 200 200 200 200 200 200 200 200 200 200 200 2-0 200 200 200 200 200 200 200 200 200 200 200 200 200 200 200 200 200 200 2-0 200 200 200 200 200 200 200 200 200 200 200 200 200 200 200 200 200 200 2-0 200 200 200 200 200 200 200 200 200 200 200 200 200 200 200 200 200 200 2-0 200 200 200 200 200 200 200 200 200 200 200 200 200 200 200 200 200 200 2-0 200 200 200 200 200 200 200 200 200 200 200 200 200 200 200 200 200 200 2-0 200 200 200 200 200 200 200 200 200 200 200 200 200 200 200 200 200 200 2-0 200 200 200 200 200 200 200 200 200 200 200 200 200 200 200 200 200 200 2-0 200 200 200 200 200 200 200 200 200 200 200 200 200 200 200 200 200 200 2-0 200 200 200 200 200 200 200 200 200 200 200 200 200 200 200 200 200 200 2-0 200 200 200 200 200 200 200 200 200 200 200 200 200 200 200 200 200 200 2-0 200 200 200 200 200 200 200 200 200 200 200 200 200 200 200 200 200 200 2-0 200 200 200 200 200 200 200 200 200 200 200 200 200 200 200 200 200 200 2-0 200 200 200 200 200 200 200 200 200 200 200 200 200 200 200 200 200 200 2-0 200 200 200 200 200 200 200 200 200 200 200 200 200 200 200 200 200 200 2-0 200 200 200 200 200 200 200 200 200 200 200 200 200 200 200 200 200 200 2-0 200 200 200 200 200 200 200 200 200 200 200 200 200 200 200 200 200 200 2-0 200 200 200 200 200 200 200 200 200 200 200 200 200 200 200 200 200 200 2-0 200 200 200 200 200 200 200 200 200 200 200 200 200 200 200 200 200 200 2-0 200 200 200 200 200 200 200 200 200 200 200 200 200 200 200 200 200 200 2-0 200 200 200 200 200 200 200 200 200 200 200 200 200 200 200 200 200 200 2-0 200 200 200 200 200 200 200 200 200 200 200 200 200 200 200 200 200 200 2-0 200 200 200 200 200 200 200 200 200 200 200 200 200 200 200 200 200 200 2-0 200 200 200 200 200 200 200 200 200 200 200 200 200 200 200 200 200 200 2-0 200 200 200 200 200 200 200 200 200 200 200 200 200 200 200 200 200 200 2-0 200 200 200 200 200 200 200 200 200 200 200 200 200 200 200 200 200 200 2-0 200 200 200 200 200 200 200 200 200 200 200 200 200 200 200 200 200 200 2-0 200 200 200 200 200 200 200 200 200 200 200 200 200 200 200 200 200 200 2-0 200 200 200 200 200 200 200 200 200 200 200 200 200 200 200 200 200 200 2-0 200 200 200 200 200 200 200 200 200 200 200 200 200 200 200 200 200 200 2-0 200 200 200 200 200 200 200 200 200 200 200 200 200 200 200 200 200 200 2-0 200 200 200 200 200 200 200 200 200 200 200 200 200 200 200 200 200 200 2-0 200 200 200 200 200 200 200 200 200 200 200 200 200 200 200 200 200 200 2-0 200 200 200 200 200 200 200 200 200 200 200 200 200 200 200 200 200 200 2-0 200 200 200 200 200 200 200 200 200 200 200 200 200 200 200 200 200 200 2-0 200 200 200 200 200 200 200 200 200 200 200 200 200 200 200 200 200 200 2-0 200 200 200 200 200 200 200 200 200 200 200 200 200 200 200 200 200 200 2-0 200 200 200 200 200 200 200 200 200 200 200 200 200 200 200 200 200 200 2-0 200 200 200 200 200 200 200 200 200 200 200 200 200 200 200 200 200 200 2-0 200 200 200 200 200 200 200 200 200 200 200 200 200 200 200 200 200 200 2-0 200 200 200 200 200 200 200 200 200 200 200 200 200 200 200 200 200 200 2-0 200 200 200 200 200 200 200 200 200 200 200 200 200 200 200 200 200 200 2-0 200 200 200 200 200 200 200 200 200 200 200 200 200 200 200 200 200 200 2-0 200 200 200 200 200 200 200 200 200 200 200 200 200 200 200 200 200 200 2-0 200 200 200 200 200 200 200 200 200 200 200 200 200 200 200 200 200 200 2-0 200 200 200 200 200 200 200 200 200 200 200 200 200 200 200 200 200 200 2-0 200 200 200 200 200 200 200 200 200 200 200 200 200 200 200 200 200 200 2-0 200 200 200 200 200 200 200 200 200 200 200 200 200 200 200 200 200 200 2-0 200 200 200 200 200 200 200 200 200 200 200 200 200 200 200 200 200 200 2-0 200 200 200 200 200 200 200 200 200 200 200 200 200 200 200 200 200 200 2-0 200 200 200 200 200 200 200 200 200 200 200 200 200 200 200 200 200 200 2-0 200 200 200 200 200 200 200 200 200 200 200 200 200 200 200 200 200 200 2-0 200 200 200 200 200 200 200 200 200 200 200 200 200 200 200 200 200 200 2-0 200 200 200 200 200 200 200 200 200 200 200 200 200 200 200 200 200 200 2-0 200 200 200 200 200 200 200 200 200 200 200 200 200 200 200 200 200 200 2-0 200 200 200 200 200 200 200 200 200 200 200 200 200 200 200 200 200 200 2-0 200 200 200 200 200 200 200 200 200 200 200 200 200 200 200 200 200 200 2-0 200 200 200 200 200 200 200 200 200 200 200 200 200 200 200 200 200 200 2-0 200 200 200 200 200 200 200 200 200 200 200 200 200 200 200 200 200 200 2-0 200 200 200 200 200 200 200 200 200 200 200 200 200 200 200 200 200 200 2-0 200 200 200 200 200 200 200 200 200 200 200 200 200 200 200 200 200 200 2-0 200 200 200 200 200 200 200 200 200 200 200 200 200 200 200 200 200 200 2-0 200 200 200 200 200 200 200 200 200 200 200 200 200 200 200 200 200 200 2-0 200 200 200 200 200 200 200 200 200 200 200 200 200 200 200 200 200 200 2-0 200 200 200 200 200 200 200 200 200 200 200 200 200 200 200 200 200 200 2-0 200 200 200 200 200 200 200 200 200 200 200 200 200 200 200 200 200 200 2-0 200 200 200 200 200 200 200 200 200 200 200 200 200 200 200 200 200 200 2-0 200 200 200 200 200 200 200 200 200 200 200 200 200 200 200 200 200 200 2-0 200 200 200 200 200 200 200 200 200 200 200 200 200 200 200 200 200 200 2-0 200 200 200 200 200 200 200 200 200 200 200 200 200 200 200 200 200 200 2-0 200 200 200 200 200 200 200 200 200 200 200 200 200 200 200 200 200 200 2-0 200 200 200 200 200 200 200 200 200 200 200 200 200 200 200 200 200 200 2-0 200 200 200 200 200 200 200 200 200 200 200 200 200 200 200 200 200 200 2-0 200 200 200 200 200 200 200 200 200 200 200 200 200 200 200 200 200 200 2-0 200 200 200 200 200 200 200 200 200 200 200 200 200 200 200 200 200 200 2-0 200 200 200 200 200 200 200 200 200 200 200 200 200 200 200 200 200 200 2-0 200 200 200 200 200 200 200 200 200 200 200 200 200 200 200 200 200 200 2-0 200 200 200 200 200 200 200 200 200 200 200 200 200 200 200 200 200 200 2-0 200 200 200 200 200 200 200 200 200 200 200 200 200 200 200 200 200 200 2-0 200 200 200 200 200 200 200 200 200 200 200 200 200 200 200 200 200 200 2-0 200 200 200 200 200 200 200 200 200 200 200 200 200 200 200 200 200 200 2-0 200 200 200 200 200 200 200 200 200 200 200 200 200 200 200 200 200 200 2-0 200 200 200 200 200 200 200 200 200 200 200 200 200 200 200 200 200 200 2-0 200 200 200 200 200 200 200 200 200 200 200 200 200 200 200 200 200 200 2-0 200 200 200 200 200 200 200 200 200 200 200 200 200 200 200 200 200 200 2-0 200 200 200 200 200 200 200 200 200 200 200 200 200 200 200 200 200 200 2-0 200 200 200 200 200 200 200 200 200 200 200 200 200 200 200 200 200 200 2-0 200 200 200 200 200 200 200 200 200 200 200 200 200 200 200 200 200 200 2-0 200 200 200 200 200 200 200 200 200 200 200 200 200 200 200 200 200 200 2-0 200 200 200 200 200 200 200 200 200 200 200 200 200 200 200 200 200 200 2-0 200 200 200 200 200 200 200 200 200 200 200 200 200 200 200 200 200 200 2-0 200 200 200 200 200 200 200 200 200 200 200 200 200 200 200 200 200 200 2-0 200 200 200 200 200 200 200 200 200 200 200 200 200 200 200 200 200 200 2-0 200 200
