P3
8 8
255
173 216 230 173 216 230 173 216 230 173 216 230 173 216 230 173 216 230 173 216 230 173 216 230
173 216 230 173 216 230 173 216 230 173 216 230 173 216 230 173 216 230 173 216 230 173 216 230
173 216 230 173 216 230 173 216 230 173 216 230 173 216 230 173 216 230 173 216 230 173 216 230
173 216 230 173 216 230 173 216 230 173 216 230 173 216 230 173 216 230 173 216 230 173 216 230
173 216 230 173 216 230 173 216 230 173 216 230 173 216 230 173 216 230 173 216 230 173 216 230
173 216 230 173 216 230 173 216 230 173 216 230 173 216 230 173 216 230 173 216 230 173 216 230
173 216 230 173 216 230 173 216 230 173 216 230 173 216 230 173 216 230 173 216 230 173 216 230
173 216 230 173 216 230 173 216 230 173 216 230 173 216 230 173 216 230 173 216 230 173 216 230
