P3
32 32
255
100 100 255 100 100 255 100 100 255 100 100 255 100 100 255 100 100 255 100 100 255 100 100 255
100 100 255 100 100 255 100 100 255 100 100 255 100 100 255 100 100 255 100 100 255 100 100 255
100 100 255 100 100 255 100 100 255 100 100 255 100 100 255 100 100 255 100 100 255 100 100 255
100 100 255 100 100 255 100 100 255 100 100 255 100 100 255 100 100 255 100 100 255 100 100 255
100 100 255 100 100 255 100 100 255 100 100 255 100 100 255 100 100 255 100 100 255 100 100 255
100 100 255 100 100 255 100 100 255 100 100 255 100 100 255 100 100 255 100 100 255 100 100 255
100 100 255 100 100 255 100 100 255 100 100 255 100 100 255 100 100 255 100 100 255 100 100 255
100 100 255 100 100 255 100 100 255 100 100 255 100 100 255 100 100 255 100 100 255 100 100 255
100 100 255 100 100 255 100 100 255 100 100 255 100 100 255 100 100 255 100 100 255 100 100 255
100 100 255 100 100 255 100 100 255 100 100 255 100 100 255 100 100 255 100 100 255 100 100 255
100 100 255 100 100 255 100 100 255 100 100 255 100 100 255 100 100 255 100 100 255 100 100 255
100 100 255 100 100 255 100 100 255 100 100 255 100 100 255 100 100 255 100 100 255 100 100 255
100 100 255 100 100 255 100 100 255 100 100 255 100 100 255 100 100 255 100 100 255 100 100 255
100 100 255 100 100 255 100 100 255 100 100 255 100 100 255 100 100 255 100 100 255 100 100 255
100 100 255 100 100 255 100 100 255 100 100 255 100 100 255 100 100 255 100 100 255 100 100 255
100 100 255 100 100 255 100 100 255 100 100 255 100 100 255 100 100 255 100 100 255 100 100 255
100 100 255 100 100 255 100 100 255 100 100 255 100 100 255 100 100 255 100 100 255 100 100 255
100 100 255 100 100 255 100 100 255 100 100 255 100 100 255 100 100 255 100 100 255 100 100 255
100 100 255 100 100 255 100 100 255 100 100 255 100 100 255 100 100 255 100 100 255 100 100 255
100 100 255 100 100 255 100 100 255 100 100 255 100 100 255 100 100 255 100 100 255 100 100 255
100 100 255 100 100 255 100 100 255 100 100 255 100 100 255 100 100 255 100 100 255 100 100 255
100 100 255 100 100 255 100 100 255 100 100 255 100 100 255 100 100 255 100 100 255 100 100 255
100 100 255 100 100 255 100 100 255 100 100 255 100 100 255 100 100 255 100 100 255 100 100 255
100 100 255 100 100 255 100 100 255 100 100 255 100 100 255 100 100 255 100 100 255 100 100 255
100 100 255 100 100 255 100 100 255 100 100 255 100 100 255 100 100 255 100 100 255 100 100 255
100 100 255 100 100 255 100 100 255 100 100 255 100 100 255 100 100 255 100 100 255 100 100 255
100 100 255 100 100 255 100 100 255 100 100 255 100 100 255 100 100 255 100 100 255 100 100 255
100 100 255 100 100 255 100 100 255 100 100 255 100 100 255 100 100 255 100 100 255 100 100 255
100 100 255 100 100 255 100 100 255 100 100 255 100 100 255 100 100 255 100 100 255 100 100 255
100 100 255 100 100 255 100 100 255 100 100 255 100 100 255 100 100 255 100 100 255 100 100 255
100 100 255 100 100 255 100 100 255 100 100 255 100 100 255 100 100 255 100 100 255 100 100 255
100 100 255 100 100 255 100 100 255 100 100 255 100 100 255 100 100 255 100 100 255 100 100 255
100 100 255 100 100 255 100 100 255 100 100 255 100 100 255 100 100 255 100 100 255 100 100 255
100 100 255 100 100 255 100 100 255 100 100 255 100 100 255 100 100 255 100 100 255 100 100 255
100 100 255 100 100 255 100 100 255 100 100 255 100 100 255 100 100 255 100 100 255 100 100 255
100 100 255 100 100 255 100 100 255 100 100 255 100 100 255 100 100 255 100 100 255 100 100 255
100 100 255 100 100 255 100 100 255 100 100 255 100 100 255 100 100 255 100 100 255 100 100 255
100 100 255 100 100 255 100 100 255 100 100 255 100 100 255 100 100 255 100 100 255 100 100 255
100 100 255 100 100 255 100 100 255 100 100 255 100 100 255 100 100 255 100 100 255 100 100 255
100 100 255 100 100 255 100 100 255 100 100 255 100 100 255 100 100 255 100 100 255 100 100 255
100 100 255 100 100 255 100 100 255 100 100 255 100 100 255 100 100 255 100 100 255 100 100 255
100 100 255 100 100 255 100 100 255 100 100 255 100 100 255 100 100 255 100 100 255 100 100 255
100 100 255 100 100 255 100 100 255 100 100 255 100 100 255 100 100 255 100 100 255 100 100 255
100 100 255 100 100 255 100 100 255 100 100 255 100 100 255 100 100 255 100 100 255 100 100 255
100 100 255 100 100 255 100 100 255 100 100 255 100 100 255 100 100 255 100 100 255 100 100 255
100 100 255 100 100 255 100 100 255 100 100 255 100 100 255 100 100 255 100 100 255 100 100 255
100 100 255 100 100 255 100 100 255 100 100 255 100 100 255 100 100 255 100 100 255 100 100 255
100 100 255 100 100 255 100 100 255 100 100 255 100 100 255 100 100 255 100 100 255 100 100 255
100 100 255 100 100 255 100 100 255 100 100 255 100 100 255 100 100 255 100 100 255 100 100 255
100 100 255 100 100 255 100 100 255 100 100 255 100 100 255 100 100 255 100 100 255 100 100 255
100 100 255 100 100 255 100 100 255 100 100 255 100 100 255 100 100 255 100 100 255 100 100 255
100 100 255 100 100 255 100 100 255 100 100 255 100 100 255 100 100 255 100 100 255 100 100 255
100 100 255 100 100 255 100 100 255 100 100 255 100 100 255 100 100 255 100 100 255 100 100 255
100 100 255 100 100 255 100 100 255 100 100 255 100 100 255 100 100 255 100 100 255 100 100 255
100 100 255 100 100 255 100 100 255 100 100 255 100 100 255 100 100 255 100 100 255 100 100 255
100 100 255 100 100 255 100 100 255 100 100 255 100 100 255 100 100 255 100 100 255 100 100 255
100 100 255 100 100 255 100 100 255 100 100 255 100 100 255 100 100 255 100 100 255 100 100 255
100 100 255 100 100 255 100 100 255 100 100 255 100 100 255 100 100 255 100 100 255 100 100 255
100 100 255 100 100 255 100 100 255 100 100 255 100 100 255 100 100 255 100 100 255 100 100 255
100 100 255 100 100 255 100 100 255 100 100 255 100 100 255 100 100 255 100 100 255 100 100 255
100 100 255 100 100 255 100 100 255 100 100 255 100 100 255 100 100 255 100 100 255 100 100 255
100 100 255 100 100 255 100 100 255 100 100 255 100 100 255 100 100 255 100 100 255 100 100 255
100 100 255 100 100 255 100 100 255 100 100 255 100 100 255 100 100 255 100 100 255 100 100 255
100 100 255 100 100 255 100 100 255 100 100 255 100 100 255 100 100 255 100 100 255 100 100 255
100 100 255 100 100 255 100 100 255 100 100 255 100 100 255 100 100 255 100 100 255 100 100 255
100 100 255 100 100 255 100 100 255 100 100 255 100 100 255 100 100 255 100 100 255 100 100 255
100 100 255 100 100 255 100 100 255 100 100 255 100 100 255 100 100 255 100 100 255 100 100 255
100 100 255 100 100 255 100 100 255 100 100 255 100 100 255 100 100 255 100 100 255 100 100 255
100 100 255 100 100 255 100 100 255 100 100 255 100 100 255 100 100 255 100 100 255 100 100 255
100 100 255 100 100 255 100 100 255 100 100 255 100 100 255 100 100 255 100 100 255 100 100 255
100 100 255 100 100 255 100 100 255 100 100 255 100 100 255 100 100 255 100 100 255 100 100 255
100 100 255 100 100 255 100 100 255 100 100 255 100 100 255 100 100 255 100 100 255 100 100 255
100 100 255 100 100 255 100 100 255 100 100 255 100 100 255 100 100 255 100 100 255 100 100 255
100 100 255 100 100 255 100 100 255 100 100 255 100 100 255 100 100 255 100 100 255 100 100 255
100 100 255 100 100 255 100 100 255 100 100 255 100 100 255 100 100 255 100 100 255 100 100 255
100 100 255 100 100 255 100 100 255 100 100 255 100 100 255 100 100 255 100 100 255 100 100 255
100 100 255 100 100 255 100 100 255 100 100 255 100 100 255 100 100 255 100 100 255 100 100 255
100 100 255 100 100 255 100 100 255 100 100 255 100 100 255 100 100 255 100 100 255 100 100 255
100 100 255 100 100 255 100 100 255 100 100 255 100 100 255 100 100 255 100 100 255 100 100 255
100 100 255 100 100 255 100 100 255 100 100 255 100 100 255 100 100 255 100 100 255 100 100 255
100 100 255 100 100 255 100 100 255 100 100 255 100 100 255 100 100 255 100 100 255 100 100 255
100 100 255 100 100 255 100 100 255 100 100 255 100 100 255 100 100 255 100 100 255 100 100 255
100 100 255 100 100 255 100 100 255 100 100 255 100 100 255 100 100 255 100 100 255 100 100 255
100 100 255 100 100 255 100 100 255 100 100 255 100 100 255 100 100 255 100 100 255 100 100 255
100 100 255 100 100 255 100 100 255 100 100 255 100 100 255 100 100 255 100 100 255 100 100 255
100 100 255 100 100 255 100 100 255 100 100 255 100 100 255 100 100 255 100 100 255 100 100 255
100 100 255 100 100 255 100 100 255 100 100 255 100 100 255 100 100 255 100 100 255 100 100 255
100 100 255 100 100 255 100 100 255 100 100 255 100 100 255 100 100 255 100 100 255 100 100 255
100 100 255 100 100 255 100 100 255 100 100 255 100 100 255 100 100 255 100 100 255 100 100 255
100 100 255 100 100 255 100 100 255 100 100 255 100 100 255 100 100 255 100 100 255 100 100 255
100 100 255 100 100 255 100 100 255 100 100 255 100 100 255 100 100 255 100 100 255 100 100 255
100 100 255 100 100 255 100 100 255 100 100 255 100 100 255 100 100 255 100 100 255 100 100 255
100 100 255 100 100 255 100 100 255 100 100 255 100 100 255 100 100 255 100 100 255 100 100 255
100 100 255 100 100 255 100 100 255 100 100 255 100 100 255 100 100 255 100 100 255 100 100 255
100 100 255 100 100 255 100 100 255 100 100 255 100 100 255 100 100 255 100 100 255 100 100 255
100 100 255 100 100 255 100 100 255 100 100 255 100 100 255 100 100 255 100 100 255 100 100 255
100 100 255 100 100 255 100 100 255 100 100 255 100 100 255 100 100 255 100 100 255 100 100 255
100 100 255 100 100 255 100 100 255 100 100 255 100 100 255 100 100 255 100 100 255 100 100 255
100 100 255 100 100 255 100 100 255 100 100 255 100 100 255 100 100 255 100 100 255 100 100 255
100 100 255 100 100 255 100 100 255 100 100 255 100 100 255 100 100 255 100 100 255 100 100 255
100 100 255 100 100 255 100 100 255 100 100 255 100 100 255 100 100 255 100 100 255 100 100 255
100 100 255 100 100 255 100 100 255 100 100 255 100 100 255 100 100 255 100 100 255 100 100 255
100 100 255 100 100 255 100 100 255 100 100 255 100 100 255 100 100 255 100 100 255 100 100 255
100 100 255 100 100 255 100 100 255 100 100 255 100 100 255 100 100 255 100 100 255 100 100 255
100 100 255 100 100 255 100 100 255 100 100 255 100 100 255 100 100 255 100 100 255 100 100 255
100 100 255 100 100 255 100 100 255 100 100 255 100 100 255 100 100 255 100 100 255 100 100 255
100 100 255 100 100 255 100 100 255 100 100 255 100 100 255 100 100 255 100 100 255 100 100 255
100 100 255 100 100 255 100 100 255 100 100 255 100 100 255 100 100 255 100 100 255 100 100 255
100 100 255 100 100 255 100 100 255 100 100 255 100 100 255 100 100 255 100 100 255 100 100 255
100 100 255 100 100 255 100 100 255 100 100 255 100 100 255 100 100 255 100 100 255 100 100 255
100 100 255 100 100 255 100 100 255 100 100 255 100 100 255 100 100 255 100 100 255 100 100 255
100 100 255 100 100 255 100 100 255 100 100 255 100 100 255 100 100 255 100 100 255 100 100 255
100 100 255 100 100 255 100 100 255 100 100 255 100 100 255 100 100 255 100 100 255 100 100 255
100 100 255 100 100 255 100 100 255 100 100 255 100 100 255 100 100 255 100 100 255 100 100 255
100 100 255 100 100 255 100 100 255 100 100 255 100 100 255 100 100 255 100 100 255 100 100 255
100 100 255 100 100 255 100 100 255 100 100 255 100 100 255 100 100 255 100 100 255 100 100 255
100 100 255 100 100 255 100 100 255 100 100 255 100 100 255 100 100 255 100 100 255 100 100 255
100 100 255 100 100 255 100 100 255 100 100 255 100 100 255 100 100 255 100 100 255 100 100 255
100 100 255 100 100 255 100 100 255 100 100 255 100 100 255 100 100 255 100 100 255 100 100 255
100 100 255 100 100 255 100 100 255 100 100 255 100 100 255 100 100 255 100 100 255 100 100 255
100 100 255 100 100 255 100 100 255 100 100 255 100 100 255 100 100 255 100 100 255 100 100 255
100 100 255 100 100 255 100 100 255 100 100 255 100 100 255 100 100 255 100 100 255 100 100 255
100 100 255 100 100 255 100 100 255 100 100 255 100 100 255 100 100 255 100 100 255 100 100 255
100 100 255 100 100 255 100 100 255 100 100 255 100 100 255 100 100 255 100 100 255 100 100 255
100 100 255 100 100 255 100 100 255 100 100 255 100 100 255 100 100 255 100 100 255 100 100 255
100 100 255 100 100 255 100 100 255 100 100 255 100 100 255 100 100 255 100 100 255 100 100 255
100 100 255 100 100 255 100 100 255 100 100 255 100 100 255 100 100 255 100 100 255 100 100 255
100 100 255 100 100 255 100 100 255 100 100 255 100 100 255 100 100 255 100 100 255 100 100 255
100 100 255 100 100 255 100 100 255 100 100 255 100 100 255 100 100 255 100 100 255 100 100 255
100 100 255 100 100 255 100 100 255 100 100 255 100 100 255 100 100 255 100 100 255 100 100 255
100 100 255 100 100 255 100 100 255 100 100 255 100 100 255 100 100 255 100 100 255 100 100 255
100 100 255 100 100 255 100 100 255 100 100 255 100 100 255 100 100 255 100 100 255 100 100 255
100 100 255 100 100 255 100 100 255 100 100 255 100 100 255 100 100 255 100 100 255 100 100 255
100 100 255 100 100 255 100 100 255 100 100 255 100 100 255 100 100 255 100 100 255 100 100 255
100 100 255 100 100 255 100 100 255 100 100 255 100 100 255 100 100 255 100 100 255 100 100 255
100 100 255 100 100 255 100 100 255 100 100 255 100 100 255 100 100 255 100 100 255 100 100 255
100 100 255 100 100 255 100 100 255 100 100 255 100 100 255 100 100 255 100 100 255 100 100 255
100 100 255 100 100 255 100 100 255 100 100 255 100 100 255 100 100 255 100 100 255 100 100 255
100 100 255 100 100 255 100 100 255 100 100 255 100 100 255 100 100 255 100 100 255 100 100 255
100 100 255 100 100 255 100 100 255 100 100 255 100 100 255 100 100 255 100 100 255 100 100 255
100 100 255 100 100 255 100 100 255 100 100 255 100 100 255 100 100 255 100 100 255 100 100 255
100 100 255 100 100 255 100 100 255 100 100 255 100 100 255 100 100 255 100 100 255 100 100 255
100 100 255 100 100 255 100 100 255 100 100 255 100 100 255 100 100 255 100 100 255 100 100 255
100 100 255 100 100 255 100 100 255 100 100 255 100 100 255 100 100 255 100 100 255 100 100 255
100 100 255 100 100 255 100 100 255 100 100 255 100 100 255 100 100 255 100 100 255 100 100 255
100 100 255 100 100 255 100 100 255 100 100 255 100 100 255 100 100 255 100 100 255 100 100 255
100 100 255 100 100 255 100 100 255 100 100 255 100 100 255 100 100 255 100 100 255 100 100 255
100 100 255 100 100 255 100 100 255 100 100 255 100 100 255 100 100 255 100 100 255 100 100 255
100 100 255 100 100 255 100 100 255 100 100 255 100 100 255 100 100 255 100 100 255 100 100 255
100 100 255 100 100 255 100 100 255 100 100 255 100 100 255 100 100 255 100 100 255 100 100 255
100 100 255 100 100 255 100 100 255 100 100 255 100 100 255 100 100 255 100 100 255 100 100 255
100 100 255 100 100 255 100 100 255 100 100 255 100 100 255 100 100 255 100 100 255 100 100 255
100 100 255 100 100 255 100 100 255 100 100 255 100 100 255 100 100 255 100 100 255 100 100 255
100 100 255 100 100 255 100 100 255 100 100 255 100 100 255 100 100 255 100 100 255 100 100 255
100 100 255 100 100 255 100 100 255 100 100 255 100 100 255 100 100 255 100 100 255 100 100 255
100 100 255 100 100 255 100 100 255 100 100 255 100 100 255 100 100 255 100 100 255 100 100 255
100 100 255 100 100 255 100 100 255 100 100 255 100 100 255 100 100 255 100 100 255 100 100 255
100 100 255 100 100 255 100 100 255 100 100 255 100 100 255 100 100 255 100 100 255 100 100 255
100 100 255 100 100 255 100 100 255 100 100 255 100 100 255 100 100 255 100 100 255 100 100 255
100 100 255 100 100 255 100 100 255 100 100 255 100 100 255 100 100 255 100 100 255 100 100 255
100 100 255 100 100 255 100 100 255 100 100 255 100 100 255 100 100 255 100 100 255 100 100 255
100 100 255 100 100 255 100 100 255 100 100 255 100 100 255 100 100 255 100 100 255 100 100 255
100 100 255 100 100 255 100 100 255 100 100 255 100 100 255 100 100 255 100 100 255 100 100 255
100 100 255 100 100 255 100 100 255 100 100 255 100 100 255 100 100 255 100 100 255 100 100 255
100 100 255 100 100 255 100 100 255 100 100 255 100 100 255 100 100 255 100 100 255 100 100 255
100 100 255 100 100 255 100 100 255 100 100 255 100 100 255 100 100 255 100 100 255 100 100 255
100 100 255 100 100 255 100 100 255 100 100 255 100 100 255 100 100 255 100 100 255 100 100 255
100 100 255 100 100 255 100 100 255 100 100 255 100 100 255 100 100 255 100 100 255 100 100 255
100 100 255 100 100 255 100 100 255 100 100 255 100 100 255 100 100 255 100 100 255 100 100 255
100 100 255 100 100 255 100 100 255 100 100 255 100 100 255 100 100 255 100 100 255 100 100 255
100 100 255 100 100 255 100 100 255 100 100 255 100 100 255 100 100 255 100 100 255 100 100 255
100 100 255 100 100 255 100 100 255 100 100 255 100 100 255 100 100 255 100 100 255 100 100 255
100 100 255 100 100 255 100 100 255 100 100 255 100 100 255 100 100 255 100 100 255 100 100 255
100 100 255 100 100 255 100 100 255 100 100 255 100 100 255 100 100 255 100 100 255 100 100 255
100 100 255 100 100 255 100 100 255 100 100 255 100 100 255 100 100 255 100 100 255 100 100 255
100 100 255 100 100 255 100 100 255 100 100 255 100 100 255 100 100 255 100 100 255 100 100 255
100 100 255 100 100 255 100 100 255 100 100 255 100 100 255 100 100 255 100 100 255 100 100 255
100 100 255 100 100 255 100 100 255 100 100 255 100 100 255 100 100 255 100 100 255 100 100 255
100 100 255 100 100 255 100 100 255 100 100 255 100 100 255 100 100 255 100 100 255 100 100 255
100 100 255 100 100 255 100 100 255 100 100 255 100 100 255 100 100 255 100 100 255 100 100 255
100 100 255 100 100 255 100 100 255 100 100 255 100 100 255 100 100 255 100 100 255 100 100 255
100 100 255 100 100 255 100 100 255 100 100 255 100 100 255 100 100 255 100 100 255 100 100 255
100 100 255 100 100 255 100 100 255 100 100 255 100 100 255 100 100 255 100 100 255 100 100 255
100 100 255 100 100 255 100 100 255 100 100 255 100 100 255 100 100 255 100 100 255 100 100 255
100 100 255 100 100 255 100 100 255 100 100 255 100 100 255 100 100 255 100 100 255 100 100 255
100 100 255 100 100 255 100 100 255 100 100 255 100 100 255 100 100 255 100 100 255 100 100 255
100 100 255 100 100 255 100 100 255 100 100 255 100 100 255 100 100 255 100 100 255 100 100 255
100 100 255 100 100 255 100 100 255 100 100 255 100 100 255 100 100 255 100 100 255 100 100 255
100 100 255 100 100 255 100 100 255 100 100 255 100 100 255 100 100 255 100 100 255 100 100 255
100 100 255 100 100 255 100 100 255 100 100 255 100 100 255 100 100 255 100 100 255 100 100 255
100 100 255 100 100 255 100 100 255 100 100 255 100 100 255 100 100 255 100 100 255 100 100 255
100 100 255 100 100 255 100 100 255 100 100 255 100 100 255 100 100 255 100 100 255 100 100 255
100 100 255 100 100 255 100 100 255 100 100 255 100 100 255 100 100 255 100 100 255 100 100 255
100 100 255 100 100 255 100 100 255 100 100 255 100 100 255 100 100 255 100 100 255 100 100 255
100 100 255 100 100 255 100 100 255 100 100 255 100 100 255 100 100 255 100 100 255 100 100 255
100 100 255 100 100 255 100 100 255 100 100 255 100 100 255 100 100 255 100 100 255 100 100 255
100 100 255 100 100 255 100 100 255 100 100 255 100 100 255 100 100 255 100 100 255 100 100 255
100 100 255 100 100 255 100 100 255 100 100 255 100 100 255 100 100 255 100 100 255 100 100 255
100 100 255 100 100 255 100 100 255 100 100 255 100 100 255 100 100 255 100 100 255 100 100 255
100 100 255 100 100 255 100 100 255 100 100 255 100 100 255 100 100 255 100 100 255 100 100 255
100 100 255 100 100 255 100 100 255 100 100 255 100 100 255 100 100 255 100 100 255 100 100 255
100 100 255 100 100 255 100 100 255 100 100 255 100 100 255 100 100 255 100 100 255 100 100 255
100 100 255 100 100 255 100 100 255 100 100 255 100 100 255 100 100 255 100 100 255 100 100 255
100 100 255 100 100 255 100 100 255 100 100 255 100 100 255 100 100 255 100 100 255 100 100 255
100 100 255 100 100 255 100 100 255 100 100 255 100 100 255 100 100 255 100 100 255 100 100 255
100 100 255 100 100 255 100 100 255 100 100 255 100 100 255 100 100 255 100 100 255 100 100 255
100 100 255 100 100 255 100 100 255 100 100 255 100 100 255 100 100 255 100 100 255 100 100 255
100 100 255 100 100 255 100 100 255 100 100 255 100 100 255 100 100 255 100 100 255 100 100 255
100 100 255 100 100 255 100 100 255 100 100 255 100 100 255 100 100 255 100 100 255 100 100 255
100 100 255 100 100 255 100 100 255 100 100 255 100 100 255 100 100 255 100 100 255 100 100 255
100 100 255 100 100 255 100 100 255 100 100 255 100 100 255 100 100 255 100 100 255 100 100 255
100 100 255 100 100 255 100 100 255 100 100 255 100 100 255 100 100 255 100 100 255 100 100 255
100 100 255 100 100 255 100 100 255 100 100 255 100 100 255 100 100 255 100 100 255 100 100 255
100 100 255 100 100 255 100 100 255 100 100 255 100 100 255 100 100 255 100 100 255 100 100 255
100 100 255 100 100 255 100 100 255 100 100 255 100 100 255 100 100 255 100 100 255 100 100 255
100 100 255 100 100 255 100 100 255 100 100 255 100 100 255 100 100 255 100 100 255 100 100 255
100 100 255 100 100 255 100 100 255 100 100 255 100 100 255 100 100 255 100 100 255 100 100 255
100 100 255 100 100 255 100 100 255 100 100 255 100 100 255 100 100 255 100 100 255 100 100 255
100 100 255 100 100 255 100 100 255 100 100 255 100 100 255 100 100 255 100 100 255 100 100 255
100 100 255 100 100 255 100 100 255 100 100 255 100 100 255 100 100 255 100 100 255 100 100 255
100 100 255 100 100 255 100 100 255 100 100 255 100 100 255 100 100 255 100 100 255 100 100 255
100 100 255 100 100 255 100 100 255 100 100 255 100 100 255 100 100 255 100 100 255 100 100 255
100 100 255 100 100 255 100 100 255 100 100 255 100 100 255 100 100 255 100 100 255 100 100 255
100 100 255 100 100 255 100 100 255 100 100 255 100 100 255 100 100 255 100 100 255 100 100 255
100 100 255 100 100 255 100 100 255 100 100 255 100 100 255 100 100 255 100 100 255 100 100 255
100 100 255 100 100 255 100 100 255 100 100 255 100 100 255 100 100 255 100 100 255 100 100 255
100 100 255 100 100 255 100 100 255 100 100 255 100 100 255 100 100 255 100 100 255 100 100 255
100 100 255 100 100 255 100 100 255 100 100 255 100 100 255 100 100 255 100 100 255 100 100 255
100 100 255 100 100 255 100 100 255 100 100 255 100 100 255 100 100 255 100 100 255 100 100 255
100 100 255 100 100 255 100 100 255 100 100 255 100 100 255 100 100 255 100 100 255 100 100 255
100 100 255 100 100 255 100 100 255 100 100 255 100 100 255 100 100 255 100 100 255 100 100 255
100 100 255 100 100 255 100 100 255 100 100 255 100 100 255 100 100 255 100 100 255 100 100 255
100 100 255 100 100 255 100 100 255 100 100 255 100 100 255 100 100 255 100 100 255 100 100 255
100 100 255 100 100 255 100 100 255 100 100 255 100 100 255 100 100 255 100 100 255 100 100 255
100 100 255 100 100 255 100 100 255 100 100 255 100 100 255 100 100 255 100 100 255 100 100 255
100 100 255 100 100 255 100 100 255 100 100 255 100 100 255 100 100 255 100 100 255 100 100 255
100 100 255 100 100 255 100 100 255 100 100 255 100 100 255 100 100 255 100 100 255 100 100 255
100 100 255 100 100 255 100 100 255 100 100 255 100 100 255 100 100 255 100 100 255 100 100 255
100 100 255 100 100 255 100 100 255 100 100 255 100 100 255 100 100 255 100 100 255 100 100 255
100 100 255 100 100 255 100 100 255 100 100 255 100 100 255 100 100 255 100 100 255 100 100 255
100 100 255 100 100 255 100 100 255 100 100 255 100 100 255 100 100 255 100 100 255 100 100 255
100 100 255 100 100 255 100 100 255 100 100 255 100 100 255 100 100 255 100 100 255 100 100 255
100 100 255 100 100 255 100 100 255 100 100 255 100 100 255 100 100 255 100 100 255 100 100 255
100 100 255 100 100 255 100 100 255 100 100 255 100 100 255 100 100 255 100 100 255 100 100 255
100 100 255 100 100 255 100 100 255 100 100 255 100 100 255 100 100 255 100 100 255 100 100 255
100 100 255 100 100 255 100 100 255 100 100 255 100 100 255 100 100 255 100 100 255 100 100 255
100 100 255 100 100 255 100 100 255 100 100 255 100 100 255 100 100 255 100 100 255 100 100 255
100 100 255 100 100 255 100 100 255 100 100 255 100 100 255 100 100 255 100 100 255 100 100 255
100 100 255 100 100 255 100 100 255 100 100 255 100 100 255 100 100 255 100 100 255 100 100 255
100 100 255 100 100 255 100 100 255 100 100 255 100 100 255 100 100 255 100 100 255 100 100 255
100 100 255 100 100 255 100 100 255 100 100 255 100 100 255 100 100 255 100 100 255 100 100 255
100 100 255 100 100 255 100 100 255 100 100 255 100 100 255 100 100 255 100 100 255 100 100 255
100 100 255 100 100 255 100 100 255 100 100 255 100 100 255 100 100 255 100 100 255 100 100 255
100 100 255 100 100 255 100 100 255 100 100 255 100 100 255 100 100 255 100 100 255 100 100 255
100 100 255 100 100 255 100 100 255 100 100 255 100 100 255 100 100 255 100 100 255 100 100 255
100 100 255 100 100 255 100 100 255 100 100 255 100 100 255 100 100 255 100 100 255 100 100 255
100 100 255 100 100 255 100 100 255 100 100 255 100 100 255 100 100 255 100 100 255 100 100 255
100 100 255 100 100 255 100 100 255 100 100 255 100 100 255 100 100 255 100 100 255 100 100 255
100 100 255 100 100 255 100 100 255 100 100 255 100 100 255 100 100 255 100 100 255 100 100 255
100 100 255 100 100 255 100 100 255 100 100 255 100 100 255 100 100 255 100 100 255 100 100 255
100 100 255 100 100 255 100 100 255 100 100 255 100 100 255 100 100 255 100 100 255 100 100 255
100 100 255 100 100 255 100 100 255 100 100 255 100 100 255 100 100 255 100 100 255 100 100 255
100 100 255 100 100 255 100 100 255 100 100 255 100 100 255 100 100 255 100 100 255 100 100 255
100 100 255 100 100 255 100 100 255 100 100 255 100 100 255 100 100 255 100 100 255 100 100 255
100 100 255 100 100 255 100 100 255 100 100 255 100 100 255 100 100 255 100 100 255 100 100 255
100 100 255 100 100 255 100 100 255 100 100 255 100 100 255 100 100 255 100 100 255 100 100 255
100 100 255 100 100 255 100 100 255 100 100 255 100 100 255 100 100 255 100 100 255 100 100 255
100 100 255 100 100 255 100 100 255 100 100 255 100 100 255 100 100 255 100 100 255 100 100 255
100 100 255 100 100 255 100 100 255 100 100 255 100 100 255 100 100 255 100 100 255 100 100 255
100 100 255 100 100 255 100 100 255 100 100 255 100 100 255 100 100 255 100 100 255 100 100 255
100 100 255 100 100 255 100 100 255 100 100 255 100 100 255 100 100 255 100 100 255 100 100 255
100 100 255 100 100 255 100 100 255 100 100 255 100 100 255 100 100 255 100 100 255 100 100 255
100 100 255 100 100 255 100 100 255 100 100 255 100 100 255 100 100 255 100 100 255 100 100 255
100 100 255 100 100 255 100 100 255 100 100 255 100 100 255 100 100 255 100 100 255 100 100 255
100 100 255 100 100 255 100 100 255 100 100 255 100 100 255 100 100 255 100 100 255 100 100 255
100 100 255 100 100 255 100 100 255 100 100 255 100 100 255 100 100 255 100 100 255 100 100 255
100 100 255 100 100 255 100 100 255 100 100 255 100 100 255 100 100 255 100 100 255 100 100 255
100 100 255 100 100 255 100 100 255 100 100 255 100 100 255 100 100 255 100 100 255 100 100 255
100 100 255 100 100 255 100 100 255 100 100 255 100 100 255 100 100 255 100 100 255 100 100 255
100 100 255 100 100 255 100 100 255 100 100 255 100 100 255 100 100 255 100 100 255 100 100 255
100 100 255 100 100 255 100 100 255 100 100 255 100 100 255 100 100 255 100 100 255 100 100 255
100 100 255 100 100 255 100 100 255 100 100 255 100 100 255 100 100 255 100 100 255 100 100 255
100 100 255 100 100 255 100 100 255 100 100 255 100 100 255 100 100 255 100 100 255 100 100 255
100 100 255 100 100 255 100 100 255 100 100 255 100 100 255 100 100 255 100 100 255 100 100 255
100 100 255 100 100 255 100 100 255 100 100 255 100 100 255 100 100 255 100 100 255 100 100 255
100 100 255 100 100 255 100 100 255 100 100 255 100 100 255 100 100 255 100 100 255 100 100 255
100 100 255 100 100 255 100 100 255 100 100 255 100 100 255 100 100 255 100 100 255 100 100 255
100 100 255 100 100 255 100 100 255 100 100 255 100 100 255 100 100 255 100 100 255 100 100 255
100 100 255 100 100 255 100 100 255 100 100 255 100 100 255 100 100 255 100 100 255 100 100 255
100 100 255 100 100 255 100 100 255 100 100 255 100 100 255 100 100 255 100 100 255 100 100 255
100 100 255 100 100 255 100 100 255 100 100 255 100 100 255 100 100 255 100 100 255 100 100 255
100 100 255 100 100 255 100 100 255 100 100 255 100 100 255 100 100 255 100 100 255 100 100 255
100 100 255 100 100 255 100 100 255 100 100 255 100 100 255 100 100 255 100 100 255 100 100 255
100 100 255 100 100 255 100 100 255 100 100 255 100 100 255 100 100 255 100 100 255 100 100 255
100 100 255 100 100 255 100 100 255 100 100 255 100 100 255 100 100 255 100 100 255 100 100 255
100 100 255 100 100 255 100 100 255 100 100 255 100 100 255 100 100 255 100 100 255 100 100 255
100 100 255 100 100 255 100 100 255 100 100 255 100 100 255 100 100 255 100 100 255 100 100 255
100 100 255 100 100 255 100 100 255 100 100 255 100 100 255 100 100 255 100 100 255 100 100 255
100 100 255 100 100 255 100 100 255 100 100 255 100 100 255 100 100 255 100 100 255 100 100 255
100 100 255 100 100 255 100 100 255 100 100 255 100 100 255 100 100 255 100 100 255 100 100 255
100 100 255 100 100 255 100 100 255 100 100 255 100 100 255 100 100 255 100 100 255 100 100 255
100 100 255 100 100 255 100 100 255 100 100 255 100 100 255 100 100 255 100 100 255 100 100 255
100 100 255 100 100 255 100 100 255 100 100 255 100 100 255 100 100 255 100 100 255 100 100 255
100 100 255 100 100 255 100 100 255 100 100 255 100 100 255 100 100 255 100 100 255 100 100 255
100 100 255 100 100 255 100 100 255 100 100 255 100 100 255 100 100 255 100 100 255 100 100 255
100 100 255 100 100 255 100 100 255 100 100 255 100 100 255 100 100 255 100 100 255 100 100 255
100 100 255 100 100 255 100 100 255 100 100 255 100 100 255 100 100 255 100 100 255 100 100 255
100 100 255 100 100 255 100 100 255 100 100 255 100 100 255 100 100 255 100 100 255 100 100 255
100 100 255 100 100 255 100 100 255 100 100 255 100 100 255 100 100 255 100 100 255 100 100 255
100 100 255 100 100 255 100 100 255 100 100 255 100 100 255 100 100 255 100 100 255 100 100 255
100 100 255 100 100 255 100 100 255 100 100 255 100 100 255 100 100 255 100 100 255 100 100 255
100 100 255 100 100 255 100 100 255 100 100 255 100 100 255 100 100 255 100 100 255 100 100 255
100 100 255 100 100 255 100 100 255 100 100 255 100 100 255 100 100 255 100 100 255 100 100 255
100 100 255 100 100 255 100 100 255 100 100 255 100 100 255 100 100 255 100 100 255 100 100 255
100 100 255 100 100 255 100 100 255 100 100 255 100 100 255 100 100 255 100 100 255 100 100 255
100 100 255 100 100 255 100 100 255 100 100 255 100 100 255 100 100 255 100 100 255 100 100 255
100 100 255 100 100 255 100 100 255 100 100 255 100 100 255 100 100 255 100 100 255 100 100 255
100 100 255 100 100 255 100 100 255 100 100 255 100 100 255 100 100 255 100 100 255 100 100 255
100 100 255 100 100 255 100 100 255 100 100 255 100 100 255 100 100 255 100 100 255 100 100 255
100 100 255 100 100 255 100 100 255 100 100 255 100 100 255 100 100 255 100 100 255 100 100 255
100 100 255 100 100 255 100 100 255 100 100 255 100 100 255 100 100 255 100 100 255 100 100 255
100 100 255 100 100 255 100 100 255 100 100 255 100 100 255 100 100 255 100 100 255 100 100 255
100 100 255 100 100 255 100 100 255 100 100 255 100 100 255 100 100 255 100 100 255 100 100 255
100 100 255 100 100 255 100 100 255 100 100 255 100 100 255 100 100 255 100 100 255 100 100 255
100 100 255 100 100 255 100 100 255 100 100 255 100 100 255 100 100 255 100 100 255 100 100 255
100 100 255 100 100 255 100 100 255 100 100 255 100 100 255 100 100 255 100 100 255 100 100 255
100 100 255 100 100 255 100 100 255 100 100 255 100 100 255 100 100 255 100 100 255 100 100 255
100 100 255 100 100 255 100 100 255 100 100 255 100 100 255 100 100 255 100 100 255 100 100 255
100 100 255 100 100 255 100 100 255 100 100 255 100 100 255 100 100 255 100 100 255 100 100 255
100 100 255 100 100 255 100 100 255 100 100 255 100 100 255 100 100 255 100 100 255 100 100 255
100 100 255 100 100 255 100 100 255 100 100 255 100 100 255 100 100 255 100 100 255 100 100 255
100 100 255 100 100 255 100 100 255 100 100 255 100 100 255 100 100 255 100 100 255 100 100 255
100 100 255 100 100 255 100 100 255 100 100 255 100 100 255 100 100 255 100 100 255 100 100 255
100 100 255 100 100 255 100 100 255 100 100 255 100 100 255 100 100 255 100 100 255 100 100 255
100 100 255 100 100 255 100 100 255 100 100 255 100 100 255 100 100 255 100 100 255 100 100 255
100 100 255 100 100 255 100 100 255 100 100 255 100 100 255 100 100 255 100 100 255 100 100 255
100 100 255 100 100 255 100 100 255 100 100 255 100 100 255 100 100 255 100 100 255 100 100 255
100 100 255 100 100 255 100 100 255 100 100 255 100 100 255 100 100 255 100 100 255 100 100 255
100 100 255 100 100 255 100 100 255 100 100 255 100 100 255 100 100 255 100 100 255 100 100 255
100 100 255 100 100 255 100 100 255 100 100 255 100 100 255 100 100 255 100 100 255 100 100 255
100 100 255 100 100 255 100 100 255 100 100 255 100 100 255 100 100 255 100 100 255 100 100 255
100 100 255 100 100 255 100 100 255 100 100 255 100 100 255 100 100 255 100 100 255 100 100 255
100 100 255 100 100 255 100 100 255 100 100 255 100 100 255 100 100 255 100 100 255 100 100 255
100 100 255 100 100 255 100 100 255 100 100 255 100 100 255 100 100 255 100 100 255 100 100 255
100 100 255 100 100 255 100 100 255 100 100 255 100 100 255 100 100 255 100 100 255 100 100 255
100 100 255 100 100 255 100 100 255 100 100 255 100 100 255 100 100 255 100 100 255 100 100 255
100 100 255 100 100 255 100 100 255 100 100 255 100 100 255 100 100 255 100 100 255 100 100 255
100 100 255 100 100 255 100 100 255 100 100 255 100 100 255 100 100 255 100 100 255 100 100 255
100 100 255 100 100 255 100 100 255 100 100 255 100 100 255 100 100 255 100 100 255 100 100 255
100 100 255 100 100 255 100 100 255 100 100 255 100 100 255 100 100 255 100 100 255 100 100 255
100 100 255 100 100 255 100 100 255 100 100 255 100 100 255 100 100 255 100 100 255 100 100 255
100 100 255 100 100 255 100 100 255 100 100 255 100 100 255 100 100 255 100 100 255 100 100 255
100 100 255 100 100 255 100 100 255 100 100 255 100 100 255 100 100 255 100 100 255 100 100 255
100 100 255 100 100 255 100 100 255 100 100 255 100 100 255 100 100 255 100 100 255 100 100 255
100 100 255 100 100 255 100 100 255 100 100 255 100 100 255 100 100 255 100 100 255 100 100 255
100 100 255 100 100 255 100 100 255 100 100 255 100 100 255 100 100 255 100 100 255 100 100 255
100 100 255 100 100 255 100 100 255 100 100 255 100 100 255 100 100 255 100 100 255 100 100 255
100 100 255 100 100 255 100 100 255 100 100 255 100 100 255 100 100 255 100 100 255 100 100 255
100 100 255 100 100 255 100 100 255 100 100 255 100 100 255 100 100 255 100 100 255 100 100 255
100 100 255 100 100 255 100 100 255 100 100 255 100 100 255 100 100 255 100 100 255 100 100 255
100 100 255 100 100 255 100 100 255 100 100 255 100 100 255 100 100 255 100 100 255 100 100 255
100 100 255 100 100 255 100 100 255 100 100 255 100 100 255 100 100 255 100 100 255 100 100 255
100 100 255 100 100 255 100 100 255 100 100 255 100 100 255 100 100 255 100 100 255 100 100 255
100 100 255 100 100 255 100 100 255 100 100 255 100 100 255 100 100 255 100 100 255 100 100 255
100 100 255 100 100 255 100 100 255 100 100 255 100 100 255 100 100 255 100 100 255 100 100 255
100 100 255 100 100 255 100 100 255 100 100 255 100 100 255 100 100 255 100 100 255 100 100 255
100 100 255 100 100 255 100 100 255 100 100 255 100 100 255 100 100 255 100 100 255 100 100 255
100 100 255 100 100 255 100 100 255 100 100 255 100 100 255 100 100 255 100 100 255 100 100 255
100 100 255 100 100 255 100 100 255 100 100 255 100 100 255 100 100 255 100 100 255 100 100 255
100 100 255 100 100 255 100 100 255 100 100 255 100 100 255 100 100 255 100 100 255 100 100 255
100 100 255 100 100 255 100 100 255 100 100 255 100 100 255 100 100 255 100 100 255 100 100 255
100 100 255 100 100 255 100 100 255 100 100 255 100 100 255 100 100 255 100 100 255 100 100 255
100 100 255 100 100 255 100 100 255 100 100 255 100 100 255 100 100 255 100 100 255 100 100 255
100 100 255 100 100 255 100 100 255 100 100 255 100 100 255 100 100 255 100 100 255 100 100 255
100 100 255 100 100 255 100 100 255 100 100 255 100 100 255 100 100 255 100 100 255 100 100 255
100 100 255 100 100 255 100 100 255 100 100 255 100 100 255 100 100 255 100 100 255 100 100 255
100 100 255 100 100 255 100 100 255 100 100 255 100 100 255 100 100 255 100 100 255 100 100 255
100 100 255 100 100 255 100 100 255 100 100 255 100 100 255 100 100 255 100 100 255 100 100 255
100 100 255 100 100 255 100 100 255 100 100 255 100 100 255 100 100 255 100 100 255 100 100 255
100 100 255 100 100 255 100 100 255 100 100 255 100 100 255 100 100 255 100 100 255 100 100 255
100 100 255 100 100 255 100 100 255 100 100 255 100 100 255 100 100 255 100 100 255 100 100 255
100 100 255 100 100 255 100 100 255 100 100 255 100 100 255 100 100 255 100 100 255 100 100 255
100 100 255 100 100 255 100 100 255 100 100 255 100 100 255 100 100 255 100 100 255 100 100 255
100 100 255 100 100 255 100 100 255 100 100 255 100 100 255 100 100 255 100 100 255 100 100 255
100 100 255 100 100 255 100 100 255 100 100 255 100 100 255 100 100 255 100 100 255 100 100 255
100 100 255 100 100 255 100 100 255 100 100 255 100 100 255 100 100 255 100 100 255 100 100 255
100 100 255 100 100 255 100 100 255 100 100 255 100 100 255 100 100 255 100 100 255 100 100 255
100 100 255 100 100 255 100 100 255 100 100 255 100 100 255 100 100 255 100 100 255 100 100 255
100 100 255 100 100 255 100 100 255 100 100 255 100 100 255 100 100 255 100 100 255 100 100 255
100 100 255 100 100 255 100 100 255 100 100 255 100 100 255 100 100 255 100 100 255 100 100 255
100 100 255 100 100 255 100 100 255 100 100 255 100 100 255 100 100 255 100 100 255 100 100 255
100 100 255 100 100 255 100 100 255 100 100 255 100 100 255 100 100 255 100 100 255 100 100 255
100 100 255 100 100 255 100 100 255 100 100 255 100 100 255 100 100 255 100 100 255 100 100 255
100 100 255 100 100 255 100 100 255 100 100 255 100 100 255 100 100 255 100 100 255 100 100 255
100 100 255 100 100 255 100 100 255 100 100 255 100 100 255 100 100 255 100 100 255 100 100 255
100 100 255 100 100 255 100 100 255 100 100 255 100 100 255 100 100 255 100 100 255 100 100 255
100 100 255 100 100 255 100 100 255 100 100 255 100 100 255 100 100 255 100 100 255 100 100 255
100 100 255 100 100 255 100 100 255 100 100 255 100 100 255 100 100 255 100 100 255 100 100 255
100 100 255 100 100 255 100 100 255 100 100 255 100 100 255 100 100 255 100 100 255 100 100 255
100 100 255 100 100 255 100 100 255 100 100 255 100 100 255 100 100 255 100 100 255 100 100 255
100 100 255 100 100 255 100 100 255 100 100 255 100 100 255 100 100 255 100 100 255 100 100 255
100 100 255 100 100 255 100 100 255 100 100 255 100 100 255 100 100 255 100 100 255 100 100 255
100 100 255 100 100 255 100 100 255 100 100 255 100 100 255 100 100 255 100 100 255 100 100 255
100 100 255 100 100 255 100 100 255 100 100 255 100 100 255 100 100 255 100 100 255 100 100 255
100 100 255 100 100 255 100 100 255 100 100 255 100 100 255 100 100 255 100 100 255 100 100 255
100 100 255 100 100 255 100 100 255 100 100 255 100 100 255 100 100 255 100 100 255 100 100 255
100 100 255 100 100 255 100 100 255 100 100 255 100 100 255 100 100 255 100 100 255 100 100 255
100 100 255 100 100 255 100 100 255 100 100 255 100 100 255 100 100 255 100 100 255 100 100 255
100 100 255 100 100 255 100 100 255 100 100 255 100 100 255 100 100 255 100 100 255 100 100 255
100 100 255 100 100 255 100 100 255 100 100 255 100 100 255 100 100 255 100 100 255 100 100 255
100 100 255 100 100 255 100 100 255 100 100 255 100 100 255 100 100 255 100 100 255 100 100 255
100 100 255 100 100 255 100 100 255 100 100 255 100 100 255 100 100 255 100 100 255 100 100 255
100 100 255 100 100 255 100 100 255 100 100 255 100 100 255 100 100 255 100 100 255 100 100 255
100 100 255 100 100 255 100 100 255 100 100 255 100 100 255 100 100 255 100 100 255 100 100 255
100 100 255 100 100 255 100 100 255 100 100 255 100 100 255 100 100 255 100 100 255 100 100 255
100 100 255 100 100 255 100 100 255 100 100 255 100 100 255 100 100 255 100 100 255 100 100 255
100 100 255 100 100 255 100 100 255 100 100 255 100 100 255 100 100 255 100 100 255 100 100 255
100 100 255 100 100 255 100 100 255 100 100 255 100 100 255 100 100 255 100 100 255 100 100 255
100 100 255 100 100 255 100 100 255 100 100 255 100 100 255 100 100 255 100 100 255 100 100 255
100 100 255 100 100 255 100 100 255 100 100 255 100 100 255 100 100 255 100 100 255 100 100 255
100 100 255 100 100 255 100 100 255 100 100 255 100 100 255 100 100 255 100 100 255 100 100 255
100 100 255 100 100 255 100 100 255 100 100 255 100 100 255 100 100 255 100 100 255 100 100 255
100 100 255 100 100 255 100 100 255 100 100 255 100 100 255 100 100 255 100 100 255 100 100 255
100 100 255 100 100 255 100 100 255 100 100 255 100 100 255 100 100 255 100 100 255 100 100 255
100 100 255 100 100 255 100 100 255 100 100 255 100 100 255 100 100 255 100 100 255 100 100 255
100 100 255 100 100 255 100 100 255 100 100 255 100 100 255 100 100 255 100 100 255 100 100 255
100 100 255 100 100 255 100 100 255 100 100 255 100 100 255 100 100 255 100 100 255 100 100 255
100 100 255 100 100 255 100 100 255 100 100 255 100 100 255 100 100 255 100 100 255 100 100 255
100 100 255 100 100 255 100 100 255 100 100 255 100 100 255 100 100 255 100 100 255 100 100 255
100 100 255 100 100 255 100 100 255 100 100 255 100 100 255 100 100 255 100 100 255 100 100 255
100 100 255 100 100 255 100 100 255 100 100 255 100 100 255 100 100 255 100 100 255 100 100 255
100 100 255 100 100 255 100 100 255 100 100 255 100 100 255 100 100 255 100 100 255 100 100 255
100 100 255 100 100 255 100 100 255 100 100 255 100 100 255 100 100 255 100 100 255 100 100 255
100 100 255 100 100 255 100 100 255 100 100 255 100 100 255 100 100 255 100 100 255 100 100 255
100 100 255 100 100 255 100 100 255 100 100 255 100 100 255 100 100 255 100 100 255 100 100 255
100 100 255 100 100 255 100 100 255 100 100 255 100 100 255 100 100 255 100 100 255 100 100 255
100 100 255 100 100 255 100 100 255 100 100 255 100 100 255 100 100 255 100 100 255 100 100 255
100 100 255 100 100 255 100 100 255 100 100 255 100 100 255 100 100 255 100 100 255 100 100 255
100 100 255 100 100 255 100 100 255 100 100 255 100 100 255 100 100 255 100 100 255 100 100 255
100 100 255 100 100 255 100 100 255 100 100 255 100 100 255 100 100 255 100 100 255 100 100 255
100 100 255 100 100 255 100 100 255 100 100 255 100 100 255 100 100 255 100 100 255 100 100 255
100 100 255 100 100 255 100 100 255 100 100 255 100 100 255 100 100 255 100 100 255 100 100 255
100 100 255 100 100 255 100 100 255 100 100 255 100 100 255 100 100 255 100 100 255 100 100 255
100 100 255 100 100 255 100 100 255 100 100 255 100 100 255 100 100 255 100 100 255 100 100 255
100 100 255 100 100 255 100 100 255 100 100 255 100 100 255 100 100 255 100 100 255 100 100 255
100 100 255 100 100 255 100 100 255 100 100 255 100 100 255 100 100 255 100 100 255 100 100 255
100 100 255 100 100 255 100 100 255 100 100 255 100 100 255 100 100 255 100 100 255 100 100 255
100 100 255 100 100 255 100 100 255 100 100 255 100 100 255 100 100 255 100 100 255 100 100 255
100 100 255 100 100 255 100 100 255 100 100 255 100 100 255 100 100 255 100 100 255 100 100 255
100 100 255 100 100 255 100 100 255 100 100 255 100 100 255 100 100 255 100 100 255 100 100 255
100 100 255 100 100 255 100 100 255 100 100 255 100 100 255 100 100 255 100 100 255 100 100 255
100 100 255 100 100 255 100 100 255 100 100 255 100 100 255 100 100 255 100 100 255 100 100 255
100 100 255 100 100 255 100 100 255 100 100 255 100 100 255 100 100 255 100 100 255 100 100 255
100 100 255 100 100 255 100 100 255 100 100 255 100 100 255 100 100 255 100 100 255 100 100 255
100 100 255 100 100 255 100 100 255 100 100 255 100 100 255 100 100 255 100 100 255 100 100 255
100 100 255 100 100 255 100 100 255 100 100 255 100 100 255 100 100 255 100 100 255 100 100 255
100 100 255 100 100 255 100 100 255 100 100 255 100 100 255 100 100 255 100 100 255 100 100 255
100 100 255 100 100 255 100 100 255 100 100 255 100 100 255 100 100 255 100 100 255 100 100 255
100 100 255 100 100 255 100 100 255 100 100 255 100 100 255 100 100 255 100 100 255 100 100 255
100 100 255 100 100 255 100 100 255 100 100 255 100 100 255 100 100 255 100 100 255 100 100 255
100 100 255 100 100 255 100 100 255 100 100 255 100 100 255 100 100 255 100 100 255 100 100 255
100 100 255 100 100 255 100 100 255 100 100 255 100 100 255 100 100 255 100 100 255 100 100 255
100 100 255 100 100 255 100 100 255 100 100 255 100 100 255 100 100 255 100 100 255 100 100 255
100 100 255 100 100 255 100 100 255 100 100 255 100 100 255 100 100 255 100 100 255 100 100 255
100 100 255 100 100 255 100 100 255 100 100 255 100 100 255 100 100 255 100 100 255 100 100 255
100 100 255 100 100 255 100 100 255 100 100 255 100 100 255 100 100 255 100 100 255 100 100 255
100 100 255 100 100 255 100 100 255 100 100 255 100 100 255 100 100 255 100 100 255 100 100 255
100 100 255 100 100 255 100 100 255 100 100 255 100 100 255 100 100 255 100 100 255 100 100 255
100 100 255 100 100 255 100 100 255 100 100 255 100 100 255 100 100 255 100 100 255 100 100 255
100 100 255 100 100 255 100 100 255 100 100 255 100 100 255 100 100 255 100 100 255 100 100 255
100 100 255 100 100 255 100 100 255 100 100 255 100 100 255 100 100 255 100 100 255 100 100 255
100 100 255 100 100 255 100 100 255 100 100 255 100 100 255 100 100 255 100 100 255 100 100 255
100 100 255 100 100 255 100 100 255 100 100 255 100 100 255 100 100 255 100 100 255 100 100 255
100 100 255 100 100 255 100 100 255 100 100 255 100 100 255 100 100 255 100 100 255 100 100 255
100 100 255 100 100 255 100 100 255 100 100 255 100 100 255 100 100 255 100 100 255 100 100 255
100 100 255 100 100 255 100 100 255 100 100 255 100 100 255 100 100 255 100 100 255 100 100 255
100 100 255 100 100 255 100 100 255 100 100 255 100 100 255 100 100 255 100 100 255 100 100 255
100 100 255 100 100 255 100 100 255 100 100 255 100 100 255 100 100 255 100 100 255 100 100 255
100 100 255 100 100 255 100 100 255 100 100 255 100 100 255 100 100 255 100 100 255 100 100 255
100 100 255 100 100 255 100 100 255 100 100 255 100 100 255 100 100 255 100 100 255 100 100 255
100 100 255 100 100 255 100 100 255 100 100 255 100 100 255 100 100 255 100 100 255 100 100 255
100 100 255 100 100 255 100 100 255 100 100 255 100 100 255 100 100 255 100 100 255 100 100 255
100 100 255 100 100 255 100 100 255 100 100 255 100 100 255 100 100 255 100 100 255 100 100 255
100 100 255 100 100 255 100 100 255 100 100 255 100 100 255 100 100 255 100 100 255 100 100 255
100 100 255 100 100 255 100 100 255 100 100 255 100 100 255 100 100 255 100 100 255 100 100 255
100 100 255 100 100 255 100 100 255 100 100 255 100 100 255 100 100 255 100 100 255 100 100 255
100 100 255 100 100 255 100 100 255 100 100 255 100 100 255 100 100 255 100 100 255 100 100 255
100 100 255 100 100 255 100 100 255 100 100 255 100 100 255 100 100 255 100 100 255 100 100 255
100 100 255 100 100 255 100 100 255 100 100 255 100 100 255 100 100 255 100 100 255 100 100 255
100 100 255 100 100 255 100 100 255 100 100 255 100 100 255 100 100 255 100 100 255 100 100 255
100 100 255 100 100 255 100 100 255 100 100 255 100 100 255 100 100 255 100 100 255 100 100 255
100 100 255 100 100 255 100 100 255 100 100 255 100 100 255 100 100 255 100 100 255 100 100 255
100 100 255 100 100 255 100 100 255 100 100 255 100 100 255 100 100 255 100 100 255 100 100 255
100 100 255 100 100 255 100 100 255 100 100 255 100 100 255 100 100 255 100 100 255 100 100 255
100 100 255 100 100 255 100 100 255 100 100 255 100 100 255 100 100 255 100 100 255 100 100 255
100 100 255 100 100 255 100 100 255 100 100 255 100 100 255 100 100 255 100 100 255 100 100 255
100 100 255 100 100 255 100 100 255 100 100 255 100 100 255 100 100 255 100 100 255 100 100 255
100 100 255 100 100 255 100 100 255 100 100 255 100 100 255 100 100 255 100 100 255 100 100 255
100 100 255 100 100 255 100 100 255 100 100 255 100 100 255 100 100 255 100 100 255 100 100 255
100 100 255 100 100 255 100 100 255 100 100 255 100 100 255 100 100 255 100 100 255 100 100 255
100 100 255 100 100 255 100 100 255 100 100 255 100 100 255 100 100 255 100 100 255 100 100 255
100 100 255 100 100 255 100 100 255 100 100 255 100 100 255 100 100 255 100 100 255 100 100 255
100 100 255 100 100 255 100 100 255 100 100 255 100 100 255 100 100 255 100 100 255 100 100 255
100 100 255 100 100 255 100 100 255 100 100 255 100 100 255 100 100 255 100 100 255 100 100 255
100 100 255 100 100 255 100 100 255 100 100 255 100 100 255 100 100 255 100 100 255 100 100 255
100 100 255 100 100 255 100 100 255 100 100 255 100 100 255 100 100 255 100 100 255 100 100 255
100 100 255 100 100 255 100 100 255 100 100 255 100 100 255 100 100 255 100 100 255 100 100 255
100 100 255 100 100 255 100 100 255 100 100 255 100 100 255 100 100 255 100 100 255 100 100 255
100 100 255 100 100 255 100 100 255 100 100 255 100 100 255 100 100 255 100 100 255 100 100 255
100 100 255 100 100 255 100 100 255 100 100 255 100 100 255 100 100 255 100 100 255 100 100 255
100 100 255 100 100 255 100 100 255 100 100 255 100 100 255 100 100 255 100 100 255 100 100 255
100 100 255 100 100 255 100 100 255 100 100 255 100 100 255 100 100 255 100 100 255 100 100 255
100 100 255 100 100 255 100 100 255 100 100 255 100 100 255 100 100 255 100 100 255 100 100 255
100 100 255 100 100 255 100 100 255 100 100 255 100 100 255 100 100 255 100 100 255 100 100 255
100 100 255 100 100 255 100 100 255 100 100 255 100 100 255 100 100 255 100 100 255 100 100 255
100 100 255 100 100 255 100 100 255 100 100 255 100 100 255 100 100 255 100 100 255 100 100 255
100 100 255 100 100 255 100 100 255 100 100 255 100 100 255 100 100 255 100 100 255 100 100 255
100 100 255 100 100 255 100 100 255 100 100 255 100 100 255 100 100 255 100 100 255 100 100 255
100 100 255 100 100 255 100 100 255 100 100 255 100 100 255 100 100 255 100 100 255 100 100 255
100 100 255 100 100 255 100 100 255 100 100 255 100 100 255 100 100 255 100 100 255 100 100 255
100 100 255 100 100 255 100 100 255 100 100 255 100 100 255 100 100 255 100 100 255 100 100 255
100 100 255 100 100 255 100 100 255 100 100 255 100 100 255 100 100 255 100 100 255 100 100 255
100 100 255 100 100 255 100 100 255 100 100 255 100 100 255 100 100 255 100 100 255 100 100 255
100 100 255 100 100 255 100 100 255 100 100 255 100 100 255 100 100 255 100 100 255 100 100 255
100 100 255 100 100 255 100 100 255 100 100 255 100 100 255 100 100 255 100 100 255 100 100 255
100 100 255 100 100 255 100 100 255 100 100 255 100 100 255 100 100 255 100 100 255 100 100 255
100 100 255 100 100 255 100 100 255 100 100 255 100 100 255 100 100 255 100 100 255 100 100 255
100 100 255 100 100 255 100 100 255 100 100 255 100 100 255 100 100 255 100 100 255 100 100 255
100 100 255 100 100 255 100 100 255 100 100 255 100 100 255 100 100 255 100 100 255 100 100 255
100 100 255 100 100 255 100 100 255 100 100 255 100 100 255 100 100 255 100 100 255 100 100 255
100 100 255 100 100 255 100 100 255 100 100 255 100 100 255 100 100 255 100 100 255 100 100 255
100 100 255 100 100 255 100 100 255 100 100 255 100 100 255 100 100 255 100 100 255 100 100 255
100 100 255 100 100 255 100 100 255 100 100 255 100 100 255 100 100 255 100 100 255 100 100 255
100 100 255 100 100 255 100 100 255 100 100 255 100 100 255 100 100 255 100 100 255 100 100 255
100 100 255 100 100 255 100 100 255 100 100 255 100 100 255 100 100 255 100 100 255 100 100 255
100 100 255 100 100 255 100 100 255 100 100 255 100 100 255 100 100 255 100 100 255 100 100 255
100 100 255 100 100 255 100 100 255 100 100 255 100 100 255 100 100 255 100 100 255 100 100 255
100 100 255 100 100 255 100 100 255 100 100 255 100 100 255 100 100 255 100 100 255 100 100 255
100 100 255 100 100 255 100 100 255 100 100 255 100 100 255 100 100 255 100 100 255 100 100 255
100 100 255 100 100 255 100 100 255 100 100 255 100 100 255 100 100 255 100 100 255 100 100 255
100 100 255 100 100 255 100 100 255 100 100 255 100 100 255 100 100 255 100 100 255 100 100 255
100 100 255 100 100 255 100 100 255 100 100 255 100 100 255 100 100 255 100 100 255 100 100 255
100 100 255 100 100 255 100 100 255 100 100 255 100 100 255 100 100 255 100 100 255 100 100 255
100 100 255 100 100 255 100 100 255 100 100 255 100 100 255 100 100 255 100 100 255 100 100 255
100 100 255 100 100 255 100 100 255 100 100 255 100 100 255 100 100 255 100 100 255 100 100 255
100 100 255 100 100 255 100 100 255 100 100 255 100 100 255 100 100 255 100 100 255 100 100 255
100 100 255 100 100 255 100 100 255 100 100 255 100 100 255 100 100 255 100 100 255 100 100 255
100 100 255 100 100 255 100 100 255 100 100 255 100 100 255 100 100 255 100 100 255 100 100 255
100 100 255 100 100 255 100 100 255 100 100 255 100 100 255 100 100 255 100 100 255 100 100 255
100 100 255 100 100 255 100 100 255 100 100 255 100 100 255 100 100 255 100 100 255 100 100 255
100 100 255 100 100 255 100 100 255 100 100 255 100 100 255 100 100 255 100 100 255 100 100 255
100 100 255 100 100 255 100 100 255 100 100 255 100 100 255 100 100 255 100 100 255 100 100 255
100 100 255 100 100 255 100 100 255 100 100 255 100 100 255 100 100 255 100 100 255 100 100 255
100 100 255 100 100 255 100 100 255 100 100 255 100 100 255 100 100 255 100 100 255 100 100 255
100 100 255 100 100 255 100 100 255 100 100 255 100 100 255 100 100 255 100 100 255 100 100 255
100 100 255 100 100 255 100 100 255 100 100 255 100 100 255 100 100 255 100 100 255 100 100 255
100 100 255 100 100 255 100 100 255 100 100 255 100 100 255 100 100 255 100 100 255 100 100 255
100 100 255 100 100 255 100 100 255 100 100 255 100 100 255 100 100 255 100 100 255 100 100 255
100 100 255 100 100 255 100 100 255 100 100 255 100 100 255 100 100 255 100 100 255 100 100 255
100 100 255 100 100 255 100 100 255 100 100 255 100 100 255 100 100 255 100 100 255 100 100 255
100 100 255 100 100 255 100 100 255 100 100 255 100 100 255 100 100 255 100 100 255 100 100 255
100 100 255 100 100 255 100 100 255 100 100 255 100 100 255 100 100 255 100 100 255 100 100 255
100 100 255 100 100 255 100 100 255 100 100 255 100 100 255 100 100 255 100 100 255 100 100 255
100 100 255 100 100 255 100 100 255 100 100 255 100 100 255 100 100 255 100 100 255 100 100 255
100 100 255 100 100 255 100 100 255 100 100 255 100 100 255 100 100 255 100 100 255 100 100 255
100 100 255 100 100 255 100 100 255 100 100 255 100 100 255 100 100 255 100 100 255 100 100 255
100 100 255 100 100 255 100 100 255 100 100 255 100 100 255 100 100 255 100 100 255 100 100 255
100 100 255 100 100 255 100 100 255 100 100 255 100 100 255 100 100 255 100 100 255 100 100 255
100 100 255 100 100 255 100 100 255 100 100 255 100 100 255 100 100 255 100 100 255 100 100 255
100 100 255 100 100 255 100 100 255 100 100 255 100 100 255 100 100 255 100 100 255 100 100 255
100 100 255 100 100 255 100 100 255 100 100 255 100 100 255 100 100 255 100 100 255 100 100 255
100 100 255 100 100 255 100 100 255 100 100 255 100 100 255 100 100 255 100 100 255 100 100 255
100 100 255 100 100 255 100 100 255 100 100 255 100 100 255 100 100 255 100 100 255 100 100 255
100 100 255 100 100 255 100 100 255 100 100 255 100 100 255 100 100 255 100 100 255 100 100 255
100 100 255 100 100 255 100 100 255 100 100 255 100 100 255 100 100 255 100 100 255 100 100 255
100 100 255 100 100 255 100 100 255 100 100 255 100 100 255 100 100 255 100 100 255 100 100 255
100 100 255 100 100 255 100 100 255 100 100 255 100 100 255 100 100 255 100 100 255 100 100 255
100 100 255 100 100 255 100 100 255 100 100 255 100 100 255 100 100 255 100 100 255 100 100 255
100 100 255 100 100 255 100 100 255 100 100 255 100 100 255 100 100 255 100 100 255 100 100 255
100 100 255 100 100 255 100 100 255 100 100 255 100 100 255 100 100 255 100 100 255 100 100 255
100 100 255 100 100 255 100 100 255 100 100 255 100 100 255 100 100 255 100 100 255 100 100 255
100 100 255 100 100 255 100 100 255 100 100 255 100 100 255 100 100 255 100 100 255 100 100 255
100 100 255 100 100 255 100 100 255 100 100 255 100 100 255 100 100 255 100 100 255 100 100 255
100 100 255 100 100 255 100 100 255 100 100 255 100 100 255 100 100 255 100 100 255 100 100 255
100 100 255 100 100 255 100 100 255 100 100 255 100 100 255 100 100 255 100 100 255 100 100 255
100 100 255 100 100 255 100 100 255 100 100 255 100 100 255 100 100 255 100 100 255 100 100 255
100 100 255 100 100 255 100 100 255 100 100 255 100 100 255 100 100 255 100 100 255 100 100 255
100 100 255 100 100 255 100 100 255 100 100 255 100 100 255 100 100 255 100 100 255 100 100 255
100 100 255 100 100 255 100 100 255 100 100 255 100 100 255 100 100 255 100 100 255 100 100 255
100 100 255 100 100 255 100 100 255 100 100 255 100 100 255 100 100 255 100 100 255 100 100 255
100 100 255 100 100 255 100 100 255 100 100 255 100 100 255 100 100 255 100 100 255 100 100 255
100 100 255 100 100 255 100 100 255 100 100 255 100 100 255 100 100 255 100 100 255 100 100 255
100 100 255 100 100 255 100 100 255 100 100 255 100 100 255 100 100 255 100 100 255 100 100 255
100 100 255 100 100 255 100 100 255 100 100 255 100 100 255 100 100 255 100 100 255 100 100 255
100 100 255 100 100 255 100 100 255 100 100 255 100 100 255 100 100 255 100 100 255 100 100 255
100 100 255 100 100 255 100 100 255 100 100 255 100 100 255 100 100 255 100 100 255 100 100 255
100 100 255 100 100 255 100 100 255 100 100 255 100 100 255 100 100 255 100 100 255 100 100 255
100 100 255 100 100 255 100 100 255 100 100 255 100 100 255 100 100 255 100 100 255 100 100 255
100 100 255 100 100 255 100 100 255 100 100 255 100 100 255 100 100 255 100 100 255 100 100 255
100 100 255 100 100 255 100 100 255 100 100 255 100 100 255 100 100 255 100 100 255 100 100 255
100 100 255 100 100 255 100 100 255 100 100 255 100 100 255 100 100 255 100 100 255 100 100 255
100 100 255 100 100 255 100 100 255 100 100 255 100 100 255 100 100 255 100 100 255 100 100 255
100 100 255 100 100 255 100 100 255 100 100 255 100 100 255 100 100 255 100 100 255 100 100 255
100 100 255 100 100 255 100 100 255 100 100 255 100 100 255 100 100 255 100 100 255 100 100 255
100 100 255 100 100 255 100 100 255 100 100 255 100 100 255 100 100 255 100 100 255 100 100 255
100 100 255 100 100 255 100 100 255 100 100 255 100 100 255 100 100 255 100 100 255 100 100 255
100 100 255 100 100 255 100 100 255 100 100 255 100 100 255 100 100 255 100 100 255 100 100 255
100 100 255 100 100 255 100 100 255 100 100 255 100 100 255 100 100 255 100 100 255 100 100 255
100 100 255 100 100 255 100 100 255 100 100 255 100 100 255 100 100 255 100 100 255 100 100 255
100 100 255 100 100 255 100 100 255 100 100 255 100 100 255 100 100 255 100 100 255 100 100 255
100 100 255 100 100 255 100 100 255 100 100 255 100 100 255 100 100 255 100 100 255 100 100 255
100 100 255 100 100 255 100 100 255 100 100 255 100 100 255 100 100 255 100 100 255 100 100 255
100 100 255 100 100 255 100 100 255 100 100 255 100 100 255 100 100 255 100 100 255 100 100 255
100 100 255 100 100 255 100 100 255 100 100 255 100 100 255 100 100 255 100 100 255 100 100 255
100 100 255 100 100 255 100 100 255 100 100 255 100 100 255 100 100 255 100 100 255 100 100 255
100 100 255 100 100 255 100 100 255 100 100 255 100 100 255 100 100 255 100 100 255 100 100 255
100 100 255 100 100 255 100 100 255 100 100 255 100 100 255 100 100 255 100 100 255 100 100 255
100 100 255 100 100 255 100 100 255 100 100 255 100 100 255 100 100 255 100 100 255 100 100 255
100 100 255 100 100 255 100 100 255 100 100 255 100 100 255 100 100 255 100 100 255 100 100 255
100 100 255 100 100 255 100 100 255 100 100 255 100 100 255 100 100 255 100 100 255 100 100 255
100 100 255 100 100 255 100 100 255 100 100 255 100 100 255 100 100 255 100 100 255 100 100 255
100 100 255 100 100 255 100 100 255 100 100 255 100 100 255 100 100 255 100 100 255 100 100 255
100 100 255 100 100 255 100 100 255 100 100 255 100 100 255 100 100 255 100 100 255 100 100 255
100 100 255 100 100 255 100 100 255 100 100 255 100 100 255 100 100 255 100 100 255 100 100 255
100 100 255 100 100 255 100 100 255 100 100 255 100 100 255 100 100 255 100 100 255 100 100 255
100 100 255 100 100 255 100 100 255 100 100 255 100 100 255 100 100 255 100 100 255 100 100 255
100 100 255 100 100 255 100 100 255 100 100 255 100 100 255 100 100 255 100 100 255 100 100 255
100 100 255 100 100 255 100 100 255 100 100 255 100 100 255 100 100 255 100 100 255 100 100 255
100 100 255 100 100 255 100 100 255 100 100 255 100 100 255 100 100 255 100 100 255 100 100 255
100 100 255 100 100 255 100 100 255 100 100 255 100 100 255 100 100 255 100 100 255 100 100 255
100 100 255 100 100 255 100 100 255 100 100 255 100 100 255 100 100 255 100 100 255 100 100 255
100 100 255 100 100 255 100 100 255 100 100 255 100 100 255 100 100 255 100 100 255 100 100 255
100 100 255 100 100 255 100 100 255 100 100 255 100 100 255 100 100 255 100 100 255 100 100 255
100 100 255 100 100 255 100 100 255 100 100 255 100 100 255 100 100 255 100 100 255 100 100 255
100 100 255 100 100 255 100 100 255 100 100 255 100 100 255 100 100 255 100 100 255 100 100 255
100 100 255 100 100 255 100 100 255 100 100 255 100 100 255 100 100 255 100 100 255 100 100 255
100 100 255 100 100 255 100 100 255 100 100 255 100 100 255 100 100 255 100 100 255 100 100 255
100 100 255 100 100 255 100 100 255 100 100 255 100 100 255 100 100 255 100 100 255 100 100 255
100 100 255 100 100 255 100 100 255 100 100 255 100 100 255 100 100 255 100 100 255 100 100 255
100 100 255 100 100 255 100 100 255 100 100 255 100 100 255 100 100 255 100 100 255 100 100 255
100 100 255 100 100 255 100 100 255 100 100 255 100 100 255 100 100 255 100 100 255 100 100 255
100 100 255 100 100 255 100 100 255 100 100 255 100 100 255 100 100 255 100 100 255 100 100 255
100 100 255 100 100 255 100 100 255 100 100 255 100 100 255 100 100 255 100 100 255 100 100 255
100 100 255 100 100 255 100 100 255 100 100 255 100 100 255 100 100 255 100 100 255 100 100 255
100 100 255 100 100 255 100 100 255 100 100 255 100 100 255 100 100 255 100 100 255 100 100 255
100 100 255 100 100 255 100 100 255 100 100 255 100 100 255 100 100 255 100 100 255 100 100 255
100 100 255 100 100 255 100 100 255 100 100 255 100 100 255 100 100 255 100 100 255 100 100 255
100 100 255 100 100 255 100 100 255 100 100 255 100 100 255 100 100 255 100 100 255 100 100 255
100 100 255 100 100 255 100 100 255 100 100 255 100 100 255 100 100 255 100 100 255 100 100 255
100 100 255 100 100 255 100 100 255 100 100 255 100 100 255 100 100 255 100 100 255 100 100 255
100 100 255 100 100 255 100 100 255 100 100 255 100 100 255 100 100 255 100 100 255 100 100 255
100 100 255 100 100 255 100 100 255 100 100 255 100 100 255 100 100 255 100 100 255 100 100 255
100 100 255 100 100 255 100 100 255 100 100 255 100 100 255 100 100 255 100 100 255 100 100 255
100 100 255 100 100 255 100 100 255 100 100 255 100 100 255 100 100 255 100 100 255 100 100 255
100 100 255 100 100 255 100 100 255 100 100 255 100 100 255 100 100 255 100 100 255 100 100 255
100 100 255 100 100 255 100 100 255 100 100 255 100 100 255 100 100 255 100 100 255 100 100 255
100 100 255 100 100 255 100 100 255 100 100 255 100 100 255 100 100 255 100 100 255 100 100 255
100 100 255 100 100 255 100 100 255 100 100 255 100 100 255 100 100 255 100 100 255 100 100 255
100 100 255 100 100 255 100 100 255 100 100 255 100 100 255 100 100 255 100 100 255 100 100 255
100 100 255 100 100 255 100 100 255 100 100 255 100 100 255 100 100 255 100 100 255 100 100 255
100 100 255 100 100 255 100 100 255 100 100 255 100 100 255 100 100 255 100 100 255 100 100 255
100 100 255 100 100 255 100 100 255 100 100 255 100 100 255 100 100 255 100 100 255 100 100 255
100 100 255 100 100 255 100 100 255 100 100 255 100 100 255 100 100 255 100 100 255 100 100 255
100 100 255 100 100 255 100 100 255 100 100 255 100 100 255 100 100 255 100 100 255 100 100 255
100 100 255 100 100 255 100 100 255 100 100 255 100 100 255 100 100 255 100 100 255 100 100 255
100 100 255 100 100 255 100 100 255 100 100 255 100 100 255 100 100 255 100 100 255 100 100 255
100 100 255 100 100 255 100 100 255 100 100 255 100 100 255 100 100 255 100 100 255 100 100 255
100 100 255 100 100 255 100 100 255 100 100 255 100 100 255 100 100 255 100 100 255 100 100 255
100 100 255 100 100 255 100 100 255 100 100 255 100 100 255 100 100 255 100 100 255 100 100 255
100 100 255 100 100 255 100 100 255 100 100 255 100 100 255 100 100 255 100 100 255 100 100 255
100 100 255 100 100 255 100 100 255 100 100 255 100 100 255 100 100 255 100 100 255 100 100 255
100 100 255 100 100 255 100 100 255 100 100 255 100 100 255 100 100 255 100 100 255 100 100 255
100 100 255 100 100 255 100 100 255 100 100 255 100 100 255 100 100 255 100 100 255 100 100 255
100 100 255 100 100 255 100 100 255 100 100 255 100 100 255 100 100 255 100 100 255 100 100 255
100 100 255 100 100 255 100 100 255 100 100 255 100 100 255 100 100 255 100 100 255 100 100 255
100 100 255 100 100 255 100 100 255 100 100 255 100 100 255 100 100 255 100 100 255 100 100 255
100 100 255 100 100 255 100 100 255 100 100 255 100 100 255 100 100 255 100 100 255 100 100 255
100 100 255 100 100 255 100 100 255 100 100 255 100 100 255 100 100 255 100 100 255 100 100 255
100 100 255 100 100 255 100 100 255 100 100 255 100 100 255 100 100 255 100 100 255 100 100 255
100
